/* XPM */
static char *_e327bbe8b314f03a98be9efb19bffe1I9zijEGcCfH2q8th[] = {
/* columns rows colors chars-per-pixel */
"128 128 164 2 ",
"   c #010000",
".  c #070708",
"X  c #0C0C0C",
"o  c #141414",
"O  c #171718",
"+  c #1C1C1C",
"@  c #201F1F",
"#  c #1F201F",
"$  c #201F20",
"%  c #242524",
"&  c #282827",
"*  c #272628",
"=  c #2C2C2C",
"-  c #302F2F",
";  c #2F302F",
":  c #31322F",
">  c #2F2E30",
",  c #302F30",
"<  c #343434",
"1  c #383737",
"2  c #373836",
"3  c #383837",
"4  c #373638",
"5  c #373838",
"6  c #3C3C3C",
"7  c #403F3F",
"8  c #3F403F",
"9  c #40403F",
"0  c #3F3E40",
"q  c #403F40",
"w  c #3F4040",
"e  c #434343",
"r  c #484747",
"t  c #474847",
"y  c #484847",
"u  c #484748",
"i  c #4B4B4B",
"p  c #4F504F",
"a  c #50504F",
"s  c #4F4F50",
"d  c #504F50",
"f  c #535353",
"g  c #575857",
"h  c #585857",
"j  c #575758",
"k  c #575958",
"l  c #5B5B5B",
"z  c #605F5F",
"x  c #5F605F",
"c  c #61615F",
"v  c #5F6060",
"b  c #646464",
"n  c #676867",
"m  c #686867",
"M  c #676868",
"N  c #6B6B6B",
"B  c #6F7070",
"V  c #747474",
"C  c #787877",
"Z  c #7B7B7B",
"A  c #7E807E",
"S  c #80807F",
"D  c #7F7E80",
"F  c #838383",
"G  c #878887",
"H  c #888987",
"J  c #878888",
"K  c #8A8A8A",
"L  c #90908F",
"P  c #8F9090",
"I  c #949494",
"U  c #979897",
"Y  c #979798",
"T  c #989798",
"R  c #979899",
"E  c #98989A",
"W  c #9A9A9A",
"Q  c #9B9B9B",
"!  c #9A9A9B",
"~  c #999999",
"^  c #9C9C9C",
"/  c #9E9E9E",
"(  c #9C9C9C",
")  c #A09F9F",
"_  c #A0A09F",
"`  c #A1A1A1",
"'  c #A2A2A2",
"]  c #A5A5A5",
"[  c #A3A4A3",
"{  c #A8A8A6",
"}  c #A7A7A9",
"|  c #A8A7A8",
" . c #AAAAAA",
".. c #AEAEAE",
"X. c #ACACAC",
"o. c #B0AFAF",
"O. c #AFB0AF",
"+. c #B0B0AF",
"@. c #B0AFB0",
"#. c #AFB0B0",
"$. c #B2B3B3",
"%. c #B1B2B1",
"&. c #B3B4B3",
"*. c #B3B3B4",
"=. c #B2B2B4",
"-. c #B4B3B5",
";. c #B3B4B4",
":. c gray71",
">. c #B4B4B5",
",. c #B5B6B6",
"<. c #B6B6B6",
"1. c #B7B7B7",
"2. c #B5B6B5",
"3. c #B4B4B4",
"4. c #B8B7B7",
"5. c #B7B8B7",
"6. c #B8B8B7",
"7. c #B7B7B8",
"8. c #B8B7B8",
"9. c #B7B8B8",
"0. c #B9B9B9",
"q. c #BBBBBB",
"w. c #B9B9BA",
"e. c #BCBCBC",
"r. c gray74",
"t. c #BCBDBC",
"y. c gray",
"u. c gray75",
"i. c #BDBDBE",
"p. c #BCBCBC",
"a. c #BFC0BF",
"s. c #C0C0BF",
"d. c #BFBFC0",
"f. c #BFC0C0",
"g. c #C1C1C1",
"h. c #C3C3C3",
"j. c gray76",
"k. c gray77",
"l. c #C5C5C5",
"z. c #C5C5C5",
"x. c #C6C5C5",
"c. c #C6C6C6",
"v. c #C7C7C6",
"b. c #C6C5C6",
"n. c #C3C3C3",
"m. c #C7C8C7",
"M. c #C8C8C7",
"N. c #C7C7C8",
"B. c #C8C7C8",
"V. c #C9C9C9",
"C. c #CACBCA",
"Z. c #C9CAC9",
"A. c #CECECE",
"S. c #CACACA",
"D. c #CFCFD0",
"F. c #D3D3D3",
"G. c gray82",
"H. c #D7D7D7",
"J. c #D4D4D4",
"K. c #DBDBDB",
"L. c #DFE0DF",
"P. c #E3E3E3",
"I. c #EAEAEA",
"U. c #F2F2F2",
/* pixels */
"                                                                                                                                                                                                                                                                ",
"                                                                                                                                                                                                                                                                ",
"    f U T W W W U U U U U U U U U U W W U U U U U U U U W W U U U U U U U U U U U U U U U U U U U U U U W W U U U U U U U U U U U U U U U U U U U U U U U U U U U U U U U U U U U U U U U U U U U U U U U U U U U U U U U U U U U U U U U U U U U W W U I 5     ",
"    I C.F F F F F F F F F F F F F F F F F F F F F F F F F F F F F F F F F F F F F F F F F F F F F F F F F F F F F F F F F F F F F F F F F F F F F F F F F F F F F F F F F F F F F F F F F F F F F F F F F F F F F F F F F F F F F F F F F F F F F F F K K.l     ",
"    U U   O l b b b b b b b b b b b b b b b b b b b b b b b b b b b b b b b b b b b b b b b b b b b b b b b b b b b b b b b b b b b b b b b b b b b b b b b b b b b b b b b b b b b b b b b b b b b b b b b b b b b b b b b b b b b b b b b b b b l O X 0.l     ",
"    U U   6 K.X.W W W W W W W W W W W W W W W W W W W W W W W W W W W W W W W W W W W W W W W W W W W W W W W W W W W W W W W W W W W ^ W W W W W W W W W W W W W W W W W W W W W W W W W W W W W W W W W W W W W W ^ W W W W W W W W W W W W W X.H.< X r.l     ",
"    I U   e C.= = i u u u u u u u u u u u u u u u u u u u u u u i u u u u u u u u u u u u u u u u u u u u u u u u i u u u u u u u u u u u u u u u u u u u u u u u u u u u u u u u u u u u u u u u u u u u u u u t u u u u u u u u u r r r r u + = C.5 X 0.l     ",
"    I U   e C.< _ K.r.r.r.r.r.r.r.r.r.r.r.r.r.r.r.r.r.r.r.r.r.r.r.r.r.r.r.r.r.r.r.r.r.r.r.r.r.r.r.r.r.r.r.r.r.r.r.r.r.r.r.r.r.r.r.r.r.r.r.r.r.r.c.P.A.r.r.r.r.0.r.r.r.r.r.r.r.r.r.r.r.r.r.r.r.r.r.r.r.r.r.r.r.h.I.F.r.r.r.r.r.r.r.r.r.r.r.r.r.d = C.5 X :.l     ",
"    I U   e C.< ] C % e e e e e e e e e e 6 6 e e e 6 6 6 e 6 6 6 6 6 e e w 6 e e e 6 6 6 6 6 e e e e e 6 6 6 6 e e e 6 6 6 6 6 6 6 6 6 0 6 e 5 < r.f = e e e e e e e e e e e e e e e e e e e 6 6 6 6 6 6 6 5 + h.f % 6 6 6 6 6 6 6 6 6 6 6 6 < i A.5 X 0.l     ",
"    I U   e C.< ' V N H.c.c.c.c.c.c.h.h.h.h.h.h.h.h.h.h.h.h.h.h.h.h.h.c.n.C.K.C.h.c.c.h.h.h.h.h.h.n.k.h.h.h.h.h.n.c.c.c.h.h.h.h.h.h.h.c.c.n.c.W < r.u C B.c.c.c.c.c.c.c.c.c.c.c.c.c.c.c.c.c.c.c.h.h.c.h.h.C.h.% r.r b c.c.h.h.c.c.c.c.c.c.c.c.c.C.C.= X 0.l     ",
"    I U   e C.< ' V Z $.6 u i i u u u u u u u u u u u u u u u u u u u u 6 l A.l e u i u u u u u u u u u u u u u u u e < e u u u u u u i i u u 6 < c.g < i i i i i i u u u u u u u i u u u u u i u u u u e l A.% r.l = i i u u u u i i i u u i u u e X X p.l     ",
"    I U   6 C.< ' V Z W e X.:.:.;.&.:.:.:.:.:.:.:.:.:.*.$.*.:.:.:.:.:.0.F 5 h.6 I r.:.:.:.:.:.:.:.:.:.:.:.:.:.;.:.0.I % W 0.:.:.:.:.:.:.;.;.;.:.0.P.c.:.:.:.:.:.:.:.-.*.*.*.*.*.*.:.:.*.*.*.:.:.*.*.:.0.F < C.= :.C.:.:.:.-.*.&.*.:.:.:.*.-.:.:.:.] % X 0.l     ",
"    I U   e C.< ' C Z ^ % g l l l l l l g f g f g g k k g g f k l l g ' $.e h.r :.K f l l l l l l l l f g l l g f K r.< r.Z l l l l l l l l l l l l l l l l l l l l l l k k l l l l l l l l k k k l k l e < C.% e l l l l l l l l l l l l l l l l i o X 0.l     ",
"    I U   e C.< ' C Z ^ 6 U ^ ^ ( ^ ^ ^ l < V + C ' ^ ^ ^ b % K ' ^ ^ c.$.e h.r $.f i ' ^ ^ W W W W W < 5 ^ ^ W = g r.5 :.y N ^ ^ ^ W W W W W W W W W Q W W Y U U R W W W W W ^ ^ ^ ^ W R R W W W W W W W  .I. .^ W W W W W W R Y R W Y R W W W W K $ X 0.l     ",
"    I U   e C.< ' C Z ^ b F.C m m m m r.' g h.< r.' N N :.| 5 F.F b b b r < h.r $.g F c.b b b b m m b + % b b F.f l 0.5 :.i 0.U b b m m m m m m m m N N N m m m m m m m m m N c.:.N m m m b b m m b b b m m b m m m m m m b m m m m b m m m m N F F.5 X r.l     ",
"    I U   e C.< ' C Z ^ b :.= C K F + F ^ f r.< :.b u e C ] 5 c.6 b K K K ' H.r :.k F H.K K K K K K K K K K K K.s l 0.6 :.p 0.u i J K K K K K F F K K K K J J K K K K K K C = W F < F K K K Z = u K K F K K K K K K K K K K K K K K K K K K Z = % c.5 X r.l     ",
"    I U   6 C.< ' C Z ^ b :.u K.' P.6 F W i 0.< :.b U F Z ] 5 c.r r.$.C C C m = :.l F A.F Z C C C C C C C C F H.i l r.6 0.f 0.u ' :.F Z Z F F F Z Z C C C Z C S F F C F I H.i W F N K.K F K K.l I A.0.P.I Z Z F F F F F F F F F F F F F S K H.l % c.5 X r.l     ",
"    I U   e C.< ' C Z ^ b :.i C.= h.6 K W f r.< 5.b U F Z  .5 h.r r.^ f g g r % :.l F U % g g g g g g g g 6   X.f l r.6 0.f 0.u ] b = f g l l j g g g f f g g g g g g e % 0.i W F N $.% e % :.l I K b r.% e g g g g g g g g g g g g g g i + $.l % c.5 X 0.l     ",
"    I U   6 C.< ' C Z ^ b :.i C.= h.6 K W f r.< :.b U F C ] 5 h.e K 0.:.:.h.H.r $.l F U f $.:.:.:.:.:.:.F.r.O $.f l 0.5 0.f 0.i ] b F K.:.:.:.:.:.:.:.C.I.0.:.:.:.:.:.K = r.i W F N $.u h.r :.l I K u J 6 F.N.:.:.:.:.:.:.:.:.:.:.:.:.:.] - $.l % c.5 X 0.l     ",
"    I U   6 C.< ' C Z W b :.i C.< h.6 K ^ f r.< :.b U F C ] 5 C.g = = < + < c.u $.l Z $.5 6 6 6 e e e % l 0.+ X.f l h.g h.f 0.i ] b K F o = = = = = O f r.o & 5 < < = = r c.i W F N $.u h.r :.l I ' = = f C.5 X % X % = = = = = = = = > % O $.l % c.5 X 0.l     ",
"    I U   6 C.< ' C Z W b :.i C.< h.6 C K f p.< :.b U F C ] < c.F.A.A.K.$.6 h.u &.g m F.c.c.c.c.c.C.K.I l 0.+ $.f i K.F.A.u 0.i ] b K Z m P.A.A.F.F.b s h.% 0.K.P.K.F.F.H.P.u W F N $.u c.r ] f F P.F.F.H.A.= j 0.< ] A.A.A.A.A.A.A.A.J.C.< $.l % c.5 X r.l     ",
"    I U   6 C.< ' C Z ^ m 4.i C.< h.r O + f r.= :.b U F C X.+ = < 5 = V r.6 h.u :.g + u u u r r e = K ' l 0.+ $.g X = < = + 0.i ] b K Z C $.= < < < + l c.= h.l X.J % % 6 c.u U F N X.u c.< + o + = = = = %   b F.6 < 6 6 < % = > = % i C.5 $.l % c.5 X p.l     ",
"    I U   e C.< ' C Z P.H.:.u C.< c.F.0.0.A.c.= :.b U F C I.c.c.n.h.f l r.e c.u :.f f h.h.d.r.h.A.g Z ' b 0.O $.f 6 $.:. .e 0.f ] b K Z V  .5 :.h.r.r.A.0.= h.r ' C u C = ' 5 U F N X.u K.N.0.r.r.0.r.r.p.X.% l P.c.h.h.C.X.= W c.c.V 5 C.5 $.l % n.< X 0.l     ",
"    I U   e C.< ' C Z h.b 6 6 C.= h.C f l I h.= :.b U F C h.C H.V g < b r.e c.u :.M < g g g f e :.N F ' b h.< 0.f l F.Z C.f 0.f ] b K Z V  .u A.m f l g e % h.r ' Z V :.o & = ] F N 9.5 l l l f i i U A.F J.e = g g l i C A.6 h.K :.W e C.6 $.l % h.< X 0.l     ",
"    I U   e C.< ' V C K.O.F r A.= h.5 u X.c.r.= :.b U F C  .5 h.< b ;.C.0.e c.u $.F.r.r.0.0.r.< ^ N F ' l P.k.P.i l 0.5 0.p 0.f ] b K F V X.t h.< C  . . .X.K.r ' Z N F.F ^ r.H.N b H.0.$. .^ K F 6 b :.r H.h.:.$.$.X.b e c.6 r.f I W e C.5 $.l % h.< X :.l     ",
"    I U   7 C.< ' C C r.] r.f C.= h.6 = b b i + :.b U F C  .6 c.6 6 m b i < c.< % 6 6 6 5 8 c.u ' N F ' % i g f + l 0.6 0.p 0.f ] b K F V X.r h.6 :.X.C C C N %  .F b h.^ C u % X o = r l m Z K K.F m 0.= l m m m m m 6 r c.e 0.f I W e C.6 $.l % n.< X :.l     ",
"    I U   6 C.< ' C Z W b P.A.H.= h.6 f  .X.X.:.P.b U K Z  .6 K.p.| ] ] C 6 c.r I p.r.r.$.e $.u ' N Z P. . .X.X.X.C.h.6 0.p 0.i ] b K F V X.r h.e $.b = m F U $.H.m X + = e b K W ^ U F l 6 +   ' F m 0.< K ' ^ ^ ^ ^ ^ 0.F.6 p.i I W e C.5 $.l & c.< X :.l     ",
"    I U   6 C.< ' C Z ^ % i f 6 + h.6 F c.N M b g % W K C  .+ l N m N  .0.e h.i 0.V i l c.l :.u ' m % l b b b b b b r = 0.f 0.i ] b K F V X.r h.q $.b Z P.' K l < + u ^ r.r.^ F Z C S K  .r.r.] H.F m :.f H.K B V V V N V l o 5 O I W 6 C.5 $.l & n.1 X :.l     ",
"    I U   6 C.< ' C Z ^ < l % b % h.6 F W % f O g < U F C ] + b C V = b :.e h.f $.: g = X.l :.u ] h.K K K K K K K K b = 0.f 0.i ' b K F V X.u c.6 $.b Z  .      = ] r.C r = i m C F F C f = r N $.C m :.i K.^ K K K K K K K K K K A.U 9 C.5 $.l % n.< X 5.l     ",
"    I U   e C.< ^ C Z W b 0.i A.< r.6 F ' i 0.< :.b U F C ] 5 H.c.P.b b :.e h.f :.2 0.f  .l :.r f K K K K K K K K K M < r.f 0.i ] b K F V X.u c.6 $.b Z  .    b c.F < l ] K.P.U.I.$.K U  .r.U 6 o X m 0.< Z K K K K K K K K K K K C.U e C.6 $.l % h.< X 5.l     ",
"    I U   e C.< ^ C Z ^ b :.i C.< r.6 F ' f h.< :.b U F C  .5 c.f :.b b :.e h.f :.5 :.f  .l :.r < l l l l e X r b b e = r.a p.0.K.b K F V X.u c.6 $.b Z X.  m h.u 5  .H.I.0.h.:.r r b Z M l F c.F X l P.:.U F V b f i % o i l f + U W e C.5 $.l % n.< X 5.l     ",
"    I U   e C.< ^ C C W b :.u C.< h.6 F ' f h.< :.b U F C  .5 h.r $.b b :.e h.f :.< :.f X.l :.r ' H.X.$.C.r.< A.C.K.X.< d.u b F F < K F V X.u c.e $.b F ] g c.5 e h.' A.K C $.< F r.U K X.7.Z i $.K % e l F U ^ X.:.P.F u I.c.P.g U W e C.5 $.l % n.< X :.l     ",
"    I U   e C.< ^ C Z ^ b :.u C.< h.6 F ' f r.< :.b U F C  .5 h.r $.b b :.e h.f :.< 0.f X.l :.u ' N O % l 0.< C.u Z X.< C.K b b b % K F V X.i c.e $.b N V 0.m < h.C X.I % :.g C X.& e I  .$.C.W < $.U 6 + + O X     W F u C.5 h.g W ^ e C.5 $.l % n.< X :.l     ",
"    I U   e C.< ^ C Z ^ b :.u C.= h.5 F ] f h.< :.b I F C  .5 h.r $.b b :.6 h.f :.< :.f X.l :.i ^ m V W l 0.< c.e C X.% I  . . .' 5 K F V X.i C.e $.b + C X.% ;.V C $.o 6 0.6 h.< i h.F u l C :.I 5 ] :.r.c.0.^ C u X.F u C.< r.f i l 5 C.5 $.l % n.< X :.l     ",
"    I U   q C.< _ C Z ^ b :.u C.< c.C  . .g h.< :.b I F C  .5 h.r $.b M F.Z A.f :.< :.f X.l :.i ^ m Z  .l 0.< c.e Z X.+ u g g g f $ K Z V X.i C.e $.l X :.l b X.5 r.r   C U N ' < h.f   5 6 g i c.C f f u < i C ^ :.P.F u C.< h.F r = 5 C.5 $.l % n.< X :.l     ",
"    I U   6 C.< ^ C Z ^ b :.u C.= K 0.0.Z f r.< :.b U F C  .5 h.r :.c r $.:.^ e 0.< :.f X.l :.i ^ m A X.l 0.< c.e Z X.= ' 0.:.:.X.e K F V X.i c.e 3.l e r.= $.g C ^ + % ' N F Z N ' < u i K C + f 0.0.r.:. .^ C e = f N f C.= W r.P.I 5 c.5 $.l % c.5 X 0.l     ",
"    I U   6 C.< ^ C Z ^ b :.u H.b u u i < u h.< :.b U F C  .5 h.r 0.I i f f u b C.< :.f X.l :.f ' N Z X.l p.< c.e C 0.= % = = = % o I Z V X.u c.e :.b N W 6 0.= :.i l 5 $.b ' b U Z 6 r. .F b i 5 = = 6 i l V ' H.Z + m i A.< % = X.W 6 C.5 $.l % c.5 X 0.l     ",
"    I U   6 C.< ^ C Z ^ b 0.8 :.r.0.0.r.C i r.< :.b U F C X.6 h.6 K r.0.0.:.:.0. .= 0.g X.l :.f ' m Z X.l p.< c.e m K.A.A.A.A.A.K.g K Z V $.u n.e :.m ^ l C K u 0.; X.= :.b X.l C X.+ % b K X.0.r.c.C.r.U 5   O ] N e V r I.F.A.A.P.F 6 C.5 $.l % n.2 X 9.l     ",
"    I U   6 C.< ^ C Z ^ b 0.% r f g g f r V h.< :.b U ^ I X.6 C.b r f f f f f f r O 0.f X.l :.i ^ m Z X.l 0.< c.l = r u u u r r h.b K F V $.u c.e :.M 3.e U m V W % C.% :.v X.g % X.h.Z r = + + + % % = = e b < 0.e K Z u A.e 5 6 6 % 5 C.6 $.l % n.< X :.l     ",
"    I U   6 C.< ^ C Z ^ b :.r C.C.n.c.c.n.A.$.= ;.b F F.F.W < r.C.h.c.c.c.c.h.c.] + :.f X.l :.i ^ m Z X.l p.= r.C.0.r.r.0.0.:.0.H.g K Z V X.u c.r $.V 0.i X.f ] l % c.% $.l ] l   = u I 0.0.X.X. .' ^ ] X.:.b m :.O U F u c.= ^ 0.h.V 5 C.5 $.l & n.< X :.l     ",
"    I U   6 C.< ^ C Z ^ b :.u F.i e i i i u 6 = r.N < u i 5 % e u u u i i u u u 5 o 0.f X.l :.i ^ m Z  .l r.= r g l g g f f f f i + K Z V X.u c.r $.A 6.g 0.< r.1 % C.%  .l I V =  .F g < r l b b b b b l e N c.u   ^ C u c.< C.C $.W 6 C.5 $.l % n.< X :.l     ",
"    I U   6 C.< ' C Z ^ b :.u C.= U C.C.C.C.C.C.P.H.c.c.c.c.c.c.c.c.c.c.c.c.c.C.W + 0.f X.l :.f ' m Z  .l P.0.$.$.X.X.X.X.X.X.X.] e K F V X.r c.r $.F X.g :.5 h.= + c.< F C F I X f F $.c.0.X.W F Z Z F ' r.X.u = + $.l u C.5 h.e I W 6 N.5 $.l & n.< X :.l     ",
"    I U   6 C.< ' C Z ^ b 0.i C.= 5 i i i i i u u u i f i i i i i i i i i u u F r.+ 0.f X.l :.f ' m C  .l F.Z K.^ m N N N N N N m = K F V X.r c.r X.K  .g :.i :.% o ' F < F b :.O < i u 5 5 g b C F F Z n 6 e Z V < c.% i C.5 h.r U W 6 C.5 $.l % n.2 X 5.l     ",
"    I U   6 C.< _ C Z ^ b :.i C.= K :.$.$.$.$.$.$.$.$.$.$.$.$.$.$.$.$.$.$.:.b i r.+ :.f X.l :.f ' m C ] l r.+ :.f + V Z Z Z Z Z V = K Z V X.e k.u +.F  .l X.b X.6 r r c.r O % c.< N r.r.$. . .' W W W W ^ X.r.I = W W X f C.5 h.r U W 6 C.5 $.l % n.2 X 5.l     ",
"    I U   6 C.< _ C C ^ b 0.i C.< c.F l b b b b b b b b b b b b b b b l g  .I i 0.+ 0.f X.l :.f ' m Z  .g 0.O :.f i K.^ I I U U K.b K Z N X.e r.f :.C  .b ^ N  .u 0.= b h.b %  .C   = r f l l l V C Z C b g e 5 U 0.i u i c.< h.e U W 6 C.5 $.l % n.< X :.l     ",
"    I U   6 C.< ' C C ^ b 0.i C.< r.5 l ' _ ^ ^ ^ ^ ^ ^ ^ ^ ^ ^ ^ ^ ' C   F I f 0.+ 0.f X.l :.f ) N D K. .K.K K.l f p.= i l l +  .b K U  .^ g :.u 0.N ] m U N ] % ] :.< f :.r.D.:.< A.h.:.] K C Z Z C C C K $.C.U % F F u c.< c.r U W 6 C.5 $.l % h.< X :.l     ",
"    I U   6 C.< ' C C ^ b :.i C.< r.e ^ :.C C C C C C C C C C C C C ] h.  F I i 0.+ 0.f X.l :.i ' m e K I K I K < f 0.u A.h.K.r  .b K P.$.5 K I l  .V W m I N ' o + X.V X + r N h 0 C.u i b V F K I I I K Z l %     U F i c.= ^ < U T 6 C.5 $.l % n.< X :.l     ",
"    I U   6 C.< ' C Z ^ b 0.i C.< r.e ^ N 5 = < b m N m b b b b b = r r.  F I i r.+ 0.f X.l :.r ' ^ g l l b b b b U P.0.F.i r.i K f e u % C p.5  .b F F N I N ' g N F K 6 C   + e ' 0.+ % % O   X O O o     X % < X I F i A.= % + ^ W 6 C.5 $.l % n.< X :.l     ",
"    I U   6 C.< ' C Z ^ b 6.i C.< r.e W C F Z N P.] Q U U U W ^ K.F u r.  F I f r.+ 0.f X.l :.u V :.:.$.X.X.] ' W K F m r + r.i O + % l $.$.5 Z X.5 h.5 V I b  .g  .l $.e X.=  .C.F.W 5 C.C.:.5 Z r.0.X.+ < $.B.P.5 I F u P.:.$.$.K.U 6 C.5 $.l % n.< X :.l     ",
"    I U   6 C.< ^ C Z ^ b 0.i C.< h.e K F b  .6 C.< = m N m f X U F u h.X F I f r.% r.f ' g :.f o % = < 5 r i g l l b b m C K.] K $.c. .b = F 0.6 U W X C U u $.i 0.5 h.u V 5 r.g I Z 6 C.V C.i ' ] C K.% g H.l C.6 I K + b b b b b 5 6 C.5 $.l % n.< X :.l     ",
"    I U   6 C.< ^ C Z ^ b 0.i C.< r.6 l $.6 h.6 ^ K < ' X.0.F.= K I < F.g F I f r.% c.e + + 0.F.r.h.n.r.:.$.X. . . .] ' ^ U K K C l < 5 b :.) < F h.e % K K % r.r X.g F ^ + % 0.f W V 6 h.e 0.i ' C 5 P.W X.c.% h.6 K F.U U U U U U g 6 C.5 $.l % h.< X :.l     ",
"    I U   6 C.< ^ C Z ^ b 0.i C.< r.6 % C.< U K < A.l X % % ] I g h.e l c.A.I u F.< I  .+   < 6 6 r u u i i u u u r e 6 6 5 5 6 l K X.r.' f 5 U 0.e K 6 ^ N   ] m C W < c.g X 0.f W N 6 h.r r.i ' Z % K W W C + h.6 r K K K K K K F.W 6 C.5 $.l & n.3 X :.l     ",
"    I U   6 C.< ^ C Z ^ b 0.i C.< r.6    .C < c.r l C.u 6 b e h.m m c.f r C.6.= W X.< ]  .O e U ' X.X.$.0.h.h.h.0.0.0.0.0.0.0.0.] F l r e F r.I + + h.< L 6 = b $.< h.u g 0.= :.f W N e c.r 0.u ' 0.N N N N N C K.K m N N m m m = I W e C.5 $.l & n.< X :.l     ",
"    I U   6 C.< _ C Z ^ b 0.i C.< h.e   l h.% m r.= l c.N e e g c.e b A.C < X. .< U  .<  .Y < B N m l i u i g f f f f i i r r i l N F $.h.K r 5 b < h.r < % :.e :.b m 0.% 5 % $.l W N e c.r 0.u l U I I I I I K U I I I I I U K < I ( 6 C.5 $.l % n.< X 5.l     ",
"    I U   6 C.< _ C C ^ b :.i C.= c. .F I P.I O K r.5 u r.I <   V :.O e 0.U < T :.6 I ] < :.W C W $.0.r.p.:.$.X.X.X.X.$.$.:.:.:.$.' F f = f ^ h.H.i ] b   + _ F l r.< I X.% X X.b U C e c.r h.G l l l l l l l l l l b l l l l g + I ( e C.5 $.l % n.< X 5.l     ",
"    I U   6 C.< ^ C C ^ b :.u C.% V U W W W K + X Z c.g = ^ r.6 o :.V   % W :.e F 0.0 W W r H.H.C f 6 r g l l l l l x l l g u < O X < % F h.C <  .b C Y < K y h.e K ] = K $.% ] V K Z e c.6 I $.X.X.X.X.X.X.X.X.X.X.X.X.X.X.:.K.f K ^ e C.5 $.l % n.< X 5.l     ",
"    I U   6 C.< ' C C W b :.i H.b f f f f f i < % X f c.K % V c.6 f r.% f u C r.r C :.r :.F g h.< r ] X.0.r.:.:.0.:.0.0.:.h.0.$.' e U C U F 6 M b X.e h.r o.l C $.< '  .< e + W Z F F e c.< = 6 5 < < < < < < < < < 5 < > % % r.g K ^ e C.5 $.l % n.< X :.l     ",
"    I U   6 C.< ' C C W b :.6 $.0.0.r.0.0.0.0.h.F.^ 5 < '  .% N 5.% $.N g h.i b h.r F ] i h.g F  .5 b g e < = % < 6 9 5 = < r g 0.F N ^ l X.i :.e 0.u U K f 0.< ^ ^ = I r.g X I K C K r h.6 W h.h.r.r.r.r.r.r.r.r.r.r.h.C.c.6 0.g K ^ e C.5 $.l % n.< X :.l     ",
"    I U   6 C.< ' C Z W b C.f f g g g g f f r < c.r.c.C % K ^ % r.l l :.O b h.i m r.e  .D l h.6 $.I V W :.r.c.h.0.:.$.:.r.h.:.F :. .r $.r r.5 | b V ] 6 h.i K ' = ] ] < g W = F U N W r c.f 5 = < i i i i i i i i i i 5 i c.e r.g K ^ e C.5 $.l % h.< X :.l     ",
"    I U   6 C.< ' C Z W i :.$.$.$.$.$.$.$.h.0.< :.g 5 0.U % f r h.5 W I U g l h.r K ] e h.i I K i :.' Z l 6 5 r i i i r 5 < g I :.i < A.e W F i 0.5 $.m m $.< ] K % I h.b =   C ^ b  .r K.F.A.i C K.c.c.c.c.c.c.c.c.H.W r h.e r.g K ' e C.5 $.l % n.< X :.l     ",
"    I U   6 C.< ' C Z X.< 5 e e r r e e < g h.6 0.f   = r.b   K K f 0.F H.C.e N 0.< $.N V  .< V o O % i Z W  .X.:.r.0.:. .W m = o 6 r.K % ' X.O W K i c.e Z U 5 h.m   f $.h.r l  .g :.r C.C c.l F p.5 u i u u u u < K X.u h.e r.g K ^ 6 C.5 $.l % n.< X :.l     ",
"    I U   6 C.< ' C N K.C.C.C.C.C.C.C.K.K r h.6 :.f F < U F + 0.u ^ F $.b m 0.< ^ F f r.5 :.l u F  .h.0.K N b f r e e r l V  .h.' C.C & W 5.6 r r h.l V 0.< m i f h.% 5 % ] Z l X.r r.e s.u :.h F  .O ] :.:.$.$.0.= N X.u h.e r.g K ^ 6 C.6 :.l % n.2 X :.l     ",
"    I U   6 C.< ' C + 6 e e 6 6 6 5 % U W u h.6 :.f $.f I F e 0.< r.b r.= % U W e c.5 ] N m H.$.K b < r b C ' 0.r.c.d.0.' N e 6 I f = $.( < F 0.% K r.+ Z 0.6 O o X.b K Z Z K l  .< r.e r.i :.g F X.o l m m m m F.r N X.i h.e r.g K ^ 6 C.6 $.l & h.< X :.l     ",
"    I U   6 C.< ' C g r.r.h.r.r.r.C.= F W u h.6 :.f $.f I F m W b ' m ] g K = h.i U F l :.+ < u l I 0.0. .I m e = < < 6 b W r.U + 6 r.Z < ' ] 6 V 0.l % O V c.C o K Z m ' N ] g X.< c.6 p.p :.f S $.X C  .| K O 0.r N X.i h.r r.g K ^ 6 C.5 $.l & n.2 X :.l     ",
"    I U   6 c.< ' C + 6 5 5 5 5 e A.6 F ( u h.6 :.f $.g I F I C F K J F Z I   Z I l $.6 C.W X.0. .C u 5 + + X % ' ] ] ^ C 6 5 u u H.K X b b < F K e N U + + e C.N Z F l X.l $.g $.e c.6 0.f :.f C :.O 0.$.I A.+ 0.r N X.i h.r r.g K ' 6 C.5 $.l % c.< X :.l     ",
"    I U   6 c.< ' c.W ^ ^ W W Z + r.6 K W u h.6 6.g $.g I Z ' g K Z W C Z b + < W 5 h.r 7.X.l 5 6 V I  .$.r.I r H.C b m I h.] g < K r.K r + 5 i b  . .5 V I % h.u I C i X.i 0.f $.r c.6 0.f f.0.C.0.O 0.C < c.+ r.r N X.i h.e r.g K K.:.H.5 $.l % c.5 X 0.l     ",
"    I U   6 c.< ] h.F F F F ' H.= r.6 K W u h.6 0.l :.f L Z ] g U C W C f = K 6 < + 0.u ] b e 0.r.W Z N l Z :.r C.r. .F f = b :.X.l r F $.d.r.r.] b < U :.5 K ^ = r.r u X.e 0.f :.r c.6 0.r b K K l X 0.Z 6 C.+ r.r m X.i h.e 0.f r F F N % $.l % c.5 X 0.l     ",
"    I U   e C.< ] C = N V i 5 C.= r.6 K W u h.6 0.l $.f K Z ^ b K Z K K o % C.e   X r.u ) N F ] < u V W F 6 0.= = 5 l F $.:.b < b $.$.N f r 5 e u C 0.I < K $.= F  .X f X.e 0.f :.r c.e r.6 e l g f l H.F e C.+ r.r m X.i h.r h.X.F F F C % $.l % c.5 X 0.l     ",
"    I U   e C.< ' C C K.A.0.u C.= r.6 K W u h.6 0.l $.i K F K Z F K b X.  b X.O u = r.r  .b U C N A.^ N < = r.6 I  .^ l < f  .8.m < g ^ 0.$.] X.0.I u r  .] = V h.e = l X.u 0.g $.e C.e p.i 0.H.h.h.h.r.l 6 C.+ r.r m X.= b % N I I I I F % $.l % h.5 X 0.l     ",
"    I U   6 C.< ' C C ^ b $.u C.= r.6 K W u h.6 :.l $.s F K m ( m ] i r.% ] b l I f $.6 0.6 $.u U C % N F ^ A.i C.K m  .0.Z < g ] 0.F e 5 i g i 6 l ^ r.N = K h.e l l V W l  .l  .< C.e p.i :.l O % % % o 6 C.+ r.r m X.= b V C C C C V V C F.l % c.5 X 0.g     ",
"    I U   6 C.< ' C C W b :.i C.= r.6 K W u h.6 0.g :.f C Y i :.5 r.6 C u r.6 0.f Z F u :.< 0.e $.g l K F Z m = :.:.m < e I h.K 6 r K :.r.:.$.:.r. .C 6 b 0.^ = 6 0.5 X.l F F l  .5 h.6 r.p :.g C K.A.F.C < c.+ r.r m X.u H.$.' ^ ^ ^ ^ ^ ^ U < = c.5 X 0.g     ",
"    I U   6 C.< ' C C W b :.i C.= r.6 K W u h.6 :.g $.f l $.r r.6 $.f o K I l $.%  .< ^ V b ] e r.+ + r m Z m i u l W 0.K q 6 K r.^ g r < u f e e g C :. .g X O :.V u r.= X.l F K l $.5 s.i :.g F 0.< < % e C.+ r.r m X.u c.5 e l l l l l l g + = c.5 X 0.g     ",
"    I U   6 C.< ' C Z W b :.i C.= r.6 K W u h.6 :.g $.f + h.=  .b N Z % h.r ] m < g f :.< X.l C K = ' $.W I ' :.9.' b f F 0.W u 5 m  .:. . . . .X.:.K l f 5 + ] U = :.b f :.= 0.u K I < h.i :.g Z K.$.$.$.h.c.+ r.r m X.i h.e 0.A.0.0.0.p.h.P.l % c.5 X 0.g     ",
"    I U   6 C.< ' C Z Q b :.i C.= r.6 K W u h.w 0.g X.u + A.r C ' > < F ( e r.% X < r.g b X.< 0.e f l < g b r = 5 b ] 0.F f C 3. .V < 6 g l l f u r C ^ V < ] U = [ U < 0.j b $.= c.V = h.i :.b < l l l l l u o r.r m +.i h.e 0.g O & = % + :.l % c.5 X 0.l     ",
"    I U   6 C.< ' C C W b :.i C.= r.6 K W u h.w 0.f r < ' 0.= f F.+ u r.< U F   = 0.C 6 h.r C W X O e  .$.X.0.c.W g % 6 K r.I g b W r.0.' K N o K H.I 6 X F ^ = ^ { 6  .F < h.i b U.b = k.u 0.C. . . . . . .K + r.r m $.i h.e r.g F P.H.C.< $.l % c.5 X 0.l     ",
"    I U   6 C.< ' C C W b :.i C.= r.6 J W u h.e 0.f r h.W % g h.C r h.l i h.% = 0.F 5 0.N r c.<   < l = = e < < C $.0.V % = C :. .N f r l V c.Z f A.5 < Z V N N k.= W F = $.F < c.P.g = c.6 i N N N N N m I A.+ r.r m $.i h.e r.g I  .g C.5 $.l % c.5 X :.l     ",
"    I U   6 C.< ' C C W b :.i c.= r.6 K W r r.e r.0.h.b % K h.g l h.m < r.l < ^ b f 0.C < 0.m   < 6 % F p.f.:.' l < i ' 0.F < = l ] 0.X.W N u c.f V $.e :.l C g r.; 9 <  .I =  .W 0.g = c.e C ] ] ' ' ^ i 6 C.+ r.r m $.u r.e r.g I U 5 c.5 $.l % n.2 X 5.l     ",
"    I U   6 C.< ' C C W b :.i c.= r.6 K W r r.e h.$.5 5 X.' f J r.i < 0.C % b i Z r.l 5 0.C X < 5 X b h.r 6 u b X.0.C = e K r.] l % < i C K = l r.< ] C K F i = X.N o $.F = ' ' + X.b = c.6 g C C C Z c.F e C.+ r.r m $.% 5 % p.g I W 5 C.5 $.l % n.2 X 9.l     ",
"    I U   e C.< ' C C W b $.u c.= r.6 K W r c.5 u % N h.C l :.^ > i 0.C   + b $.W 5 b h.N o 5 < e 6 Z ^ = W ^ m < u I d.K u < m ' h.' C l 6 % o W K 6 U g 0.% X g r.= $.6 F  .+ X U F < H.^ Z Z F N + I K e C.+ r.r m K.K C K K.g I Y 6 C.5 $.l % n.< X :.l     ",
"    I U   e C.< ' C = 6 % e 6 C.= h.6 K W e ^ O % ] $.g F h.b = K 0.l o g  . .g 6 ^ 0.i + 6 =   ^ V Z ^ l C.Z ] r.I r < Z $.:.C r < b I  .$.r.C < c.i f e 0.i   o $.b b l I Z < m m :.= C I I I X.K.< U F e C.+ r.r m K.W I I F = I T 6 C.5 $.l % n.< X :.l     ",
"    I U   e C.< [ c.I I I I  .H.= r.6 K ^ o + l p.F l :.^ 5 l :.K 5 l X.X.l e F h.F % = 6 +   X ] C Z ' l $.o o 5 K r. .l 6 i U :.$.I g r u u 5 o N :.% X K K = < g :.= 5 b  .l  .5 F.P F F F 6 1 C.< I F e C.+ r.r m $.= N F F F A.^ 6 C.5 $.l % h.< X :.l     ",
"    I U   e C.= l K K K K K F V % h.6 K ' = K 0.b C h.b 6 ^  .g b X. .l i I r.I < + < < +   l < ^ V C ' l $.% K =   + b $.r.I f 6 g Z  .0.0.X.X.W =  .Z   5 h.6 I <  .C   < c.e 0.r p.h.K K A.F 5 A.< I F e C.+ r.r m $.u H.] I I I g 5 C.5 $.l % h.< X :.l     ",
"    I U   e C.= r C C C C C C b + h.e F H.c.^ e W $.e h 0.Z l  .X.l g ^ h.F < O < 5 = e & u P.r W V C ' l :.= C.u 5 l + o e Z :.h.U V g 5 6 i g :.F 6 h.6 X  .V F K i h.= O 0.u X.f F c.F F A.K 5 A.< U F e C.+ r.r m $.u c.5 i m m 5 < C.5 $.l % n.< X :.l     ",
"    I U   e C.< ' C.W I I I I C + r.6 F P.b O W ^ % V 0.b F $.m l ' 0.C = + < 6 = u F r g C.I.e W V C ' l :.= c.r C I.C.K O   o 5 C W $.r.r.0.F 5 c.l V $.O f r.u r.f K ^ X U Z Z K u P.] I I u < A.< U F e C.+ r.r m $.u h.r 0.C.K.K 5 C.5 $.l % n.< X :.l     ",
"    I U   e C.< ] C @ u g l l l b H.e F $.X = h.= m :.l  .U g U :.b = = u r = 5 I ' 6 b C.m h.r W V C ' l :.= C.r Z ' l A.e F N =     + = < r 6   l h.5 W I O ^ F b :.e :.g b ] f 0.% c.F g f i C H.< U F e C.+ r.r m $.u h.r r.b ^ I 6 C.5 $.l % n.< X :.l     ",
"    I U   6 C.< ] C C K.X.] ] ' ' W % F :.X i $.+ 0.f ' F i 0.Z < b Z l = = F h.F = F C.i X r.r W V C ' l :.= C.r C K = h.r h.C.F.u g l         X % K ] < h.b < h.i K ' f ^ e r.u :.r m  .] ] ] ' K % I F e C.+ r.r m $.i h.r r.g I I 6 C.5 $.l % n.2 X :.l     ",
"    I U   6 C.< ] C Z ^ = l b b b b l :.0.o K F e +.f r.= $.l < :.( <   % c. .5 = [ X.5 < O h.r W V C ' l :.= c.r C U = h.r 0.e X.b F K.F F F r % S = 0.C u c.r b 0.r X.F e 6 X.b U C X f b b b b b b r.K e C.+ r.r m $.i c.u r.g U I 6 C.5 $.l & n.< X :.l     ",
"    I U   6 C.< ' C C W l K.:.X.X. . .$.F o $.g N U l ] r :.% ' H + X f < c.% e c.U = Z F o r.r W V C ' l $.= c.r C W < h.r 0.6 ] l e I I W H.K % :.= 5 C.f b h.< K X.r :.C   V ' l $.+ r.A.X.+.+.X.X.$.l 6 C.+ r.r m $.i c.u r.l U I 6 C.5 $.l & n.2 X :.l     ",
"    I U   6 C.< ' C Z W m 0.< i g f f f = + r.e K C K V C I 5 r.= m u  .e c.= F X.O K A.b f F.r ^ V C ' l :.= c.r C W < h.r 0.< X.I r r r + F I o $.l   b h.< F  .= ^ U e r.m < :.u r.< ^ ' a f f a i u e m A.+ r.r m $.i c.u r.l U I e C.5 $.l % n.< X :.l     ",
"    I U   6 C.< ' C Z W m $.<  .0.0.0.K.K < 0.6 X.f  .f U N f  .+ r.f  .f 0.u b $.O r.A.:.$.X.= W V C ' 3 m % C.r C ^ < h.r :.< C X.X.$.P.l F U   ^ Z e < F $.= U ' = ] K r r.i ' l U N g I.c.r.r.r.r.0.0.h.] + r.r m $.i c.u r.l U I e C.5 $.l & n.< X :.l     ",
"    I U   6 C.< ' C Z U m c.e 5 < < o I K r X.= 0.< $.f X.i F K X ^ V ^ b I C 6 c.+ 0.f = g g f r.V C ' + i b K.r C ] < h.r 9.< 5 l l % ] b Z U   F K l K X U ] = W W < X.N C W m W b ' 5 A.l = < = + % = = % X r.r m $.i c.r r.l U I e C.5 $.l % n.2 X :.l     ",
"    I U   6 C.< ' C C U f h.0.0.r.H.< K F f X.= h.r 6.i :.= ^ m X m ^ Z F N ] O N % :.f l $.:.:.0.f C ' f K.r.r.< r z < h.r 0.< ' F.K.l ^ N Z U   b X.l :.X O ^ ' = F V u r.r :.g :.6 r.< ^ A.c.C.h.< K H.A.:.+ r.r m $.i h.r r.l U U 9 C.5 $.l & n.2 X :.l     ",
"    I U   6 C.< ' V C $.r f g g b K.5 K F g X.= 0.u :.u r.%  .l g r 6.N  .6 c.b + X X.F e i u % < 5 U ] l c.= r r 6 = < h.u 0.< ] V  .b ^ N Z $.5 V h.f r.3 i % ^ ] = < + X.l  .l ] b ] N , r 6 l A.e  .I b C.+ r.r m $.i h.r r.l U I 6 C.5 $.l % n.< X :.l     ",
"    I U   e C.< ' V b F.c.h.h.h.c.F.< K K f X.= 0.i 3.u h.% W V V b ' ^ 0.% u $.0.i V h.h.c.F.5 U F.F.K i ' o K C.H. .e h.u 0.5 ' b ' b ^ N Z P.c.C.$.< r.u N F O I 0.u   K Z C I Z F m K.0.r.I e c.e ] C r C.+ r.r m $.i h.r r.l U I 6 C.5 $.l % n.< X :.l     ",
"    I U   e C.< ' V + 6 e e e 6 6 5 + U K r :.e h.i r.f r.% g $.u  .N C.C. .g + V c.5 = 5 < h.r  .F < < % < + < 5 K :.e h.y 0.5 ] b ] m ' N F K = 5 < + h.C % 0.Z O V A.V g $.g $.g $.u F.V V :.u c.e ' C u C.+ r.r b X.i h.r 0.g U U 6 C.5 $.l % n.< X 0.l     ",
"    I U   7 C.< ' V b h.h.h.h.r.r.r.h.P.I ; r.f r.l r.V ^ ^ = $.b I ^ U K.0.c.^ % W P.A.h.= 0.r ] m N A.h.r.c.c.h.K.X.e h.r 0.5 ' b ] m ' N F Z Z F.C.C.P.] . = 0. .5 r r.f h.5 $.l X.8 $.l # X.i c.e ' C u C.+ r.r m X.u h.r 0.g U U 6 C.5 $.l % n.< X 0.l     ",
"    I U   e C.< ' C % u u u u u u u u u = X X.V K :.K r.M ] N b 0.g h.^ W :.l Z e i I g C.< 0.r  .N K  .< 5 6 6 5 5 % < c.r 0.< ' b ' n ' N F F U U < < < =     % I c.r X.l  .g F K K C V ' o l 6 h.r ] Z u C.+ r.r N 0.l c.r 0.l U U 6 C.5 $.l % n.< X 0.l     ",
"    I U   e C.< ' F. . . . . . . . . . .C   e ] u g e < < o = X F ^ u m 6 = +   X X O = h.< p.r  .N K K u X. . .] ]  .0.H.r 0.< ] b ' M ^ N F F U Z 5 ' ] | X.X.X.r ] m ] l F F < r.F W < c.Z = X r =  .Z i C.+ r.r m P.A.C.e 0.l U U 6 B.5 $.l % n.< X :.l     ",
"    I U   e A.5 r m N m m m m m b m N N a o X < < X o X X X X o O i < X o X X o X o X = n.5 r.r  .N K K N C.b b m m b C c.r 0.5 ' b ' b ' N F F U F < b m m b b C.l K C K C m ' o ^ ] 0.5 f U h.Z o X  .Z i C.+ r.r % l g f < r.l U W 6 B.5 $.l % n.< X :.l     ",
"    I U   e L.$.' ' ' ^ ^ ^ ^ K O F ] ]  .X.X.$.$.$.$.$.$.$.:.:.$.X.X.:.:.:.:.:.$.:.K 5 h.5 r.r  .N K I m  .% I X.X.K 6 0.r r.5 ' b ] b ^ N F F I H.X. . .] ^ % ] l F F C I 6 :.% r c.H.C.X.b e :.I O  .Z i C.+ r.r f m < ] 0.K.g I W 6 B.5 $.l & h.< X :.l     ",
"    I U   + l b b b b b b b H A.= c.K b b b b b b l l l l l b b b b l l l l v l l b r < c.5 p.y  .N K I % 6 o u l K h.u 0.r 0.5 ' b ] b ^ N F F < l l l l V K.< ] b F K b ' + r.f b C A.A.W $.m =  .i ] Z u C.+ r.r Z ' + f l f + U W 6 C.5 $.l & n.< X :.l     ",
"    U U   % U ] ' ^ ' ' ] V 6 C.= r.< g ] ] ] ] ] ' ^ ^ ^ ^ ' ' ' ' ] ] ] ] ] ] ] ] ' $.H.5 0.t  .N F K. . . .[ < r 0.u 0.r 0.5 ] b ] b ' N F F u ] ] ] C % A.5 ' m F K u :.X Z W l I m C b % =   < e = % i C.+ r.r C K.X. . . . .K.I 6 C.6 $.l % n.< X 5.l     ",
"    U U   O l b b b b l ] :.u C.= r.< K h.b b b b b b b b b b b N H.I b m m m m m m b Z A.5 0.r  .N < b b m b b % i 0.u 0.r 0.5 ] b ] b ' N F F = b l W r.% A.5 ' N F I e h.O + g < = 5 X X X X X o O X   f C.+ r.r = b b b b b b b < 5 C.6 $.l % n.< X 5.l     ",
"    I U   % F K I K K < b $.u C.= r.< K I % F I I I K K K K I C = 0.i g W W U I U U U ] F.5 0.u  .h.U U W W U W W :.h.u 0.r 0.5 ] b ' b ' N F F 5 K 6 f r.% A.5 ^ N Z I e P.X.] ^ ' W W ^ ' ] ]  . .] ] ] r.C.+ r.r e U W U I K I U f 5 C.5 $.l % n.< X 5.l     ",
"    I U   6 K.K C C C > m $.u c.= r.< K I u H.K C C Z Z Z C W H.e r.i ^ $.V V V V V C V b % 0.e r V V V B B N N V V g 5 r.r 0.5 ] b ] b ' N F F < C < g r.% A.5 ^ N Z U + m N N m m N N N N m N N N N N N N g o r.r V F.F C C C C C.I 6 C.5 $.l % h.< X :.l     ",
"    I U   6 c.= l I I I h.0.u c.= h.5 K I u r.% b I I I K g < h.r r.i ^ c.U U U U U U U U ^ P.$.W W W W U Y U W W W U  .H.r 0.5 ] b ] b ^ N F F r I I 0.h.% A.5 ^ V C K.^ W W W W W W W W W W W W W W W W W W ^ P.r V  .= K U I I H.I 6 C.5 $.l % n.< X :.l     ",
"    I U   e c.<  .0.F F Z g 6 N.= r.< K I u r.< 0.$.F F c.] 5 k.r r.u r C C C C C C C C C C C C C C C C C C C C C C C C m % 6.< ] b ' b ^ N F F F h.Z Z l % C.5 ^ C 5 C C C C C C C C C C C C C C C C C C C C C N + V  .% V S F F C.I 6 C.5 @.l % n.< X :.l     ",
"    I U   e c.<  .N < C C C W F.= r.< K I u r.5 5.l 6 = Z ] 6 h.r h.' C C Z C C C C C C C C C C C C C C C C C C C C C C C F J.< ] b ^ b ^ N F F K h.Z Z l % A.5 ^ V < C C C C C C C C C C C C C C C C C C C C C C C :.H.F C C N % U U 6 C.5 $.l % n.< X :.l     ",
"    I U   6 c.<  .N Z H.U U U C + h.5 K I u r.5 5.l W C Z ] 5 h.5 N U U U U U I I I I I I U I U I I I I I I I U I I I I U U F + ] b ^ b ^ V F F K C.U U N % A.6 ^ C C H.U I U I I U I I I I I I I I I I I I I I I I I I I U W K.i U I 6 C.5 $.l % n.< X :.l     ",
"    I U   e C.<  .B F m.b l l l b H.5 K I u h.5 0.b ' C Z ] 5 h.< e b b b l l l l l l l b b l l l l l l l l e X u b b b b l l l c.b ' m ^ V F F K 0.b l r % A.5 ^ V C ' X e + < l l b b l l l l l l l l l l l l b b b l l l N H.i U I 6 C.5 $.l % n.2 X :.l     ",
"    I U   e C.< ] V f  . .] ] ] ] ^ % K U u h.6 0.b ^ Z Z ] 5 h.e r.h. . .] ] ]  . . . .] ] ] ] ] ] |  .] A.0.= r.h.] ]  . . .] ^ e ] m ^ V Z K g  . .C.0.% A.5 ^ V C ] % 0.u K K. .] ] ] ] ] ] ] ] ] ] ] ] ] ] ] ] ] ] ] ] ] ^ = U I 6 C.6 :.l & n.< X :.l     ",
"    I U   e C.<  .^ f l l l l l g g u X.W i c.5 0.b ^ Z Z | 5 h.e r.g < l l l l l l l l k k g g g g j l g W 0.= :.f 5 l l l l l f % ] m ^ C F :.g l 6 l 0.% A.5 ^ V C ] = r.i K I % g l l l l l l l l l l l l l l l l l l l l g i :.T 6 C.5 $.l & n.2 X :.l     ",
"    I U   e C.< F 0.$.$.$.X.X.X.X.X.X.0.C 5 I = 0.b ^ Z Z ] 5 h.r r.f I A.X.$.$.$.X.X.$.#.$.#.X.X.X.X.$.r.U.0.= :.f ' C.$.X.X.#.] 6 ] m ^ C l 0.$.$.N l 0.% A.5 ^ C C  .= a.i K K g K.:.$.$.$.X.X.X.@.$.$.X.X.X.X.X.X.X.o.X.$.X.X.0.V 6 C.5 $.l % n.1 X :.l     ",
"    I U   e F.f e i i < = u i i i i i i e 6 5 + 0.b ' Z Z ] 5 h.r r.f ^ W u i i u i r % < % < i i u u 5 5 I.r.< p.g  .m < u i i u r 0.N ^ W 6 i i i e C r.% A.5 ^ C C  .= h.p K K b s.= 5 % 6 i i i i i i i i i i i i i i i i i i i = 5 C.5 $.l % n.< X :.l     ",
"    I U   6 P.C.h.h.K.K u 0.r.r.r.r.r.r.r.A.0.< 0.l ^ Z Z ] 5 h.e p.f Z C.r.r.r.0.c.A.e ^ u N h.r.r.F.' % I.r.= W u  .l I F.r.r.0.r.c.g Z C.r.0.:.:.:.h.W % A.< ^ V C ] = h.i K K b 0.6 X.e X.A.r.r.r.r.r.0.r.r.r.h.r.0.h.r.r.r.r.r.m 5 C.5 $.l % c.< X 0.l     ",
"    I U   7 J.g < % I ] = 5 3 < < < + % % l C.u h.l ^ Z Z ] 5 h.e r.m = < < < < < 5 N.u +.f % < < % m :.= I.c.% + + X.l ' V % < 5 < < % = < 5 < < < < < = < F.< ^ C V  .= r.i K K c 0.r c.i :.b % < < < < < 5 5 5 5 5 < 5 < 5 < < < = f A.5 $.l % c.5 X 0.l     ",
"    I U   6 P.F.C.l C K.c.c.c.c.c.F.< N Z f P.F.H.l ^ Z Z ] 5 h.e X.F.c.h.c.c.c.] < h.i X.f W F.K.N l :.% H.K.C.h.i X.l ^ b b c.c.c.c.c.c.c.c.c.c.c.c.c.c.C.A.= ^ V V X.= r.u K K l 0.r h.u :.g F F.c.c.c.c.c.c.c.c.c.c.c.c.c.c.c.c.c.A.c.< $.l % c.5 X r.l     ",
"    I U   6 A.l r.N % i i i i i g K.6 K U f h.6 6 + ^ Z Z ] 5 h.< < u i i i i i r e C.u $.l :.N  .Z g r.% e r u h.g X.l ' Z < i i i i i i i i i i i i i i i r % X.F F X.= h.b ^ K l 0.r h.u :.g ^ U 5 u i i i i i i i i i i i i i i i i e + $.l % c.5 X r.l     ",
"    I U   e c.<  .N f $.$.X.$.$.:.K.< K I g :.% F 5 ' Z Z ] 5 h.6 I 0.$.$.$.$.$.$.0.C.r $.l :.r I C i K.$.*.X.< X.g X.l I A.$.$.&.:.:.:.$.:.:.:.:.:.:.$.$.$.$.:.F.A.F.^ = r.C.F.Z l 0.r h.u :.g ^ Z u  .O.$.$.$.:.:.$.$.:.:.:.$.$.$.$.$.' < $.l % c.5 X r.l     ",
"    I U   e C.<  .C = f f i f f f i + U I g r.% e % ] Z Z ] 5 h.e r.^ f f f i f f f r < 8.l $.r I K % f l Z H.r X.g X.m < f f f p f f f f f f f f f f f f f d i i i f 6 + r p i < m p.r h.u :.l ( K = i i i i f f f f f f f f f f f f f u = :.l % c.5 X 0.l     ",
"    I U   e C.<  .K.r.r.r.r.r.r.r.r.h.P.K f K.h.r.r.K.V Z ] 5 h.e :.K.r.r.r.r.r.r.r.r.c.K.i $.u K K.r.r.r.C.H.e $.f  .H.r.h.r.r.r.r.r.r.r.r.r.r.r.r.r.r.r.r.r.r.r.r.r.r.r.r.r.r.r.H.0.r h.u :.g U K.r.r.r.r.h.h.r.r.r.r.r.r.r.r.r.r.r.r.r.h.K.g % c.5 X 0.l     ",
"    I U   e A.< 5 f g f f f f f f f f f < % i f f f i % F ] 5 c.e 6 g g f f f f f f f f i % :.u = f g g f f u = 0.f 5 f g g f f f f f f f f g g g g g f f f f f f f f f f f f f f f 6 e c.u :.l < f g f f f f g f f f g g f f g f f f f f f i % < c.5 X :.l     ",
"    I U   6 K.0. .X.X.X.X.X.X.X. . . . .X.X. .X.X.X.X. .A.' 5 F.r.X.X.X.X.X.X.X.X.X.X.X.X.X.K.r f X.$.X. . . .$.K.r.X.X.$.@.X.X.X.X.X.X.X.X.X.X.$.$.X.X.X.X.X.X.X.X.X.X.X.X.X.X.X.X.X.r.A.r :.c.X.X.X.X.X.X.X.o.X.X.X.@.$.X.X.$.X.$.X.X.X.X.X.X.0.F.< X :.l     ",
"    I U   + f l l l l l l l l l l l l l l l l l l l l l l 5 O i l l l l l l l l l l l l l l g + = l l l l l l l g l l l l l l l l l l l l l l l l l l l l l l l l l l l l l l l l l l l i + e l l l l l l l l l l l l l l l l l l l l l l l l l l i O o 0.l     ",
"    I A.K K K K K K K J J K K K K F K K K K F K K K K K K K K K K K K K K K K K K K K K K K K K K K K K K K K K K K K K K K K K K K K K K K F F K K K K J K G K K K K K K K F F K K K K K K K K K K K K K K K K K K K K K K K K K K K K K K F K K K K I K.l     ",
"    r F F K F F K K K K K K G F K K K K K K F F K F F K K K K K K K K K K K F F K K K F K K F K K K K F K K K F F F K K K K K K K K K K K K F F K K J K K K J G K K K K K K F F F K K F F K K K K K K K K K K F K K K K F K F F K K K K K K F F K K K K F =     ",
"                                                                                                                                                                                                                                                                ",
"                                                                                                                                                                                                                                                                "
};
