/* XPM */
static char *_024d1ec4922443988bc2c8573744403sGe3qRRvDckD5pFR[] = {
/* columns rows colors chars-per-pixel */
"128 128 144 2 ",
"   c #010101",
".  c #0D0D0D",
"X  c #151415",
"o  c #1D1D1D",
"O  c #232323",
"+  c #282728",
"@  c #292929",
"#  c #333333",
"$  c #3E3E3E",
"%  c #403F40",
"&  c #424142",
"*  c #4D4D4D",
"=  c #545454",
"-  c #5B5B5B",
";  c #666666",
":  c #686768",
">  c #696969",
",  c #767676",
"<  c #787778",
"1  c #787878",
"2  c #868686",
"3  c #8A8A8A",
"4  c #959595",
"5  c #989798",
"6  c #999999",
"7  c #9A9A9A",
"8  c #9B9B9B",
"9  c gray62",
"0  c #9C9C9C",
"q  c #A0A0A0",
"w  c gray63",
"e  c #A2A1A2",
"r  c #A2A2A2",
"t  c gray64",
"y  c #A4A4A4",
"u  c #A5A5A5",
"i  c gray65",
"p  c #A7A7A7",
"a  c #A4A4A4",
"s  c gray66",
"d  c #A9A9A9",
"f  c #AAAAAA",
"g  c #ABABAB",
"h  c gray69",
"j  c #B1B1B1",
"k  c #B1B2B1",
"l  c #B2B1B2",
"z  c #B2B2B2",
"x  c #B3B2B3",
"c  c gray70",
"v  c #B4B4B4",
"b  c gray71",
"n  c #B6B6B6",
"m  c #B7B7B7",
"M  c #B2B2B2",
"N  c gray72",
"B  c #BBBBBB",
"V  c gray74",
"C  c gray",
"Z  c gray75",
"A  c #BEBEBE",
"S  c #C0C0C0",
"D  c #C1C1C1",
"F  c gray76",
"G  c gray77",
"H  c #C5C5C5",
"J  c #C6C6C6",
"K  c #C3C3C3",
"L  c gray79",
"P  c #CACACA",
"I  c #CBCBCB",
"U  c gray80",
"Y  c #CDCDCD",
"T  c #CECECE",
"R  c #CBCBCB",
"E  c gray82",
"W  c #D2D2D2",
"Q  c LightGray",
"!  c gray83",
"~  c #D5D5D5",
"^  c #D6D5D6",
"/  c gray84",
"(  c #D7D6D7",
")  c #D7D7D7",
"_  c #D6D6D6",
"`  c #D8D8D8",
"'  c gray85",
"]  c #DADADA",
"[  c gainsboro",
"{  c #DDDDDD",
"}  c gray87",
"|  c #DFDFDF",
" . c gray86",
".. c #E0DFE0",
"X. c gray88",
"o. c #E1E0E1",
"O. c #E1E1E1",
"+. c #E2E2E2",
"@. c gray89",
"#. c #E4E4E4",
"$. c gray90",
"%. c #E6E5E6",
"&. c #E6E6E6",
"*. c #E7E7E7",
"=. c #E1E1E1",
"-. c #E8E7E8",
";. c gray91",
":. c #E9E8E9",
">. c #E9E9E9",
",. c #EAEAEA",
"<. c gray92",
"1. c #ECEBEC",
"2. c #ECECEC",
"3. c #EDECED",
"4. c gray93",
"5. c #EEEEEE",
"6. c #EFEEEF",
"7. c #EFEFEF",
"8. c #EBEBEB",
"9. c gray94",
"0. c #F1F0F1",
"q. c #F1F1F1",
"w. c gray95",
"e. c #F3F3F3",
"r. c #F4F3F4",
"t. c #F4F4F4",
"y. c gray96",
"u. c #F6F6F6",
"i. c gray97",
"p. c #F3F3F3",
"a. c #F8F7F8",
"s. c #F8F7F8",
"d. c #F8F8F8",
"f. c #F9F8F9",
"g. c #F9F9F9",
"h. c gray98",
"j. c #FBFBFB",
"k. c gray99",
"l. c #FDFDFD",
"z. c #FEFDFE",
"x. c #FEFEFE",
"c. c #FFFEFF",
"v. c white",
"b. c #FEFEFE",
/* pixels */
"  . I l.*   4 l.2   - l.Z   + >.>.O   Z l.-                                     1 l.i   $ j./ X X / j.$   i l.1   > l.j   # 9.X.o                                   . Z l.-   2 l.4   * l.I . o X.9.#   j l.>   1 l.i                                     # 5.l.",
"X o T l.*   4 l.2   - l.Z   + >.>.+   Z l.; . X X X X X X X X X X X . . . .     1 l.f . * j./ X X / j.$   i l.1   > l.j   # 9.X.@ . X X X X . . . . X X X X X X .   . Z l.; . 3 l.4   * l.I . o X.9.#   j l.>   1 l.f X X X X X X X X X X X . . . . X .   # 5.l.",
"I T y.j.*   4 l.2   - l.Z   + >.>.+ . D l.{ I T I I I I I I I I I I I I I T =   1 l.5.I ' l./ X X / j.$   i l.1   > l.j   # 9.j.W I I I I I I I I I I I T I I T B o   Z l.{ I &.l.4   * l.I . o X.9.#   j l.>   1 l.5.T I I I I I I I I I I I I I I T 3   # 5.l.",
"l.l.j.y.*   4 l.2   - l.Z   + >.>.+ . D l.l.l.l.l.l.l.l.l.l.l.l.l.l.l.l.l.l.>   < l.l.l.l.l.W X X / y.$   i l.1   > l.j   # 5.l.l.l.l.l.l.l.l.l.l.l.l.l.l.l.l.l.>.+   Z l.l.l.j.l.4   * l.I . o X.9.#   j l.;   1 l.l.l.l.l.l.l.l.l.l.l.l.l.l.l.l.l.l.n   # 5.l.",
"* * * * X   4 l.2   - l.Z   + >.>.+ . D l.2 * * * * * * * * * * * * * = I l.>   < l.Z * * * &   X / y.$   i l.1   > l.j   # 9.>.; * * * * * * * * * * * * * > 9.>.+   Z l.2 * * * @   * l.T . o X.9.#   j l.;   1 l.Z * * * * * * * * * * * * * * 4 l.j   # 5.l.",
"            4 l.2   - l.Z   + >.>.+ . D l.=                             j l.;   < l.r           X / j.$   i l.1   > l.j   # 9.X.X                           O >.>.+   Z l.=           * l.I . o X.9.#   j l.>   1 l.r                             ; l.j   # 5.l.",
"4 4 4 4 4 4 W l.2   - l.Z   + >.>.+   Z l.B 4 4 4 4 4 4 4 4 4 4 4 3 o   j l.;   < l.' 4 4 4 4 4 9 5.y.$   i l.1   > l.j   # 9.9.r 4 4 4 4 4 4 4 4 4 4 4 >   + >.>.+   Z l.B 4 4 4 4 4 n l.T . o X.9.#   j l.>   1 l.' 4 4 4 4 4 4 4 4 4 4 4 4 *   > l.j   # 5.l.",
"l.l.l.l.l.l.l.l.2   - l.Z   + >.>.+   Z l.l.l.l.l.l.l.l.l.l.l.l.l.9.#   j l.>   < l.l.l.l.l.l.l.l.l.j.&   i l.1   > l.j   # 5.l.l.l.l.l.l.l.l.l.l.l.l.l.D   + >.>.+   Z l.l.l.l.l.l.l.l.l.T . o X.9.#   j l.>   1 l.l.l.l.l.l.l.l.l.l.l.l.l.l.1   > l.j   # 5.l.",
"2 2 2 2 2 2 2 2 *   - l.Z   + >.>.+   Z l.j 2 2 2 2 2 2 2 2 2 4 9.9.#   j l.>   < l./ 2 2 2 2 2 2 2 2 O   i l.1   > l.j   # 9.9.4 2 2 2 2 2 2 2 2 2 j l.Z   + >.>.+ . D l.j 2 2 2 2 2 2 2 >   o X.9.#   j l.;   1 l./ 2 2 2 2 2 2 2 2 2 2 / l.,   > l.j   # 5.l.",
"                    = l.Z   + >.>.+   Z l.=                   o X.9.#   j l.>   < l.r                     i l.1   > l.j   # 9.X.X                   - l.Z   + >.>.+ . D l.=                   X X.9.#   j l.;   1 l.r                     r l.,   > l.j   # 5.l.",
"- - - - - - - - - - 4 l.Z   + >.>.+ . D l.4 - - - - - - - *   o X.9.#   j l.>   < l.G - - - - - - - - - - G l.1   > l.j   # 9.1.> - - - - - - - #   - l.Z   + >.>.+   Z l.4 - - - - - - - - - > >.9.#   j l.>   1 l.G - - - - - - - = X   i l.,   > l.j   # 5.l.",
"l.l.l.l.l.l.l.l.l.l.l.l.D   + >.>.+ . D l.l.l.l.l.l.l.l.l.I . o X.9.#   j l.;   < l.l.l.l.l.l.l.l.l.l.l.l.l.l.1   > l.j   # 5.l.l.l.l.l.l.l.l.l.2   - l.Z   + >.>.+   Z l.l.l.l.l.l.l.l.l.l.l.l.l.9.#   j l.>   1 l.l.l.l.l.l.l.l.l.r.$   i l.,   > l.j   # 5.l.",
"Z Z Z Z Z Z Z Z Z Z Z D 3   + >.>.+   D l./ Z Z Z Z Z W l.I . o X.9.#   j l.>   < l.>.Z Z Z Z Z Z Z Z Z Z Z D -   > l.j   # 9.a.G Z Z Z Z Z &.l.2   - l.Z   + >.>.+   Z l./ Z Z Z Z Z Z Z D Z Z Z j O   j l.>   1 l.>.Z Z Z Z Z G y.y.$   i l.,   > l.j   # 9.l.",
"          . .   .           + >.>.+   D l.-       .   = l.I . o X.9.#   j l.>   < l.i .                           ; l.j   # 9.X.O       . . 7 l.2   - l.Z   + >.>.+   Z l.-   .         . .   .         j l.>   1 l.i .       . o / y.$   i l.,   > l.j   # 5.l.",
"+ + + + + + + + + + + + + + * 5.>.+   Z l., O + + X   * l.I . o X.9.#   j l.>   < l.j + + + + + + + + + + + + + O 2 l.j   # 9.&.& O + + .   4 l.2   - l.Z   + >.>.+ . Z l., O + + + + + + + + + + + + @ Z l.>   1 l.j + + + O   X / y.$   i l.,   > l.j   # 5.l.",
">.>.>.>.>.>.>.>.>.>.>.>.>.>.5.l.>.+   Z l.9.>.>.5.2   * l.I . o X.9.#   j l.>   < l.y.>.>.>.>.>.>.>.>.>.>.>.>.>.>.9.l.j   # 5.l.5.>.>.X.*   4 l.2   - l.Z   + >.>.+   Z l.9.>.>.>.>.>.>.>.>.>.>.>.>.>.>.j.l.>   1 l.j.>.>.>.D X X / j.$   i l.,   > l.j   # 5.l.",
">.>.>.>.>.>.>.>.>.>.>.>.>.>.>.>.W O   Z l.9.>.y.l.4   * l.I . o X.9.#   j l.;   1 l.y.>.>.>.>.>.>.>.>.>.>.>.>.>.>.>.>.r   # 5.l.5.>.l.j.*   4 l.2   - l.Z   + >.>.+   Z l.9.>.>.>.>.>.>.>.>.>.>.>.>.>.>.>.>.-   1 l.y.>.5.l./ X X / j.$   i l.,   > l.j   # 5.l.",
"+ + + + + + + + + + + + + + + + O   . Z l., O 7 l.4   * l.I . o X.9.#   j l.;   1 l.j + + + + + + + + + + + + + + + + o   # 9.&.& # W l.*   4 l.2   - l.Z   + >.>.+   Z l., O + + + + + + + + + + + + + + + X   , l.j O - j./ X X / j.$   i l.,   > l.j   # 5.l.",
". .         .           . .       . X D l.-   2 l.4   * l.I . o X.9.#   j l.>   1 l.f .           .               .   .   $ 9.X.X . I l.*   4 l.2   - l.Z   + >.>.+ . Z l.-         . . .       . . .       .   1 l.i   $ y./ X X / j.$   i l.,   > l.j   # 5.l.",
"D D Z Z Z Z Z Z Z Z Z Z D D Z Z Z Z D 9.l.-   2 l.4   * l.I . o X.9.#   j l.>   < l.>.D D D D D D D D D D D D D D D D D Z T l.{ o . I l.*   4 l.2   - l.Z   + >.>.+   Z l./ Z Z Z Z D Z D Z Z Z Z Z D Z Z Z Z Z { l.i   $ j./ X X / j.$   i l.,   > l.j   # 5.l.",
"l.l.l.l.l.l.l.l.l.l.l.l.l.l.l.l.l.l.l.l.l.-   2 l.4   * l.I . o X.9.#   j l.>   , l.l.l.l.l.l.l.l.l.l.l.l.l.l.l.l.l.l.l.l.l.l.{ o . I l.*   4 l.2   - l.Z   + >.>.+ . Z l.l.l.l.l.l.l.l.l.l.l.l.l.l.l.l.l.l.l.l.l.l.r   $ y./ X X / j.$   i l.,   > l.j   # 5.l.",
"- - - - - - - - - - - - - - - - - - - - - O   2 l.4   * l.I . o X.9.#   j l.;   + - - - - - - - - - - - - - - - - - - - - - - * . . I l.*   4 l.2   - l.Z   + >.>.+   * - - - - - - - - - - - - - - - - - - - - - - #   $ y./ X X / j.$   i l.,   > l.j   X = - ",
"                                              2 l.4   * l.I . o X.9.#   j l.;                                                     X I l.*   4 l.2   - l.Z   + >.>.O                                                     $ y./ X X / j.$   i l.,   > l.j         ",
"  . > 2 2 2 2 2 2 2 2 2 2 2 2 2 2 2 2 2 2 #   2 l.4   * l.I . o X.9.#   j l.n 2 2 2 =   O 2 2 2 2 2 2 2 2 2 2 2 2 2 2 2 2 2 2 , X . I l.*   4 l.2   - l.Z   + >.y.7 2 2 2 #   * 2 2 2 2 2 2 2 2 2 2 2 2 2 2 2 2 2 2 =   $ j./ X X / j.$   i l.,   > l.' 2 2 2 2 ",
"  X T l.l.l.l.l.l.l.l.l.l.l.l.l.l.l.l.l.l.-   2 l.4   * l.I . o X.9.#   n l.l.l.l.l.f   $ j.l.l.l.l.l.l.l.l.l.l.l.l.l.l.l.l.l.&.o . I l.*   4 l.2   - l.Z   + 1.l.l.l.l.l.-   2 l.l.l.l.l.l.l.l.l.l.l.l.l.l.l.l.l.l.f   $ j./ X X / j.$   i l.,   > l.l.l.l.l.l.",
"  X I l.n 4 4 4 4 4 4 4 4 4 4 4 4 4 4 4 4 #   2 l.4   * l.I . o X.9.#   > 7 4 4 4 7 ;   $ y.5.9 4 4 4 4 4 4 4 4 4 4 4 4 4 4 4 2 X . I l.*   4 l.2   - l.Z   X 2 4 4 4 4 4 #   2 l./ 4 4 4 4 4 4 4 4 4 4 4 4 4 4 4 7 ;   $ y./ X X / j.$   i l.,   $ 4 4 4 4 4 4 ",
"  . I l.*                                     2 l.4   * l.I . o X.9.#                   $ j./ X                                   X I l.*   4 l.2   - l.Z                     2 l.4                                     $ y./ X X / j.$   i l.,                 ",
"  . I l.*   @ * * * * * * * * * * * * * * o   2 l.4   * l.I . o X.y., * * * * * * * #   $ j./ X   & * * * * * * * * * * * * * * . . I l.*   4 l.2   - l.W = * * * * * * * o   2 l.4   X * * * * * * * * * * * * * * #   $ y./ X X / j.$   i l.r * * * * * * * * ",
"  . I l.*   4 l.j.l.l.l.l.l.l.l.l.l.l.l.j.-   2 l.4   * l.I . o X.l.l.l.l.l.l.l.l.l.r   $ j./ X X W l.l.l.l.l.l.l.l.l.l.l.l.l.{ o . I l.*   4 l.2   - l.l.l.l.l.l.l.l.l.j.-   2 l.4   * y.j.l.l.l.l.l.l.l.l.l.l.l.l.r   $ j./ X X / j.$   i l.l.l.l.l.l.l.l.l.l.",
"  . I l.*   4 l.&.I I I I I I I I I I I I *   2 l.4   * l.I . X j T I I I I I I I T 2   $ j./ X X / l.' I I I I I I I I I I T j X . I l.*   4 l.2   * I I I I I I I I I I *   2 l.4   * j.y.T I I I I I I I I I I T 2   $ j./ X X / j.$   2 T I I I I I I I I I ",
"  . I l.*   4 l.3 . . . . . . . . . . . .     2 l.4   * l.I .   . . . . . . . . . . .   $ j./ X X / j.* . . . . . . . . . . . .   X I l.*   4 l.2     . . . . . . . . . .     2 l.4   * l.T o . . . . . . . . . . . .   $ y./ X X / j.$   . . . . . . . . . . . ",
"  . I l.*   4 l.2   . o o o o o o o o o o .   2 l.4   * l.W @ o o o o o o o o o o o X   $ j./ X X / j.$   X o o o o o o o o o X   X I l.*   4 l.4 o o o o o o o o o o o o .   2 l.4   * l.I .   X o o o o o o o o o X   $ y./ X X / j.= X o o o o o o o o o o o ",
"  . I l.*   4 l.2   * { X.X.X.X.X.X.X.X.{ =   2 l.4   * j.j.X.X.X.X.X.X.X.X.X.X.X.X.4   $ j./ X X / j.$   4 &.X.X.X.X.X.X.X.X.G X . I l.*   4 l.9.X.X.X.X.X.X.X.X.X.X.X.{ =   2 l.4   * l.I . X G X.X.X.X.X.X.X.X.&.4   $ y./ X X / l.>.X.X.X.X.X.X.X.X.X.X.X.X.",
"  . I l.*   4 l.2   - l.l.9.9.9.9.9.9.9.5.=   2 l.4   * >.9.9.9.9.9.9.9.9.9.9.9.9.y.7   $ j./ X X / j.$   i l.j.9.9.9.9.9.9.9.W o . I l.*   3 9.9.9.9.9.9.9.9.9.9.9.9.9.9.=   2 l.4   * l.I . o X.l.y.9.9.9.9.9.9.y.7   $ y./ X X I 9.9.9.9.9.9.9.9.9.9.9.9.9.9.",
"  . I l.*   4 l.2   - l.T # # # # # # # # X   2 l.4   X # # # # # # # # # # # # # # O   $ j./ X X / j.$   i l.4 # # # # # # # @   X I l.*   o # # # # # # # # # # # # # # X   2 l.4   * l.I . o X.y.- # # # # # # # O   & j./ X   + # # # # # # # # # # # # # # ",
"  . I l.*   4 l.2   - l.Z                     2 l.4                                     $ j./ X X / j.$   i l.,                   X I l.=                                     2 l.4   * l.I . o X.9.#                   $ y./ X                                 ",
"  . I l.*   4 l.2   - l.D . o r j j j j j $   2 l.{ j j j j j j j j j j j j j j j n ,   $ j./ X X / j.$   i l.<   * j j j j n 7 X . I l.I j j j j j j j j j j j j j j j j $   2 l.4   * l.I . o X.9.#   1 n j j j n ,   $ y.9.B j j j j j j j j j j j j j j j j ",
"  . I l.*   4 l.2   - l.D   + 5.l.l.l.l.l.-   2 l.l.l.l.l.l.l.l.l.l.l.l.l.l.l.l.l.l.f   $ j./ X X / j.$   i l.<   > l.l.l.l.l.&.o . T l.l.l.l.l.l.l.l.l.l.l.l.l.l.l.l.l.l.-   2 l.4   * l.I . o X.9.#   n l.l.l.l.l.f   $ y.l.l.l.l.l.l.l.l.l.l.l.l.l.l.l.l.l.l.",
"  . I l.*   4 l.2   - l.D . + >.9.2 ; > ; O   # > : ; ; ; ; ; ; ; ; ; ; ; ; ; ; ; > &   $ j./ X X / j.$   i l.1   > l.W > > > - .   = > > > > > > > > > > > > > > > > > > O   2 l.4   * l.I . o X.9.#   j l.i ; > > *   X ; > > > > > > > > > > > > > > > > > > ",
"  . I l.*   4 l.2   - l.D . + >.>.O                                                     $ j./ X X / j.$   i l.1   > l.j                                                       2 l.4   * l.I . o X.9.#   j l.;                                                   ",
"  . I l.*   4 l.2   - l.Z   + >.>.+   - 1 1 1 1 1 1 1 1 1 1 1 1 1 1 1 1 1 1 1 1 1 1 *   $ j./ X X / j.$   i l.1   > l.j   X , 1 , , , 1 1 1 1 1 1 1 1 1 1 1 1 1 1 1 1 1 , +   2 l.4   * l.I . o X.9.#   j l.>   # 1 1 1 1 1 1 1 1 1 1 1 1 1 1 1 1 1 1 1 1 1 1 1 ",
"  . I l.*   4 l.2   - l.Z   + >.>.+   D l.l.l.l.l.l.l.l.l.l.l.l.l.l.l.l.l.l.l.l.l.l.i   $ j./ X X / j.$   i l.<   > l.j   # 9.l.l.l.l.l.l.l.l.l.l.l.l.l.l.l.l.l.l.l.l.l.l.-   2 l.4   * l.I . o X.9.#   j l.>   1 l.l.l.l.l.l.l.l.l.l.l.l.l.l.l.l.l.l.l.l.l.l.l.",
"  . I l.*   4 l.2   - l.Z   + >.>.+   Z l.G r i r r r r r r r r r r r r r r i r T l.i   $ j./ X X / j.$   i l.<   > l.j   # 9.y.g r r r r r r r r r r r r r r r r r i >.l.-   2 l.4   * l.I . o X.9.#   j l.>   1 l.{ i r i i r r r r r r r r r r r r r r n j.l.",
"  . I l.*   4 l.2   - l.Z   + >.>.+   Z l.-                                     1 l.r   $ j./ X X / j.$   i l.1   > l.j   # 9.X.o                                   . Z l.-   2 l.4   * l.I . o X.9.#   j l.>   1 l.r                                     # 5.l.",
"$ * ' l.*   4 l.2   - l.Z   + >.>.+   Z l.2 $ $ $ $ $ $ $ $ $ $ $ $ $ $ $ $ X   , l.B $ > j./ X X / j.$   i l.1   > l.j   # 9.>.= $ $ $ $ $ $ $ $ $ $ $ $ $ $ $ # . . Z l.2 # i l.4   * l.I . o X.9.#   j l.>   1 l.B & $ $ $ $ $ $ $ $ $ $ $ $ $ $ $ @   # 5.l.",
"y.j.l.l.*   4 l.2   - l.Z   + >.>.+   Z l.j.a.j.j.j.j.j.j.j.j.j.j.j.j.j.y.y.;   1 l.l.y.j.l.' X X / j.$   i l.1   > l.j   # 5.l.j.y.y.y.y.y.y.y.y.y.y.y.y.y.y.y.{ O   Z l.j.y.l.l.4   * l.I . o X.9.#   j l.>   1 l.l.j.j.j.j.j.j.j.j.j.j.j.j.j.j.y.j.f   # 5.l.",
"/ / / W &   4 l.2   - l.Z . + >.>.+   Z l.&./ / / / / / / / / / / / / / 9.l.>   1 l.9./ / ' j X X / j.$   i l.1   > l.j   # 9.j.' / / / / / / / / / / / / / { l.>.+   Z l.&./ / ' 1   * l.I . o X.9.#   j l.>   1 l.9./ / / / / / / / / / / / / / &.l.j   # 5.l.",
"X X X X     4 l.2   - l.Z   + >.>.+   Z l.> X X X X X X X X X X X X X o B l.>   1 l.g X X X X   X / j.$   i l.<   > l.j   # 9.X.# X X X X X X X X X X X X X $ >.>.+   Z l.> X X X .   * l.I . o X.9.#   j l.>   1 l.f X X X X X X X X X X X X X X , l.j   # 5.l.",
"X X X X X X 9 l.2   - l.Z   + >.>.+   Z l.> X X X X X X X X X X X X     j l.>   1 l.g X X X X X @ ' y.$   i l.1   > l.j   # 9.X.# X X X X X X X X X X X X   + >.>.+   Z l.> X X X X X - l.I . o X.9.#   j l.>   1 l.f X X X X X X X X X X X X .   > l.j   # 9.l.",
"/ / / / / / 5.l.2   - l.Z   + >.>.+   Z l.&./ / / / / / / / / / / I +   j l.>   1 l.9./ / / / / ' j.y.$   i l.1   > l.j   # 9.j.' / / / / / / / / / / ' 9   + >.>.+   Z l.&./ / / / / X.l.T . o X.9.#   j l.>   1 l.9./ / / / / / / / / / / ' ;   > l.j   # 9.l.",
"j.y.y.y.y.j.y.j.2   - l.Z   + >.>.+ . D l.j.j.j.j.j.j.j.j.j.j.j.l.9.#   j l.>   1 l.l.j.y.y.y.j.y.y.>.$   i l.1   > l.j   # 5.l.j.j.j.j.j.j.j.j.j.j.l.l.D   + >.>.+   Z l.j.y.j.j.j.j.y.j.G . o X.9.#   j l.>   1 l.l.j.y.y.y.y.y.y.y.y.y.l.l.1   > l.j   # 5.l.",
"$ $ $ $ $ $ $ $ O   - l.D   + >.>.+   Z l.2 $ & $ $ $ $ $ $ $ = >.9.#   j l.>   1 l.B & $ $ $ $ $ $ $ X   i l.1   > l.j   # 9.>.= $ & & & & & & & $ 2 l.Z   + >.>.+   Z l.2 $ $ $ $ $ $ & #   o X.9.#   j l.>   1 l.B & $ $ $ $ $ $ $ $ $ B l.1   > l.j   # 5.l.",
"                    - l.Z . + >.>.+ . Z l.-                   X X.9.#   j l.>   1 l.r                     i l.<   > l.j   # 9.X.o                   - l.Z   + >.>.+ . D l.-                   O X.9.#   j l.>   1 l.r                     r l.1   > l.j   # 5.l.",
"i a i i i i i i i r G l.D . + >.>.+ . Z l.G r i i i r r i 2 . o X.9.#   j l.>   1 l.{ i i i i i i i i i i { l.<   > l.j   # 9.y.g r i r r r r i =   - l.Z   + >.>.+ . D l.G r i i i i i i i r g y.9.#   j l.>   1 l.{ i i i i i i i 9 +   i l.1   > l.j   # 5.l.",
"l.l.l.l.l.l.l.l.l.l.l.l.D   + >.>.+   Z l.l.l.l.l.l.l.l.l.T . o X.9.#   j l.>   1 l.l.l.l.l.l.l.l.l.l.l.l.l.l.1   > l.j   # 5.l.l.l.l.l.l.l.l.l.2   - l.Z   + >.>.+   Z l.l.l.l.l.l.l.l.l.l.l.l.l.9.#   j l.>   1 l.l.l.l.l.l.l.l.l.j.&   i l.1   > l.j   # 9.l.",
", , , , , , , , , , , 1 -   + >.>.+   Z l.i , , , , , r l.I . o X.9.#   j l.>   1 l.T 1 , 1 1 1 1 1 1 1 1 1 1 #   > l.j   # 9.5.2 , , , , , G l.2   - l.Z   + >.>.+   Z l.i , , , , , , , , , , 1 , X   j l.>   1 l.T 1 , , , , 2 >.y.$   i l.1   > l.j   # 5.l.",
"                            O >.>.+ . Z l.=           * l.I . o X.9.#   j l.>   1 l.r                             ; l.j   # 9.X.X           4 l.2   - l.Z   + >.>.+   Z l.=                             j l.>   1 l.r           X / j.$   i l.1   > l.j   # 5.l.",
"> > > > > > > > > > > > > ; 2 9.>.+   Z l.9 ; > > $   * l.I . o X.9.#   j l.>   1 l.I > > > > > > > > > > > > > ; i l.j   # 9.5.1 ; > ; O   4 l.2   - l.Z   + >.>.+   Z l.9 ; > > > > > > > > > > > > > W l.>   1 l.I > > > - . X / j.$   i l.,   > l.j   # 5.l.",
"l.l.l.l.l.l.l.l.l.l.l.l.l.l.l.l.5.+ . Z l.l.l.l.l.4   * l.I . o X.9.#   j l.>   1 l.l.l.l.l.l.l.l.l.l.l.l.l.l.l.l.l.l.n   # 5.l.l.l.l.j.*   4 l.2   - l.Z   + >.>.+ . Z l.l.l.l.l.l.l.l.l.l.l.l.l.l.l.l.l.l.>   1 l.l.l.l.l./ X X / j.$   i l.1   > l.j   # 5.l.",
"j j j j j j j j j j j j j j j j r o . Z l.T g ' l.4   * l.I . o X.9.#   j l.>   1 l.X.j j j j j j j j j j j j j j j n 1   # 9.y.B n 5.j.*   4 l.2 . ; l.Z   + >.>.+   Z l.T j j j j j j j j j j j j j j j j *   1 l.X.j G l./ X X / j.$   i l.1   > l.j   # 9.l.",
"                                      Z l.-   2 l.4   * l.I . o X.9.#   j l.>   1 l.i                                     # 9.X.O X T l.*   4 l.4 X > j.Z   + >.>.+   Z l.-                                     , l.i   * j./ X X / j.$   i l.1   > l.j   # 5.l.",
"# # # # # # # # # # # # # # # # # # # T l.-   2 l.4   * l.I . o X.9.#   j l.>   1 l.n # # # # # # # # # # # # # # # # # # - y.X.o . I l.*   4 l.3 X ; j.Z   + >.>.+   Z l.1 # # # # # # # # # # # # # # # # # # 4 l.r   $ j./ X X / j.$   i l.1   > l.j   # 5.l.",
"9.9.9.9.9.9.9.9.9.9.9.9.9.9.9.9.9.9.9.l.l.-   2 l.4   * l.I . o X.9.#   j l.>   1 l.j.>.5.9.9.9.9.9.9.9.9.9.9.9.9.9.9.9.9.y.l.X.o . I l.*   4 l.4 X > j.Z   + >.>.+   D l.j.9.9.9.9.9.9.9.9.9.9.9.9.9.9.9.9.9.9.j.l.i   $ y./ X X / j.$   i l.1   > l.j   # 9.l.",
"X.X.X.X.X.X.X.X.X.X.X.X.X.X.X.X.X.X.X.X.{ *   2 l.4   * l.I . o X.9.#   j l.>   > &.{ { ..X.X.X.X.&.&.X.X.X.&.X.X.X.X.&.X.X.&.G X . I j.= . 7 l.3 X ; l.Z . + >.>.+   f &.X.X.X.X.X.X.X.X.X.X.X.X.X.X.X.X.X.X.X.X.&.4   $ y./ X X / j.$   i l.1   > l.j   @ W X.",
"O O o o o o o o o o o o o o o o o o o o o .   2 l.4   * l.I . o X.9.#   j l.;   X @ # @ O + # O + @ @ + O @ @ @ O O @ @ @ @ # O   X I y.= . 7 l.2 . : l.Z X # &.X.+   + # @ O O o o o o o o o o o o o o o o o o o o X   $ y./ X X / j.$   i l.1   > l.j     o o ",
"    . . . . . . . . . . . . . . . . . . .     2 l.4   * l.I . o X.9.#   j l., X O X X X . O X X o O O X X o X o X X O o o o o X   X I y.= . 7 l.2 . > j.B X # &.&.# o O O X   . . . . . . . . . . . . . . . . . . . .   $ y./ X X / j.$   i l.1   > l.n X . . . ",
"  . r T I I I I I I I I I I I I I I I I I *   2 l.4   * l.I . o X.9.#   j l.X.I I T 2 X # D I I I G I T I I I I G I G I I I I j X X I j.= . 7 l.2 . > j.n . # &.y.T I I G *   > T I I I I I I I I I I I I I I I I T 2   $ y./ X X / j.$   i l.1   > l.9.T I I I ",
"  X T l.l.l.l.l.l.l.l.l.l.l.l.l.l.l.l.l.j.-   2 l.4   * l.I . o X.9.#   g l.j.j.y.j.i . $ 9.l.l.y.y.y.j.j.y.y.y.y.y.y.j.y.y.j.' @ o I j.= . 7 l.2 . : j.n . # X.9.y.y.y.y.-   2 l.l.l.l.l.l.l.l.l.l.l.l.l.l.l.l.l.l.r   $ y./ X X / j.$   i l.1   ; j.j.l.l.l.l.",
"  . I l.2 * * * * * * * * * * * * * * * * X   2 l.4   * l.I . o X.9.#   # * * * * = #   $ 9.X.- * = = = * * = * = * = * = * = * X o I l.*   7 l.2   ; l.B . X * = * * = = O   2 l.n * * * * * * * * * * * * * * * * #   $ y./ X X / j.$   i l.1   O * * * * * * ",
"  . I l.*                                     2 l.4   * l.I . o X.9.#                   $ j./ X                                   X I l.*   4 l.2   - l.Z .                   2 l.4                                     $ y./ X X / j.$   i l.,                 ",
"  . I l.*   = 4 4 4 4 4 4 4 4 4 4 4 4 4 4 #   2 l.4   * l.I . o X.j.f 4 4 4 4 4 4 5 ;   $ j./ X . 1 4 4 4 4 4 4 4 4 4 4 4 4 4 2 X . I l.*   4 l.2   - l.&.7 4 4 4 4 4 4 4 #   2 l.4   @ 4 4 4 4 4 4 4 4 4 4 4 4 4 4 ;   $ y./ X X / j.$   i l.G 4 4 4 4 4 4 4 4 ",
"  . I l.*   4 l.l.l.l.l.l.l.l.l.l.l.l.l.l.-   2 l.4   * l.I . o X.l.l.l.l.l.l.l.l.l.f   $ j./ X X ' l.l.l.l.l.l.l.l.l.l.l.l.l.&.o . I l.*   4 l.2   - l.l.l.l.l.l.l.l.l.l.-   2 l.4   * l.l.l.l.l.l.l.l.l.l.l.l.l.l.f   $ y./ X X / j.$   i l.l.l.l.l.l.l.l.l.l.",
"  . I l.*   4 l.G 2 2 2 2 2 2 2 2 2 2 2 2 #   2 l.4   * l.I . X , 2 2 2 2 2 2 2 2 2 =   $ j./ X X / l.i 2 2 2 2 2 2 2 2 2 2 2 , X . I l.*   4 l.2   # 2 2 2 2 2 2 2 2 2 2 #   2 l.4   * j.&.3 2 2 2 2 2 2 2 2 2 2 2 =   $ y./ X X / j.$   - 2 2 2 2 2 2 2 2 2 2 ",
"  . I l.*   4 l.2                             2 l.4   * l.I .                           $ j./ X X / j.$                           X I l.*   4 l.2                             2 l.4   * l.I .                           $ y./ X X / j.$                         ",
"  . I l.*   4 l.2   O - - - - - - - - - - O   2 l.4   * l.{ ; - - - - - - - - - - - #   $ j./ X X / j.$   # - - - - - - - - - = . . I l.*   4 l.j - - - - - - - - - - - - O   2 l.4   * l.I . . * - - - - - - - - - #   $ y./ X X / l.2 - - - - - - - - - - - - ",
"  . I l.*   4 l.2   - l.l.l.l.l.l.l.l.l.l.-   2 l.4   * l.l.l.l.l.l.l.l.l.l.l.l.l.l.i   $ j./ X X / j.$   r l.l.l.l.l.l.l.l.l.X.o . I l.*   4 l.l.l.l.l.l.l.l.l.l.l.l.l.l.-   2 l.4   * l.I . o { l.l.l.l.l.l.l.l.l.i   $ y./ X X ' l.l.l.l.l.l.l.l.l.l.l.l.l.l.",
"  . I l.*   4 l.2   - l.5.D Z Z Z Z Z Z Z &   2 l.4   # B Z Z Z Z Z Z Z Z Z Z Z Z D 1   $ j./ X X / j.$   i l.{ Z Z Z Z Z Z D i X . I l.*   > D Z Z Z Z Z D Z Z Z Z Z Z Z *   2 l.4   * l.I . o X.l.T Z Z Z Z Z Z D 1   $ y./ X . 9 D Z Z Z Z Z Z Z Z Z Z Z Z Z ",
"  . I l.*   4 l.2   - l.D X .                 2 l.4                                     $ j./ X X / j.$   i l.1   .         .     X I l.*               . .   .               2 l.4   * l.I . o X.9.#     . .           $ d./ X                                 ",
"  . I l.*   4 l.2   - l.Z .   O + + + + + .   2 l.i + + + + + + + + + + + + + + + + X   $ j./ X X / j.$   r l.1   X + + + + + O   . I l.> O + + + + + + + + + + + + + + + .   2 l.4   * l.I . o X.9.#   o + + + + + X   $ j.{ $ + + + + + + + + + + + + + + + + ",
"  . I l.*   4 l.2   - l.Z   O W >.>.>.>.>.=   2 l.y.>.>.>.>.>.>.>.>.>.>.>.>.>.>.>.5.4   $ j./ X X / j.$   r l.1   - >.-.>.>.>.T X . T l.9.>.>.>.>.>.>.>.>.>.>.>.>.>.>.>.>.=   2 l.4   * l.I . o X.9.#   r >.>.>.>.5.4   $ y.l.>.>.>.>.>.>.>.>.>.>.>.>.>.>.>.>.>.",
"  . I l.*   4 l.2   - l.D . + >.l.5.>.>.>.=   1 >.>.>.>.>.>.>.>.>.>.>.>.>.>.>.>.>.5.4   $ j./ X X / j.$   i l.1   > l.j.>.>.>.T X . B >.>.>.>.>.>.>.>.>.>.>.>.>.>.>.>.>.>.=   2 l.4   * l.I . o X.9.#   j l.9.>.>.5.4   # { >.>.>.>.>.>.>.>.>.>.>.>.>.>.>.>.>.>.",
"  . I l.*   4 l.2   - l.D   + >.5.* O + + .   X + + + + + + + + + + + + + + + + + + X   $ j./ X X / j.$   i l.1   > l.Z @ + + O     O + + + + + + + + + + + + + + + + + + .   2 l.4   * l.I . o X.9.#   j l.2 O + + X   . O + + + + + + + + + + + + + + + + + + ",
"  . I l.*   4 l.2   - l.Z   + >.>.O       . . .               .         . . .     .     $ j./ X X / j.$   i l.1   > l.j         . . . .         .   . .           . . .       2 l.4   * l.I . o X.9.#   j l.;         . .       .   .           .     .         ",
"  . I l.*   4 l.2   - l.Z   + >.>.+   3 D Z Z Z Z Z Z Z D Z D D Z Z Z Z D D Z Z Z D 1   $ j./ X X / j.$   i l.1   > l.j   O j Z Z Z Z Z Z Z Z Z Z Z Z Z Z Z Z Z Z Z Z Z Z *   2 l.4   * l.I . o X.9.#   j l.>   - D Z Z Z Z Z Z Z Z D Z Z Z Z Z Z Z Z Z D Z Z Z ",
"  . I l.*   4 l.2   - l.Z   + >.>.+   D l.l.l.l.l.l.l.l.l.l.l.l.l.l.l.l.l.l.l.l.l.l.i   $ j./ X X / j.$   i l.1   > l.j   # 9.l.l.l.l.l.l.l.l.l.l.l.l.l.l.l.l.l.l.l.l.l.l.-   2 l.4   * l.I . o X.9.#   j l.>   1 l.l.l.l.l.l.l.l.l.l.l.l.l.l.l.l.l.l.l.l.l.l.l.",
"  . I l.*   4 l.2   - l.Z . + >.>.+ . Z l.4 - - - - - - - - - - - - - - - - - - i l.i   $ j./ X X / j.$   i l.1   > l.j   # 9.5.> - - - - - - - - - - - - - - - - - ; / l.-   2 l.4   * l.I . o X.9.#   j l.>   1 l.G - - - - - - - - - - - - - - - - - - 1 y.l.",
"  . I l.*   4 l.2   - l.D . + >.>.+ . D l.=                                     , l.r   $ j./ X X / j.$   i l.1   > l.j   # 9.X.X                                     Z l.-   2 l.4   * l.I . o X.9.#   j l.>   1 l.r                                     # 5.l.",
"2 3 &.j.*   4 l.2   - l.D . + >.>.+   Z l.j 2 2 2 2 2 2 2 2 2 2 2 2 2 2 2 2 #   1 l./ 2 i l./ X X / j.$   i l.1   > l.j   # 9.9.4 2 2 2 2 2 2 2 2 2 2 2 2 2 2 2 1 X . Z l.j 2 G l.4   * l.I . o X.9.#   j l.>   1 l./ 2 2 2 2 2 2 2 2 2 2 2 2 2 2 2 2 -   # 5.l.",
"l.l.l.l.*   4 l.2   - l.Z   + >.>.+   Z l.l.l.l.l.l.l.l.l.l.l.l.l.l.l.l.l.l.>   1 l.l.l.l.l.' X X / j.$   i l.1   > l.j   # 5.l.l.l.l.l.l.l.l.l.l.l.l.l.l.l.l.l.5.+   Z l.l.l.l.l.7   * l.I . o X.9.#   j l.>   1 l.l.l.l.l.l.l.l.l.l.l.l.l.l.l.l.l.l.n   # 5.l.",
"4 4 4 4 @   4 l.2   - l.Z   + >.>.+   Z l.Z 4 4 4 4 4 4 4 4 4 4 4 4 4 7 { l.>   1 l.' 4 4 7 1 . X / j.$   i l.1   > l.j   # 9.9.r 4 4 4 4 4 4 4 4 4 4 4 4 4 i y.>.+   Z l.Z 4 7 7 -   * l.I . o X.9.#   j l.>   1 l.' 4 4 4 4 4 4 4 4 4 4 4 4 4 4 D l.j   # 5.l.",
"            4 l.2   - l.Z   + >.>.+   Z l.=                             j l.>   1 l.r           X / j.$   r l.1   > l.j   # 9.X.X                           + >.>.+   Z l.=           * l.I . o X.9.#   j l.;   1 l.r                             ; l.j   # 5.l.",
"* * * * * * n l.2   - l.Z   + >.>.+   Z l.3 * * * * * * * * * * * * X   j l.>   1 l.Z * * * * * - X.y.$   i l.1   > l.j   # 9.>.; * * * * * * * * * * * #   + >.>.+   Z l.3 * * * * * 2 l.I . o X.9.#   j l.;   1 l.Z * * * * * * * * * * * * O   > l.j   # 5.l.",
"l.l.l.l.l.l.l.l.2   - l.Z   + >.>.+   Z l.l.l.l.l.l.l.l.l.l.l.l.j.>.#   j l.>   1 l.l.l.l.l.l.l.l.l.j.%   i l.1   > l.j   # 5.l.l.l.l.l.l.l.l.l.l.l.l.l.B   + >.>.+ . Z l.l.l.l.l.l.l.l.l.T . o X.9.#   j l.>   1 l.l.l.l.l.l.l.l.l.l.l.l.j.l.,   > l.j   # 5.l.",
"I I I I I I I T >   - l.Z   + >.>.+   Z l.{ I I I I I I T I I W j.9.#   j l.>   1 l.5.I I I I I I I D #   i l.1   > l.j   # 5.j.W I I I I I I I T I { l.Z . + >.>.+ . Z l.{ I I I I I I T r . o X.9.#   j l.>   1 l.5.I I I I I I I I I I 5.l.,   > l.j   # 5.l.",
". . . . . . . . .   - l.Z . + >.>.+   D l.; . . . . . . . . . @ X.9.#   j l.>   1 l.f . . . . . . . .     i l.1   > l.j   # 9.X.+ . . . . . . . . . ; l.Z   + >.>.+   Z l.; . . . . . . . .   o X.9.#   j l.>   1 l.f . . . . . . . . . X f l.,   > l.j   # 5.l.",
"o o o o o o o o o o > l.D . + >.>.+ . D l.> X o o o o o o X   o X.9.#   j l.>   1 l.g o o o o o o o o o O g l.1   > l.j   # 9.&.# o o o o o o o X   - l.Z   + >.>.+   Z l.> X o o o o o o o o # &.9.#   j l.;   1 l.g o o o o o o o o     i l.,   > l.j   # 5.l.",
"X.X.X.X.X.X.X.X.X.X.5.l.D   + >.>.+ . Z l.5.X.X.X.X.X.X.X.j . o X.9.#   j l.>   1 l.y.X.X.X.X.X.X.X.X.X.X.y.l.1   > l.j   # 5.l.&.X.X.X.X.X.X.X.,   - l.Z   + >.>.+   Z l.5.X.X.X.X.X.X.X.X.X.&.l.9.#   j l.;   1 l.y.X.X.X.X.X.X.X./ #   r l.,   > l.j   # 9.l.",
"9.9.9.9.9.9.9.9.9.9.9.9.j   + >.>.+   Z l.y.9.9.9.9.9.y.l.T . o X.9.#   j l.>   1 l.j.9.9.9.9.9.9.9.9.9.9.9.9.,   > l.j   # 5.l.9.9.9.9.9.9.j.l.2   - l.Z   + >.>.+   Z l.y.9.9.9.9.9.9.9.9.9.9.9.X.#   j l.>   1 l.j.9.9.9.9.9.9.l.j.$   r l.,   > l.j   # 5.l.",
"# # # # # # # # # # # # O   + >.>.+   Z l.1 # # # # # , l.I . o X.9.#   j l.>   1 l.n # # # # # # # # # # # # X   > l.j   # 9.&.* # # # # # f l.2   - l.Z   + >.>.+ . Z l.1 # # # # # # # # # # # # .   j l.>   1 l.n # # # # # * { j.&   r l.<   > l.j   # 5.l.",
"                            @ >.>.+   Z l.-           * l.I . o X.9.#   j l.>   1 l.i                             > l.j   # 9.X.O           4 l.2   - l.Z   + >.>.+ . Z l.-                           . j l.>   1 l.i           X / j.&   i l.1   > l.j   # 5.l.",
"j j j j j j j j j j j j j j Z j.>.+   Z l.T j j n >   * l.I . o X.9.#   j l.>   1 l.X.j j j j j j j j j j j j j j W l.j   # 5.y.B j j g #   4 l.2   - l.Z . + >.>.+   Z l.T j j j j j j j j j j j j j j &.l.;   1 l.X.j j j 4 . X / j.&   i l.1   > l.j   # 5.l.",
"l.l.l.l.l.l.l.l.l.l.l.l.l.l.l.l.>.+   Z l.l.l.l.l.4   * l.I . o X.9.#   j l.>   1 l.l.l.l.l.l.l.l.l.l.l.l.l.l.l.l.l.l.j   # 5.l.l.l.l.l.*   4 l.2   - l.Z . + >.>.+   Z l.l.l.l.l.l.l.l.l.l.l.l.l.l.l.l.l.l.>   1 l.l.l.l.l.' X X / y.&   i l.1   > l.j   # 5.l.",
"> > > > > > > > > > > > > > > > - X . Z l.9 ; B l.4   * l.I . o X.9.#   j l.>   1 l.I > > > > > > > > > > > > > > > > *   # 9.5.1 , X.l.*   4 l.2   - l.Z   + >.>.+   Z l.9 ; > > > > > > > > > > > > > > > +   1 l.I > 3 l./ X X / j.&   i l.1   > l.j   # 5.l.",
"                                      Z l.-   2 l.4   * l.I . o X.9.#   j l.>   1 l.r                                     # 9.X.X . I l.*   4 l.2   - l.Z   + >.>.+   Z l.=                                     , l.r   # y./ X X / j.&   i l.1   > l.j   # 5.l.",
"1 1 1 1 1 1 1 1 1 1 1 1 1 1 1 1 1 1 1 { l.-   2 l.4   * l.I . o X.9.#   j l.>   1 l.T 1 1 1 1 1 1 1 1 1 1 1 1 1 1 1 1 1 , 4 j.X.o . I l.*   4 l.2   - l.Z   + >.>.+   Z l.f , 1 1 1 1 1 1 1 1 1 1 1 1 1 1 1 1 , n l.i   $ y./ X X / j.$   i l.1   > l.j   # 5.l.",
"l.l.l.l.l.l.l.l.l.l.l.l.l.l.l.l.l.l.l.l.l.-   2 l.4   * l.I . o X.9.#   j l.>   1 l.l.l.l.l.l.l.l.l.l.l.l.l.l.l.l.l.l.l.l.l.l.X.o . I l.*   4 l.2   - l.Z   + >.>.+   D l.l.l.l.l.l.l.l.l.l.l.l.l.l.l.l.l.l.l.l.l.l.i   $ y./ X X / j.$   i l.1   > l.j   # 9.l.",
"i i i i i i i i i i i i i i i i i i i i r #   2 l.4   * l.I . o X.9.#   j l.>   * i i i i i i i i i i i i i i i i i i i i i i 4 X . I l.*   4 l.2   - l.Z   + >.>.+   1 i i i i i i i i i i i i i i i i i i i i i i >   $ y./ X X / j.&   i l.1   > l.j   O 7 i ",
"                                              2 l.4   * l.I . o X.9.#   j l.;                                                     X I l.*   4 l.2   - l.Z   + >.>.O                                                     $ j./ X X / j.&   i l.1   > l.j         ",
"    # $ $ $ $ $ $ $ $ $ $ $ $ $ $ $ $ $ $ X   2 l.4   * l.I . o X.9.#   j l.3 $ $ & +   X $ $ $ $ $ $ $ $ $ $ $ $ $ $ $ $ $ $ #   . I l.*   4 l.2   - l.Z . + >.5.- $ $ $ X   O $ $ $ $ $ $ $ $ $ $ $ $ $ $ $ $ $ $ +   $ y./ X X / y.&   i l.1   > l.G & $ $ $ ",
"  . D j.y.j.j.j.y.y.j.j.j.y.y.j.j.j.y.j.y.-   2 l.4   * l.I . o X.9.#   n l.l.a.y.j.9   $ 5.y.j.j.j.j.j.j.j.j.j.j.j.j.j.j.j.j.' o . I l.*   4 l.2   - l.Z . + >.l.j.j.j.y.-   2 j.y.y.y.y.y.y.y.y.y.y.y.y.y.y.y.y.j.9   $ y./ X X / y.&   i l.1   > l.l.j.j.j.j.",
"  . I l.X./ / / / / / / / / / / / / / / / *   2 l.4   * l.I . o X.9.#   4 ' / / / ' 2   $ y.j.' / / / / / / / / / / / / / / ' B X . I l.*   4 l.2   - l.Z   O D / / / / / *   2 l.5./ / / / / / / / / / / / / / / ' 2   $ j./ X X / j.&   i l.1   - / / / / / / ",
"  . I l.- X X X X X X X X X X X X X X X X .   2 l.4   * l.I . o X.9.#   . X X X X X .   $ j.' + X X X X X X X X X X X X X X X X   . I l.*   4 l.2   - l.Z .   X X X X X X     2 l.9 X X X X X X X X X X X X X X X X .   $ j./ X X / j.&   i l.,   . X X X X X X ",
"  . I l.*   . X X X X X X X X X X X X X X .   2 l.4   * l.I . o X.9.* X X X X X X X .   $ j./ X   X X X X X X X X X X X X X X X   . T l.*   4 l.2   - l.G o X X X X X X X .   2 l.4     X X X X X X X X X X X X X X .   $ j./ X X / j.&   i l.2 X X X X X X X X ",
"  . I l.*   1 ' / / / / / / / / / / / / / *   2 l.4   * l.I . o X.l.{ / / / / / / ' 2   $ j./ X X j / / / / / / / / / / / / ' B X . T l.*   4 l.2   - l.y./ / / / / / / / *   2 l.4   & W / / / / / / / / / / / / ' 2   $ y./ X X / j.&   i l.>./ / / / / / / / ",
"  . I l.*   4 l.l.j.j.j.j.j.j.j.j.j.j.j.y.-   2 l.4   * l.I . o / y.y.y.y.y.y.y.y.l.r   $ j./ X X ' l.j.j.j.j.j.j.j.j.j.j.j.j.' o . I l.*   4 l.2   = 9.y.y.y.j.j.j.y.j.y.-   2 l.4   * l.l.j.y.y.y.y.y.j.y.y.y.j.l.r   $ y./ X X / j.&   9 j.y.j.y.j.j.j.j.y.y.",
"  . I l.*   4 l.i $ $ $ $ $ $ $ $ $ $ $ $ X   2 l.4   * l.I .   # $ $ $ $ $ $ $ $ & +   $ j./ X X / j.> $ & $ $ $ $ $ $ $ $ & #   . I l.*   4 l.2   X $ $ $ $ $ $ $ $ $ $ X   2 l.4   * l.' * $ $ $ $ $ $ $ $ $ $ & +   $ j./ X X / j.&   O $ $ $ $ $ $ $ $ $ $ ",
"  . I l.*   4 l.2                             2 l.4   * l.I X                           $ j./ X X / j.$                           X I l.*   4 l.2                             2 l.4   * l.I .                           $ j./ X X / j.&                         ",
"  . I l.*   4 l.2   # r i i i i i i i i r #   2 l.4   * j.5.f i i i i i i i i i i f >   $ j./ X X / j.$   > i i i i i i i i i 4 X . I l.*   4 l./ r i i i i i i i i i i r #   2 l.4   * l.I . X 4 i r r i i i i i i >   $ j./ X X / l.B r i i i i i i i i i i i ",
"  . I l.*   4 l.2   - l.l.l.l.l.l.l.l.l.l.-   2 l.4   * l.l.l.l.l.l.l.l.l.l.l.l.l.l.f   $ j./ X X / j.%   i l.l.l.l.l.l.l.l.l.&.o . I l.*   4 l.l.l.l.l.l.l.l.l.l.l.l.l.l.-   2 l.4   * l.I . o X.l.l.l.l.l.l.l.l.l.f   $ y./ X X / l.l.l.l.l.l.l.l.l.l.l.l.l.l.",
"  . I l.*   4 l.2   - l.{ 1 , , , , , , , +   2 l.4   O , , , < < 1 1 1 < < 1 1 1 1 *   $ j./ X X / j.%   a l.n , , , , , , 1 > . . I l.*   * 1 1 1 1 1 1 1 1 1 1 1 1 1 1 +   2 l.4   * l.I . o X.j.4 , , , , , , 1 *   $ y./ X . ; 1 1 1 1 1 1 1 1 1 1 1 1 1 1 ",
"  . I l.*   4 l.2   - l.Z                     2 l.4                                     $ j./ X X / j.%   i l.,                   X I l.*                                     2 l.4   * l.I . o X.9.#                   $ j./ X                                 ",
"  . I l.*   4 l.2   - l.Z . X - > > > > ; O   2 l.D ; > > > > > > > > > > > > > > > *   $ j./ X X / j.%   i l.1   + > > > > > - . . I l.4 ; > > > > > > > > > > > > > > ; O   2 l.4   * l.I . o X.9.#   * > > > > > &   $ y.&., ; > > > > > > > > > > > > > > > ",
"  . I l.*   4 l.2   - l.D   + >.l.l.l.l.l.-   2 l.l.l.l.l.l.l.l.l.l.l.l.l.l.l.l.l.l.i   $ j./ X X / j.%   i l.1   > l.l.l.l.l.&.o . T l.l.l.l.l.l.l.l.l.l.l.l.l.l.l.l.l.l.-   2 l.4   * l.I . o X.9.#   j l.l.l.l.l.i   & j.l.l.l.l.l.l.l.l.l.l.l.l.l.l.l.l.l.l.",
"  . I l.*   4 l.2   - l.D . + >.j.Z j j j $   - n j j j j j j j j j j j j j j j j n ,   $ j./ X X / j.%   i l.1   > l.>.j j j 7 X . 3 n j j j j j j j j j j j j j j j j j $   2 l.4   * l.I . o X.9.#   j l.W j j n ,   @ f j j j j j j j j j j j j j j j j j j ",
"  . I l.*   4 l.2   - l.Z   + >.>.@                                                     $ j./ X X / j.%   i l.1   > l.j .                                                     2 l.4   * l.I . o X.9.#   j l.>                                                   ",
"  . I l.*   4 l.2   - l.Z   + >.>.+   O # # # # # # # # # # # # # # # # # # # # # # O   $ j./ X X / j.%   i l.<   > l.j   . # # # # # # # # # # # # # # # # # # # # # # # X   2 l.4   * l.I . o X.9.#   j l.:   X # # # # # # # # # # # # # # # # # # # # # # # ",
"  . I l.*   4 l.2   - l.Z   + >.>.+   j 9.9.9.5.5.5.5.5.5.5.5.5.5.5.5.5.5.5.5.5.5.9.7   $ j./ X X / j.%   a l.1   > l.j   # X.9.5.5.5.5.5.5.5.5.5.5.5.5.5.5.5.5.5.5.5.5.5.=   2 l.4   * l.I . o X.9.#   j l.;   , 9.5.5.5.5.5.5.5.5.5.5.9.5.9.5.5.5.5.5.9.9.9.5.",
"  . I l.*   4 l.2   - l.Z   + >.>.+   Z l.l.l.l.l.l.l.l.l.l.l.l.l.l.l.l.l.l.l.l.l.l.i   $ j./ X X / j.%   i l.1   > l.j   # 9.l.l.l.l.l.l.l.l.l.l.l.l.l.l.l.l.l.l.l.l.l.l.-   2 l.4   * l.I . o X.9.#   j l.;   1 l.l.l.l.l.l.l.l.l.l.l.l.l.l.l.l.l.l.l.l.l.l.l."
};
