/* XPM */
static char *_db0769200fd4ebdffbcdfdba4eaa04etraGCeOHBfAJBY0g[] = {
/* columns rows colors chars-per-pixel */
"225 225 142 2 ",
"   c #010101",
".  c #0B0B0B",
"X  c #131313",
"o  c #1B1B1B",
"O  c #242424",
"+  c #2B2B2B",
"@  c #333333",
"#  c #3B3B3B",
"$  c #444444",
"%  c #4C4C4C",
"&  c #545454",
"*  c #5C5C5C",
"=  c #646464",
"-  c #6B6B6B",
";  c #737373",
":  c #7B7B7B",
">  c #838383",
",  c #8B8B8B",
"<  c #949494",
"1  c #979B9A",
"2  c #9D9D9D",
"3  c gray61",
"4  c gray62",
"5  c #9F9F9F",
"6  c #9B9C9B",
"7  c #9EA09F",
"8  c #9EA09F",
"9  c #9DA1A0",
"0  c #9FA1A0",
"q  c #9EA1A0",
"w  c #A0A0A0",
"e  c gray63",
"r  c #A2A2A2",
"t  c gray64",
"y  c #A4A4A4",
"u  c #A5A5A5",
"i  c #A7A7A7",
"p  c #A3A3A3",
"a  c gray66",
"s  c #A9A9A9",
"d  c #AAAAAA",
"f  c gray67",
"g  c #ACACAC",
"h  c #AEAEAE",
"j  c #AFAFAF",
"k  c #ACACAC",
"l  c gray69",
"z  c #B1B1B1",
"x  c #B2B2B2",
"c  c gray70",
"v  c #B4B4B4",
"b  c gray71",
"n  c #B6B6B6",
"m  c #B7B7B7",
"M  c #B4B4B4",
"N  c gray72",
"B  c #B9B9B9",
"V  c gray73",
"C  c #BBBBBB",
"Z  c #BCBCBC",
"A  c gray74",
"S  c gray",
"D  c gray75",
"F  c #BCBCBC",
"G  c #C0C0C0",
"H  c #C1C1C1",
"J  c gray76",
"K  c #C3C3C3",
"L  c gray77",
"P  c #C5C5C5",
"I  c #C6C6C6",
"U  c gray78",
"Y  c #C3C3C3",
"T  c #C7C9C8",
"R  c #C8C8C8",
"E  c gray79",
"W  c #CACACA",
"Q  c #CBCBCB",
"!  c gray80",
"~  c #CDCDCD",
"^  c #CECECE",
"/  c gray81",
"(  c #CBCBCB",
")  c #D0D0D0",
"_  c gray82",
"`  c #D2D2D2",
"'  c LightGray",
"]  c gray83",
"[  c #D5D5D5",
"{  c gray84",
"}  c #D7D7D7",
"|  c #D4D4D4",
" . c #D8D8D8",
".. c gray85",
"X. c #DADADA",
"o. c gray86",
"O. c gainsboro",
"+. c #DDDDDD",
"@. c gray87",
"#. c #DFDFDF",
"$. c #DBDBDB",
"%. c gray88",
"&. c #E1E1E1",
"*. c #E2E2E2",
"=. c gray89",
"-. c #E4E4E4",
";. c gray90",
":. c #E6E6E6",
">. c #E7E7E7",
",. c #E4E4E4",
"<. c gray91",
"1. c #E9E9E9",
"2. c #EAEAEA",
"3. c gray92",
"4. c #ECECEC",
"5. c gray93",
"6. c #EEEEEE",
"7. c #EFEFEF",
"8. c #ECECEC",
"9. c gray94",
"0. c #F1F1F1",
"q. c gray95",
"w. c #F3F3F3",
"e. c #F4F4F4",
"r. c gray96",
"t. c #F6F6F6",
"y. c gray97",
"u. c #F4F4F4",
"i. c #F6F8F7",
"p. c #F6F8F7",
"a. c #F7F9F8",
"s. c #F8F8F8",
"d. c #F9F9F9",
"f. c gray98",
"g. c #FBFBFB",
"h. c gray99",
"j. c #FDFDFD",
"k. c #FCFEFD",
"l. c #FEFEFE",
"z. c #FEFFFF",
"x. c white",
"c. c #FEFEFE",
/* pixels */
"U x.- . : x.x.x.q.x.S = x.x.x., .   = x.x.x.&   , x.x...  .   . t.x.*   s.q.o = x.-.. > x.}   ' t.x.q.x.x.x.t.q.t.q.q.-.-.t.s.q.7.x.7.s.%.s.t.q.t.x.x.7.1.s.t.%.t.t.s.s.q.7.q.s.7.q.t.t.t.q.q.q.q.q.q.q.t.t.t.t.7.7.7.9.9.q.q.q.q.q.q.q.q.q.q.q.7.7.7.7.7.7.7.7.7.7.q.u.t.q.q.q.q.9.9.q.q.q.q.q.t.7.1.t.s.q.q.t.t.s.s.7.7.t.s.q.t.t.t.t.t.t.t.t.7.7.q.q.q.t.t.t.x.7.q.1.t.t.1.x.t.d   V x.r     c x...  % x.s.+     ..x.r     t.x.<       J x.s.t.x.s.x.s.x.t.s.x.",
"U s.*   , x.x.t.x.x.7.J = x.q.s.,   . $ t.q.x.=   < x.s.^       t.x.=   s.q.X = x.-.. > x...  ' x.< % ' 1.> .   .   . .               .   .                 . .         . .     . . . .                                                                         . .           . . .             . . .           .       .                                           X   . . . & x.d   U x.g     m x.U   @ s.x.#     ..x.r     t.s.r     X ; S V V m J } E S m g u ",
"U s.- . : E E ^ J E +.} > & t.x.x.d   . $ %.q.x.= . , x.t.-.X   t.x.=   s.q.X = x.-.. > x...  ' x.- . ..x.1     .     .     X . X   X     o + + @ o . X O + + @ @ $ $ # $ * - = = = - ; : > > , < < < 1 1 < , , 1 1 1 1 1 1 1 1 < < < < < < < < 1 1 1 1 1 1 1 1 1 1 6 6 1 < , , , , , , , > > : ; - = = - - = * & $ @ + @ @ + + o o o o X X X X X X X . . . . .         .     ; x.d   S q.g . . c q.c . # x.x.+     ..x.r     t.t.d .           .           .     ",
"^ s.=     .   . .         . O 1.x.%.g .   + q.q.s.=   < x.q.O . q.x.=   s.q.X * x.-.. > x...  ' s.=   ..q.1 . # x.s.t.x.x.t.x.s.x.s....   d x.s.x.x.s.x.x.x.s.t.x.s.s.x.s.7.t.x.x.x.x.x.x.x.x.x.t.t.t.s.s.x.x.x.x.x.x.x.x.x.x.x.x.x.x.x.x.x.x.x.x.x.x.x.x.x.x.x.q.t.x.x.x.x.t.q.x.x.x.x.x.x.x.x.t.s.x.x.x.s.t.s.s.x.x.x.t.t.s.x.x.x.x.x.x.x.x.x.x.x.x.x.x.s.s.s.x.x.x.x.q.: . - x.g . V t.7.r U 1.x.E   @ s.x.@     ..x.r     t.x.r   . . .   X       .   .       ",
"' s.= .         .     X     . o %.x.x.'     O -.x.t.-   q.s.o   q.x.=   s.q.X * x.-.. > x...  ' x.; . 1.s.1   $ x.x.q.x.x.s.x.s.q.t.1.X   < t.x.7.s.x.x.s.x.x.x.s.s.t.7.t.x.x.x.x.s.t.t.t.q.1.%.U S g r 1 , , , 1 1 1 1 6 6 6 6 6 6 6 6 6 6 6 6 1 6 6 1 1 1 1 1 6 6 6 1 1 6 5 5 5 c E ..%.7.x.x.x.x.t.7.s.x.x.7.7.1.q.x.x.s.s.x.x.x.x.x.x.x.x.x.x.x.x.x.x.x.x.x.s.x.q.x.x.;   : q.c . m s.x.s.x.s.x.' . O q.s.+     ..x.r     t.x.r   X     o O @ @ O $ @ # O $ O ",
"U s.*   . .   .   o .     .       ' x.x.%.o   @ +.x., O t.x.+   7.x.= . x.q.X * x.-.. > x...  ' x.;   ..x.5 . $ x.q., * & $ $ # 5 s.x.    d x.q.% & % % & & % $ @ O % 5 +.7.t.x.x.-.V , = @ X               . .                                                           .     . .       X $ = 1 ^ t.s.x.x.x.%.m = + @ % % $ % & & % % % % % % % % % % % & & & $ % & ^ t.;   ; x.g   # & * * % & * $   O x.x.@     ..x.r     t.s.r     . X -.x.q.s.q.x.t.s.7.t.u ",
"J x.-   ; - - : ; ; , : : > > , : 1 x.q.q.+ . . c x.> X t.x.# . 7.x.= . x.q.X * x.-.. > x.}   ' t.; . U t.1 . # x.x.*           < x.q.    r q.1.      .       . > ^ x.t.x.x.-.1 # + .               X + % - : > 5 5 5 5 5 r r r r r r r r r r r r r 5 5 5 5 5 5 5 6 1 , ; & # O       . . .         . # , } t.t.t.t.+.1 #     X                                       V x.: . : t.r X       . . . .   . $ q.s.@     ..x.r     t.t.U - * = & t.s.x...q.t.t.1.x.x.3 ",
"m x.*   s.x.x.x.x.s.x.7.s.1.x.s.s.x.x.7.@   . g x.s., X q.x.#   7.x.= . x.q.X * x.-.. > x.}   ' s.; . ..x.6   # s.x.*   . .     , x.-.    c x.t.          o > q.x.x.x.7.r # .         . @ ; r V 7.t.x.x.x.x.s.t.s.s.s.x.x.x.x.x.s.s.s.s.s.s.s.s.x.x.x.x.x.x.x.x.u.t.s.x.x.x.x.x.x.q.' c , * + .     . X     o - ' t.x.x.t.^ =                   . .                   J x.= . , x.q.s.t.x.x.x.x.s.x.x.x.7.x.x.+     ..x.r     t.x.s.x.x.x.x.x.x.t.@ .       g x.8 ",
"U s.*   t.t.x.+.-...%...+.-.7.%.....} %     1 t.x.q.> O 1.x.#   1.x.*   x.q.X = x.-.  > s.}   } x.; . ..x.1   $ t.x.-   * c =   > x.1.  . m q.s.  .   . : t.x.q.t.' : .     .   o = m -.s.x.x.s.x.x.t.7.1.%.+...%.%.+.+.+.......^ ..%.' ' } +.} -.' ' %.-.%...} +.......%.1.7.q.s.x.x.x.x.x.q.+.m ; # X     .     # 1 +.x.x.t.} $   .   % } ' } } -.%     , , #       U s.= . = 1.1.1.1.1.1.1.1.-.1.-.q...7.} o     ^ x.r     < 1 r u 5 6 5 5 < , O   .     S x.0 ",
"V x.*   s.t.u X . X .   . .         X       # & & % X . x.s.+   1.x.*   x.q.X = x.-.  > s.}   } x.; . ..x.1   $ x.x.*   , t.>   , x.+.    % 5 >   . $ E x.x.x.^ * .   . .   * ..1.s.x.x.x.q.E V : - % O .     .                 .       .   .       .                         . # % - 6 ^ t.x.x.x.x.7.' r #   .       . ; +.x.t.x., . .   # +.7.t.s.&   . t.x.- .   . U x.=   .                 .     .     o   .   +.x.1 .   .           . .       .   .   c x.0 ",
"S x.=   t.x.c     = - - ; ; ; : : ; ; ; ; > > : : > # o x.x.@   1.x.*   x.q.X = x.-.  > s.}   } x.; . ..x.1   $ x.s.*   6 x.,   , s.%.X         . - x.x.t.1.* . . .   X 5 1.x.x.x.x.} > @ .               . o + # # # # # # # # $ $ % % $   .   .   .     .   .   . . .       . .           + = d y.x.x.x.s...: .   .       : x.t.s.7.&     . 6 t.x.*     %.x.;       U t.- .                         . .     .     ^ x.<   . . .       . .     . .       X V i.0 ",
"V x.-   s.x.c .   U x.x.x.s.q.s.s.x.x.x.x.x.x.s.t.x.> o 7.x.#   1.x.*   x.q.X = x.-.  > s.}   } x.; . ..x.1   $ q.s.= . , 1.:   > x.x.    X . @ E x.s.x.5 . .     % ^ x.x.x.x.U : X   . . o = 5 U ..t.x.x.x.x.x.s.s.s.x.x.x.x.x.x.x.x.x.} .                   O & > m +.7.1.-.%...E c , % X   .   . # < 1.x.x.x.s.< + X         c x.s.x.6     X = 1.: . . q.x.-   .   } x.s.-.q.x.x.x.x.x.x.x.x.x.x.x.t.x.x.t.t.x.q.x.x.x.x.x.q.x.x.x.x.x.s.q.t.x.x.x.-.. . j x.0 ",
"J t.* . x.x.d     } x.s.7.q.q.t.+.%.-.-.q.1.-.-.x.x.: o q.s.+   1.x.*   x.q.X = x.-.  > s.}   } x.; . ..x.1   $ x.x.=   < t.>   6 x.%.. . . = 1.s.x.%.#       & U x.x.q.x.J $   .   + < %.x.x.s.s.s.s.t.7.+.} ^ ....+.+.%.%.-.-.%.} ..x...  .       . .       # : > < 6 u V } 7.q.x.x.q.t.x.' 1 =   .     * m x.x.x.q.c + .     . $ t.s.x.+..     ; #   . s.x.;     . E x.x.x.x.s.s.s.s.s.s.s.s.x.t.x.x.t.x.t.x.s.x.s.q.s.x.x.x.x.x.x.x.x.s.s.x.x.-.x.1.    V x.0 ",
"E s.*   t.x.S .   ' -.> o o o o O o X . .   . o x.x.> O x.x.+ . 1.x.*   x.q.X = x.-.  > s.}   } x.;   ..x.1   $ x.x.*   < s., . < q.t.    : x.x.x.>       . c 7.7.s.x.m O   . . % ' x.t.x.t.U g - & + .     . X                   . & s.s.  .           .     X     . .       . X # ; u ^ 7.x.x.s.s.> o .   . o u 7.7.x.s.d o .   X   r x.1.+..   .   . . 7.s.> .     @ $ # % # $ $ $ $ $ $ $ $ # @ & & # $ # # & # $ $ % @ $ $ # $ $ @ # $ % % $ > x.+.. . S x.8 ",
"J s.-   1.t.g     ' x.,     .     .   . .     X q.x.> X t.x.# . 1.x.*   x.q.X = x.-.  > s.}   } x.;   ..x.1   $ s.x.=   , q.> . : x.-.. u x.t.q.% .   . - 7.x.x.s.V o   X   . c t.x.+.r * .   . . .       . O @ # # # # # @ # # @ # % x.s.      X % # $ * & % $ % & & & # O         . .   . $ < E s.t.x.r         . < t.s.x.7.: .     . ; s.x.q.@     .   q.q.;     .   .   X .                           . .       X       .     . .     X .     ; x.^ .   S x.0 ",
"^ s.= . q.s.c   . U x.,   $ - = * * @ & # # . o q.x.: . q.x.+   1.x.*   x.q.X = x.-.  > s.}   } x.;   ..x.1   $ x.x.= . 1 s.>   , t.s.m x.s.1.o     O 5 x.x.7.7.# o % %   = q.%.6 O   .     @ * , d ' q.s.s.s.x.x.x.x.x.x.x.x.x.x.c * x.1.  . . ; q.x.x.x.q.x.x.x.x.x.x.x.x.x.s.U g : $ o .       . : J x.x.>   .     O J q.x.x.U @   X   @ ..x.1.$     o s.q.U 5 , 1 > , 6 5 < 1 1 1 1 1 1 1 1 < 1 1 1 6 1 < 1 6 1 , 5 1 < : r , 6 1 , 1 u : #   ; x...    m x.0 ",
"J x.=   t.x.g     ' x.>   5 x.%.q.^ J U c m   o t.x.> o t.x.@ . +.x.* . x.1.  - s.7.  O & # . ' x.>   -.x.6 . # x.x.=   < x.,   > x.x.s.s.J .     * 7.x.s.t.> @ , 6 $ . = < $     . O ; J ..1.x.t.x.s.7.s.x.s.x.7.s.%.%.1.q.%.x.x.J & x.q.      = x.x.+.-.%.%.-.%.1.t.s.s.s.x.x.x.7.x.x.1.} 1 *         X > +.' O   . .   * +.x.x.-.>       o +.x.t.$   O x.t.x.x.x.x.x.x.q.x.s.x.x.x.x.x.x.x.x.x.x.x.x.x.x.x.x.x.q.x.s.x.x.x.s.x.t.s.x.x.x.x.%   > x...    V x.0 ",
"J x.=   t.x.g     ' x.>   5 x...> : : - : =   . 1.x.> o s.s.+   %.x.& . x.7.. * x.%..   . . . S 7.= . ' x.1   % x.x.=   < x.,   , x.q.x.c .   . 5 t.s.x.J % < c d & .   .   . + 1 } x.s.t.x.x.q.x.s...S 6 - % & $ @ X   . . X & x.J % s.q.      - t...X o . X     . . X + * , c S 7.x.s.t.x.x.t.q.E &       . % 6 &     .   . 1 x.x.x.5 .     X U x.&   . t.7.S , , ; E x.J c g g g g g g g g g g g g g g g g g u r c u g r c g c m r c r U x.@   > x.+.    V x.0 ",
"J x.=   t.x.g     ' x.,   r x.^   o .   . .   . -.x.: X x.s.+   7.7.^ S s.x.J } t.s.E U } J G x.x...c t.x.5   @ x.x.=   < s.,   : x.q.6   . . d x.s.x.: > +.} ^ & X     + > ..x.x.q.s.x.x.1.J r = : 6 d 1 ; % O               & x.J % x.q.      : q...  .   . .                 . .   & m } q.x.s.x.7.d = O       o o .   .     $ -.x.x.E .       U $ . . x.s.>   X   5 -.& .                                   . . .   .       .   X     : x.$   > x.+.    V x.0 ",
"J x.=   t.x.g     } x., . r x.J   V E -.' E } +.q.x.: . x.x.@ . 1.s.x.x.x.s.x.x.x.x.x.s.s.s.x.x.t.x.t.s.t.r . @ x.x.=   < s.,   ; t.,   .   } x.x.} % ^ t.7.r X   . * m 7.x.x.7.x.s.%.r - > S } 1.S > #     .       . + # $ . % x.J & s.q.      * x.7.    # + O . . .         .   . . . .   O % d } x.7.< > , = o       .       .   S x.x.7.  X   . O   o s.x.;   .   5 x.J V ^ S S S S S S S S J J J J J J J J U U S m J V c m ^ g U     > x.&   > x.+.    V x.r ",
"J x.=   t.x.g     } x., . r s.S . s.x.x.q.x.x.x.x.s.> . x.x.O   < c y 5 g 6 < r 5 6 d g r r 5 1 r g < q.s.5 . # s.x.=   < s.,   > 5   X   } x.s.g : s.t.' $   X - ^ x.x.q.s.t.+.1 = = 5 U J 1 * + .   . X # : 6 U 1.q.s.-.^ + $ x.J & x.q.      - x.E . & s.t.q...} J 6 = + .                 .   X # - , 5 < > : & @ .     .         , x.x.s.  .       . -.x.>     . < s.s.x.t.x.x.x.x.x.x.x.x.x.x.x.x.x.x.x.x.t.s.s.x.x.x.x.x.q.x.x.    > s.%   > x.+.    V x.r ",
"J x.=   t.x.g     ' x., . r s.S   q.t.> > ; ; : x.s., X x.7.+ .       .     .     .     . .           ..x.6   $ s.x.=   < s.,   O     . +.x.x.: : 1.J $   o * E q.x.x.s.1.< + . . o + O       .   X = V 1.x.x.q.7.x.x.t.x.x.@ % x.J % s.q.      * 7.' . * t.x.x.x.s.s.x.x.q...U ; X       .       .       . # , 1 : > ; O       . . . . * x.x.%.X X     X q.x.> .     o @ # # O @ @ @ @ @ @ @ @ @ @ @ @ @ @ @ @ $ @ + # @ $ # O > x.1.    , x.%   > x.+.    V x.r ",
"J x.=   t.x.g     ' x.>   u x.S . x.x.      . & x.x.> o x.t.< ; , , > > 1 1 > > , 1 +   & * $ & & O . 1.x.6   @ s.x.=   , s.,       o -.x.7.#   &       . 1 x.s.x.x.S #     . .       . . . @ > ..t.x.x.x.x.t.-.u : % % 7.x.+ # x.J & s.q.      - x...  - x.V   - : 5 U 7.x.x.s.s.x...; o       .               X = , 1 < $       .     . # %.t.%.  X   o q.t.1 . . X X   . . . . . . . . . . . . . . . . . . . .   . X     .   & x.q..   , s.#   > x.+.    S x.r ",
"J x.=   t.x.g     ^ s.>   u x.J . q.x.  X o . $ x.x.; O x.x.x.s.x.x.x.t.x.x.7.x.x.x.% . S 7.q.x.x.- . ' x.6 . $ s.x.=   , s.,     . ^ x.s.V - #   .     . o > 7.q.s.V % . . .     .   . = E s.x.x.x.q.} d * X   .     X s.t.O % x.J % x.q.      = x.}   * s.V     . .     + : m 1.x.t.x.x.U - o       .     . . % ; 5 : O     . .   . * > d +.x.t.} .   . s.x.+.7.1.-.q.q.7.q.7.q.q.q.q.q.q.7.7.1.1.1.1.1.1.1.1.q.q.s.^ +   . . * q.x.    < x.$   > x.+.    S x.r ",
"J q.= . -.x.g .   } x.,   d s.J . 1.t.X - = . & x.s.; . u c J V S U c V ^ 5 d ..x.x.&   E x.x.x.s.- . +.x.6   # t.x.=   > q.6     J x.s.x.x.x.x.+.U ; X   .   o c x.t.x.g o . X   . : q.s.x.s.s.x.7.%   .   X & 5 S +.q.x.q.O $ x.S % s.1..     * x.'   * x.q.S g , - o .         % 6 J x.t.x.1.1       .   # : : , %     .   . > U q.s.x.x.x.x.x.s.g   + 7.x.t.x.x.x.x.x.x.x.x.x.x.s.s.x.x.x.x.x.q.x.t.s.x.x.q.x.7.x.x.+   o   * x.x.  . , s.%   > x.+.    S x.5 ",
"1.x.- . t.x.u     } x.,   d s.J   7.s.  - :   % x.x.>                 .       % x.t.@   U x.> o O .   } x.u . @ x.x.*   O $ @   @ : , r ^ } -.x.x.x.t.s.' = .     # ..x.x.7.-   .   @ q.q.q.6   d x...  o U x.x.t.x.t.q.s.x.o % x.V % x.s.      = s.+.  & q.x.x.x.s.q.q.m 1 .     . .   O x.q.x.& .   .   > 6 r ; o   . . * ^ s.x.x.t.x.x.%.J d r , : X   .   o X X . .     . .                         X .   .   @ -.x.@       & t.x.  . > x.%   > x.+.    S x.5 ",
"s.t.*   q.x.g     } s.,   d s.J   q.x.  - ,   * x.x.x.t.t.s.x.t.x.x.t.x.x.1.X = s.t.# X E x.:   .   . } x.,   # x.x.* . .   .         . .   X & , -.7.7.x.x.-.g +     ; t.x.x.m . .   . J x.x.> . > q.U   ; x.x.x.U d , ; - . & x.E $ x.7.  .   % x.}   X 1 : < 6 c %.%.S +     X     % 1.t.-.+ .     & m d , *     o > +.q.t.x.q...g * .   . . .   . . . .                             . . . .   o           .   X s.x.# .     - t.x..   > x.&   > x.+.    S x.5 ",
"^ U &   t.x.g     } x.,   d s.J   q.x.  - :   * s.s.x.x.q.s.x.x.q.s.s.x.x.7.. * x.s.$ . V x.1.E } +.U x.x.r . + s.x.d , 6 , < , > > ; - $ o         O , ..s.x.t.t.g .   + J s.x.' + X .   E s.s.: X ; x.u   6 x.x.=     X .   % x.U $ x.x.      = x.} . .         = t.1.& X O $     # 1.x.1..     . , +.E : +   . > -.x.x.x.' < # .   . .           . .     .       . & c 7.q.+.1.-.%.+.+.+.+.%.+.-...%.+.-.6   X O x.t.$ .     * s.x.X   > q.%   > x.+.    S x.5 ",
"  X .   -.s.m .   } x.,   d s.J   t.x.  = :   O + O # @ @ # + - x.s.& # x.s.  & t.s.% . V x.x.x.t.x.x.x.7.6 X # t.x.x.s.x.x.x.x.s.x.x.x.x.x.1.J < o . .   # S x.x.x.q.- .   r q.x.t.*       +.s.s.-   * x.> . m s.s.>   .   # S q.+.. % % . . . - x.s.*   .   . ; x.s.,   . > X   o -.q.%.. . .   V x.x.<   . $ 7.-.t.x.^ & . .       @ : 6 1 6 g r 1 : # .           . o & g q.x.x.x.x.x.x.x.x.x.x.x.x.x.x.m .   o s.t.#       * x.x.    r x.&   > x.+.    F x.5 ",
"& = ; - x.x.c     } x.,   d s.S   s.x.  = >             . .   ; x.7.+ X x.q.X * x.x.% . & , - - , ; ; : : $ . # } U ' ^ ^ ^ S ' ^ %.x.s.q.x.x.x.x.x.-.; X     . g x.s.x.J +   * q.x.q.=       ..x.x.* X = t.* . ^ x.t.- .     u x.t.O . . .     , x.-..     . = s.t.c   @ E X     %.x.-.  . .   } x.s.=   . 5 x.7.x.' $     . . ; } x.t.x.x.x.x.x.x.x.x.x.s.%.U = @     . X       . o O + O o o X o O # J x.V     @ x.x.@     . - x.t.. - q.x.#   > x.+.    F x.5 ",
"x.x.x.-.x.x.c     } x.,   d s.J   t.x.  - >   o   X   . .     : s.x.O . x.-.. - x.s.$     .             .       X             . .       O = 1 E -.t.s.x.x., o X X # U x.x.x.:   @ ..x.s.- .   . ' s.t.O   ; x.+   s.1.s.$   .   m x.J .       o x.t.*   .   & x.x.S . o E * X   V 1.x.o     . ..x.7.% o @ U x.x.%.& . .   % V 1.x.x.t.q.7.} J V V E ..%.q.x.s.x.x.x.-.c - + .         . .       O . .   5 s.V     + t.x.# .     = t.s.6 q.x.,     > x.+.    F x.3 ",
"x.s.x.s.x.x.m .   } x.,   d s.J . q.x.  ; :   : ' 6   .   .   - x.7.o X s.-.. % x.x.S S S g S S V ^ ^ } r @ X         .     .           . .   . X = J x.x.x.7.:   . . > x.x.t.<   + ..x.s.# .   @ q.s.U . . m 7.  & x.t.q..   .   ..x.c   . . ' q.5     . o -.7.7.@ . ' m . . : x.x.@       ^ s.7.#   & s.x.t.u       @ V x.x.x.t.g - # .             . + % ; c q.t.x.x.x.t.%...^ E J S U ' %.7.5 .   . g x.J     + t.x.O .   . = s.t.x.s.c       > x.+.    F x.3 ",
"O O o o O + o   . # $ o   u x.m   t.7.  : ,   J x.+.  O ; ;   * x.7.+ X x.q.  & x.x.x.x.x.x.x.s.x.s.' :         X & 6 S ' %.7.7.s.1.+.' S , #   .   . X 1 t.x.x.%.*   . + } x.x.u     7.x.-.  .   - x.x.>   O q.m   , x.t.U .     @ q.s.-   V x.E   .     ' s.x.=   r q.  . @ s.x.;     . g x.q.O . = x.x.%.*       u x.x.x.' :   .             . .             . $ 1 %.x.x.x.x.t.x.x.x.x.x.x.s.< .     d s.S X   # x.q.+ .     * s.x.x.V         : x.+.    F x.r ",
"  . .   . .       . .     < x.^ . s.x.. , ,   g x.} . - t.x.X & x.t.o . x.q.  @ U J S U E S d 1 % X . . . $ r ..x.x.x.s.t.s.x.s.x.x.x.x.x.x.s.7.c *     . O S q.t.x.u . . . 6 s.x.1   O %.x.'       g x.q.o   > x.=   S x.t.- . .   * x.s.< x.1.      . , x.s.V . * x.=     U x.^       = -.x.* . % q.x.E     . - 7.x.x.' & .       + - 1 m ^ } | S c g 1 * o     .     . % : < d m S S g : @   .       g x.S     # x.q.#   . . & x.x.%.X . . <   > x.+.    F x.r ",
"V J U J J U E U ^ U E J V %.x.V   1.t.  > - . c s.}   * -.q.  * q.t.o X x.-.            .         . * m 7.q.x.x.s.x.x.x.1.' E ^ m V E +.q.t.s.s.x.x.' -     . = 7.x.s.} O .   = t.x.U g } q.s.& . . o +.q.'   . %...  @ q.x.%.. .   . u t.x.t.; . .     s.x.%.    ..7..   & x.x.#     X -.x.7.V 7.x.s.:     . u 1.x.x.> X X .   ; E s.x.x.x.t.x.s.x.x.x.x.s.%.' 5 % .   .       .             .   .     r t.m   X $ s.x.o   .   J t.s.+     < ;   : x.+.    F x.0 ",
"s.x.x.s.s.x.x.x.x.t.x.x.x.x.x.J   x.x.  u x.%.x.x.-.  & x.t.X = s.x.O   x.-.= * = = * & * ; 1 c %.7.x.x.s.x.x.7.} 1 % O .     .         . O - c q.x.7.x.E &     X c s.s.x.* . . = r q.x.x.x.t...      , x.x.O   : x.> . g s.x.:   .   . ' x.c       X d s.x.,   : x.=   X ^ s.d   .   6 x.x.s.t.-.6 &     O +.x.s.q.$ . .   , t.x.7.s.x.%.S V g 5 u d V ..x.x.x.x.t.1.E ; X   .       . .     .   .   o m s.J .   $ 7.: .   . 6 t.x.=     * x.@   : x.+.    F x.0 ",
"d g d r u g g u g d c u d 5 g :   7.x.X < 1.1.7.7.E . % x.q.. & x.s.o   x.x.x.x.t.s.x.x.s.s.x.x.x.x.s.x.1.E =       O = 6 m S U ' ^ V < * O     . : -.x.x.q.u   .   : x.s.x.>   . .   = ..x.x.x.:   .   s.t.r     x.s.    1.x.' .     . % ' X         x.t.%.    t.1.    - s.7.@     + t.x.s.E ;   o     - x.s.t.r .     # ..t.x.s.%.: X       .     . .   . % 1 +.q.t.q.x.x.-.m 6 - $ @ O O @ $ : d +.%.x.x.m     # @   .   1 x.x., .   % s.6 o   > x.+.    S x.8 ",
"                  . .       .   . -.x.    . .     . . % s.t.  = t.1.o . t.s.x.x.x.x.s.x.x.x.x.t...U , *     o ; U } 7.x.x.s.s.x.s.x.x.t.s.t.J > . .   d x.x.x.%.@     # q.t.x.m   .     . ; s.t.V .   . 6 x.%..   c x.=   u s.x.$   . . . .     . . = x.x.; . ; x.u     S s...    . > 1.} ; X     .   c x.x.q.; .     : x.x.s.+.& .             . .             . & V t.x.t.x.x.x.x.x.x.x.x.x.x.x.t.x.x.x.+.< .     X     > s.x.g .   $ t.x.o     > x.+.    S x.8 ",
"r g m c c m m g g V u g g g c c r q.x.d d , r 5 u 1 5 g s.x.  & x.q.. . ; ; ; : > , 1 6 < ; & $ X     $ 1 ' q.x.s.x.x.x.s.7...U 5 g V S ^ 7.x.x..., .   % 1.q.x.%.: .   . ^ x.t...# o   .   1 x.q.# . X # s.x.*   % x.m . $ t.s.d           . .   . J x...o . J 7.*   @ -.x.;     . u E &     .   o +.q.t.} O     X g x.x.s.: .   . .         .           . .   .   . % , d m U -.s.x.x.t.t.x.x.x...^ 1 % .     .     o < s.x.u   X O q.x.; .     > x.+.    S x.5 ",
"..q.x.x.s.s.x.x.x.x.1.x.x.x.q.x.s.x.x.q.x.q.x.x.x.x.q.t.x.h.. & x.s..         .     .       o # > V 7.1.x.x.x.x.x.s.' : +             .     o $ , } m +   X -.x.x.x.d     . 6 x.x.s.* .     $ x.q.q.U &   +.x.u . . q.x.o   %.x.E X       .       . t.q.m     x.x.X . * x.x.  O 1 c } J o   .   $ 1.s.x.V       & +.s.x.7.&     .                     .       .   .   . $ > *   . O $ * = = * $ X . .     .         . ^ q.x.c       1.x.V .       > x.+.    S x.5 ",
"' x.^ U ' ' E J V S J m U V U U U U U U U U E E J } S U } c   * t.x.X       . & E c 5 u J ..7.s.-.E r +.x.t.x.-.; X   .   . @ + # @ @ + o .         o , $   . J x.q.+...$     > x.x.s.: o     d ..x.s.q.-.^ s...    ..x.*   g q.x.            .   % s.x.-   - x.+..   m x.^ u q.7...u -       - x.t.x.- .     1 u t.x.q.X             . . X + $ & & & & # X . .       .   X - u $ X     . .         .         .   % } t.x.1 X   + 1.x.U   .       > x.+.    S x.5 ",
"m t.=   .       .   .         .                   .   .   .   & s.1.. . .   X & , 5 c m g r : * * m x.x.q.} ; . . X * g ^ 1.x.x.x.x.x.q.1.} u : + .     X .   . ^ x.+.g 7.> .   $ 1.x.q.< .     . + , ^ x.t.s.x.O . d x.r   - x.s.O .   . .   .   - q.x.#   5 x.c   . ^ x.x.t.' , # .       u x.x.1.$ .   @ 6 > U t...o   .     .   # 1 ^ -.t.x.x.x.x.s.x.t.E 6 - .   . .     * g > $ o     X           .     O c s.x.x.>     $ t.t.-..     . .   > x.+.    S x.5 ",
"V x.*   c ^ U J V g J U c S V V m m m m m m m m S g g V m J ' E x.s.X   @ .   .     . .   . * U x.s.s.^ = . X - S 7.x.x.t.s.x.s.x.x.q.q.x.x.x.t.q.U =             %.x...- t.g   . + } s.x.u .   .     o # g t.x.% . > x.}   $ x.x.% . o -.7.&     > t.q..   ' x.6     x.7.m &         . . m 7.x.U X     = c - g x.7.@       .   ; ' x.x.x.x.s.x.x.x.x.x.s.t.s.x.q.t.m # .     . @ u S < % .               & U 7.x.x.' $   . = q.s.1.o X   . V     > x.+.    V x.5 ",
"S x.= . 7.t.x.x.s.s.x.x.x.x.x.x.x.x.x.x.x.x.x.x.t.x.x.s.s.x.x.7.q.7.  X x.q.^ U g d d m } s.x.s.x.} $   . : t.x.x.x.q.} g , * # $ $ * : 5 S -.x.q.x.x.} # X     . o q.x.c = x.+.X . . E t.s.^ .     .   . X   - $   ; x.t.  O -.x.= . . q.x.* X   , x...    1.s.; O . : .             . E s.x.V . .   , E $ > s.s.% . .     % %.x.s.x.x.^ u ; + .   . O # & > u ' 7.7...6 # . .     ; } q.1.E S c g u E x.s.q.x.x.,       < x.7.-.O .     m q.    > x.+.    F x.5 ",
"m x.= . s.x.x...q.s.%.-.q.1.-.-.-.-.-.1.1.1.1.1.%.-.q.%.s.u.+.x.x.t.    x.x.x.x.s.x.x.t.x.x.1.E $ o . , t.t.s.%.u % . . . . . .     . .     . O 1 t.s.x.t.d X   .   $ q.q.- % x.s.*     d x.%...O       .   .   . . * s.x.    1.x.=   . x.x.%     < x.U     q.x.- .   .   . X . .   % 1.x.x.<     + ^ ' @ $ x.t.* .     X 6 s.x.7.x.m #       .   . .               % ; 5 m = +     . O 1 x.x.x.x.t.x.x.x.x.%.1   .   + %.s.x.^   .   . d x.q.o   > x.+.    F x.5 ",
"^ x.*   t.t.m .     .   .                         . . .     O q.t.q..   q.x.q.< c d c V r = O   . = ' x.x.' =     . $ > r J ' S U J g , = $ O   .   < 7.x.x.-.$   .   > x.1.@ * x.-.1     ; x.t.1.$ . .       .     @ x.x..   q.x.=   . x.s.* X . 6 s.S   + s.x.-     .     .     & x.x.1.;     = 1.%.* . 7.x.< X       E 7.x.x.u @     . . .   $ - 5 V m r , : $ .     . # & * @ .   . . o ; u ^ } E m < #     .   5 x.t.x.d .       6 1.x.x.    > x.+.    V x.5 ",
"J x.*   t.x.S       : ; : - : ; ; : : : : : : : > : - : .   o 9.x.q.  X x.x.m       .         X U q.x.m $     + d %.x.x.s.x.x.-.+...^ J V g , - @ .   X ' x.x.7.& X     r x.'   > x.s.g     = x.s.7.#     X #   .   X } 7..   7.s.-   . x.x.&     5 s.V   @ s.q.+ X           . - x.x.s.%   . : 7.x.*   U -.J X . . O %.x.x.+.$ . .     . .   . O # : E x.x.x.s.x.7.u * X   X o % $ .         .   . . .     .   6 1.x.x.1.%       . u s.x.x.q..   > x.+.    S x.5 ",
"J x.& . s.t.V .     7.x.x.x.x.t.x.x.x.x.x.x.x.x.x.x.x.q..   O q.x.s.  . x.s.x.1.} d 6 6 : = 5 x.x.V +   X & ^ x.q.x.x.q.q.J : * @ X     X + $ * % O .     > q.x.x.:   X X } x.d   1 s.x.^ .   + -.x.x.%     m #   .   : s..   7.q.;   . x.x.*     1 x.m . + t.g .     O *     & s.x.' .     g x.x.>   - x.+.      & %.x.x.r .                     . .   . % r ..x.t.x.x.%.< X     . O .   .             o * S x.s.t.q.5 X .   . . c x.q...t.t.    > x.+.    S x.5 ",
"U t.= . 1.s.m     o E 7.x.t.x.x.x.x.+...+.7.%.1.1.-.+.} o   o 7.x.t.. . x.s.q.x.s.s.s.t.%.x.x.S %     * ..x.t.x.q.J , #   .                 .       + J :   % 7.x.x.> .   O q.x.&   d x.t.' O   . E x.s.#   * q.&       ..    q.x.;   o s.s.=   . , x.c   + %.  .   O ' @   # } x.V     . S x.x.1 X O %.s.@   . - t.x.x.;   .   . .   . X     . .   . .         @ > } x.s.x.7.1 .   .         o O - > ' t.x.x.x.t.6 .         . E q.s.S + x.q.    > x.+.    S x.6 ",
"U x.& . t.x.5 . .       X = c } x.q.&   .     . .   . X   X + 1 6 u . . J S ' V r > O : q.^ &     O m x.x.q.t.: + .     .   @ * = : % * +     .   o > x.x.} $   ' s.x.S X   = 7.U .   5 x.x.1.&   X J s.7.    U q.O   X # o   1.x.;   o s.s.=   . , x.J   X * .   o ^ g   o r J ,     $ -.x.x.5 .   u x.*   X 6 x.x.+.# . .       .       .   O $ * & $ o .           $ g g.x.s.1.= .   .     < q.s.x.x.7.x.E :   O     .   & +.x.t.g   . x.-..   > x.+.    S x.5 ",
"u x.= . t.x.} g 6 c g m d 5 d S x.x.& $ d ; O             .   .   .     .       . - 1.x.,   .   > %.x.x.%.> . . .   . : S +.x.s.x.t.x.x.q.-.m &   .     c s.x.r   5 s.x.q.r . < x.c .   r x.s.s.,     +.q.m   % x.+..   .     s.x.;   o s.s.=     < x.J         . ..x.  . > c ,     = x.x.q.S     ; U : . : -.1.s.V     . .     .     O 6 V s.s.x.x.x.t.t.7.%.6 # . . .   O , x.s.x.m X       . , %.x.x.=           .   . > s.s.x.1 .     ..x.    > x.+.    V x.0 ",
"' x.=   s.x.x.s.x.x.s.x.x.x.x.x.t.x.= * x.x.x.s.' u 1 = % @ O + X o O + # $ < V x.1.' @     X J x.x.1.r . .   . - m x.x.x.x.x.s.t.x.x.-.x.x.s.x.s.6 O .   @ J s.7.& @ ^ x.1.t.5 V x.:   . , x.x.x.5   o %.x.* . c x.r   .     7.x.;   o s.x.=     1 x.m         6 t.>   & g ,     6 q.s.t.1     % V , > -.7.x.q.-     O .   . .   ; E x.t.x.x.q.q.x.s.7.x.x.t.x.1.7.1 X       O U t.x.+.$ .   .   - t.x.1.$   . . .   @ +.x.s.q.<     .   d x.    > x.+.    V x.r ",
"U s.* . } %.t.%.%...%.} ..-.%.^ x.x.= * x.s.s.q.x.q.s.x.x.x.q.x.x.+.x.x.x.x.s.x.x.g   .   # E x.x.E @       ; ..7.x.t.q.1.+.5 ^ t.x.q.1.5 5 -.x.t.s.x.g #     = -.x.g O % m x.x.x.x.s.; .   ; 7.x.x.,   : x.U . % x.x.$   . X ..x.;   o s.s.=     < x.g   .   # x.s..   > 1 @   , x.t.s.- .   o u g -.s.x.+.:   . O #     .   , q.x.x.x.-.m : c %.x.q.-.r ^ %.s.x.s.s.t.5 O       = q.x.x.;   .     @ %.t.x.- . .     , x.s.x.<     o   . ; s..   > x.+.    V x.r ",
"V x.*   .       X   . . .     . -.x.; = t.x.1.x.x.x.x.x.s.x.t.x.x.t.x.s.t.x.x.x.-       * 7.x.x.<     . @ U q.s.s.t.V : .   X   X , t.1.x.u   - -.q.x.E x.c %     > s.7.c $ o 6 q.s.x.x.1 X . # %.x.q.=   } x.$ . %.x.d       -.x.;   o s.x.=     > x.d . .   V 7.m . @ 5 :   @ x.x...*     % 6 c ^ 1.g # .   $ * $ . .   , +.-.s.x.1.: . : t.t.x.V $   X     + = ..s.x.x.1.> .   .   g x.x.m   .   . X +.7.x.1   .     , x.x...@ .   . . O t.    > x.+.    V x.0 ",
"J x.= .     .     .   . .       -.q.- * x.+.X   # * ; 1 r c c c d 5 * J x.x.1.%   X   * x.s.1.$ O O   , s.x.x.x.r X X       U %.6   . < q.t.%.@ . , t.q.< ^ s.g +     J x.s.E     > q.s.q.E X   - x.x.J   : t.S X & x.s.X .   ..x.;   o s.x.= . . ; s.,     O x.s.%   = 1 +   U x.7.@   . ; 5 g d *     X * - * .     & +.E g s.x.r o   E x.x.5   . ; S J o   X X   O u x.x.q.E #     . = q.x.m X .     . } q.x.< . .     , s.x.q.+         '     > x.$.    V x.3 ",
"S x.=       .     V ..7.' -.+.' t.x.- % x.1.  . .     . .       .   g t.s.-.% . .   > t.s.^ @ = + @ ^ x.x.q.m O .     . # -.x.x.x.1.,   . U s.x.&   @ %.x.r % } x.1 o   + c x.x.5     m x.x.q..   r x.x.$   s.t.X X 1.x.;     u x.;   O x.x.=     = t.-     , x.+.X   < :   + x.x.; . X * , < =   . @ & : * @     $ U ^ & m x.+.$   $ s.x.E # . = +.x.x.x.7.&           # m s.x.x.>   .   @ ^ x.m .         d x.x.d     . . > x.x.} . . . . < .   > x.$.    V x.6 ",
"..7.= X           +.x.t.7.x.q.x.1.x.- & x.q.    . . . .   .       u x.x.7.+ .   . : x.s.V ; m & * 7.x.x.%.&           X * r ' %.x.x.s.U % . < s.x.= . X g s.'   > x.-., . . = %.x.1.%   > x.s.'     s.x.<   ' 7.=   } x.U   . & x.= . . 1 7.@     = ^ . X   E x.j   @ 6 =   6 x.U     $ : > + .   * > ; $ .   . ; 5 = ; q.x.m     & t.x.6 .   E x.t.x.t.} } >         X     = %.x.x.J     .   c x.;   .     . r 7.s.g .     . u x.q.S .     % .   ; t.%.    S x.3 ",
"U 7.q...1.1.s.>   ' x.S > d 6 > -.x.- & x.t.    ; ' S g V   .   : q.t.1.+     .   %.x.S r ..: > x.q.x.u + . .     . .           $ m x.x.s.=   1 s.x.% X   r t.s.X + 1.q.V .     : -.q., . - x.t.>   < x.J . u x.r   5 s.1.  . X x.* .   . , .   . * V     X -.x., . & < % . c x.#   + - = O   # , ; & o     $ * - . : s.s.>     # x.x.> . + } t.s.q.; O .   . . X .             d x.x.1.O       - . .     o   . S x.s., .     . m x.q.=   .       ; s.%.    S x.3 ",
"E s.x.t.x.x.x., . E x.5     .   +.x.- & x.t.    > x.x.s.d     = x.x.x.# .         . %.t.q.6 c 1.x.q.$ # @       X = m +.1.%.V , +   @ +.s.x.> . ; x.q.% . . 6 t.s.#   J x.t.$ .   . - %.r   * s.t.+   q.x.  = s.E   ; s.x.      U > % X     .   $ % >     # x.x.* . : , + . -.m   . % $     @ : &         & & &   r x.q.%   . O q.x.> . * t.x.x.: .   O ; U E ^ V - O         .   * s.1.s.%                     . ^ x.1.>       . t.t.s.O     .   ; x.%.    S x.3 ",
"- > ; ; ; %.1.< . E t.> . g S   } x.- & x.t.    > q.s.V   . @ t.x.x.-   . g 1 .     # ..c 5 x.x.V $ - $ .   .   O     . @ * 1 ^ q.S +   V s.x.r   - x.7..     > x.7.- o > s.x.:         - ,   = x.< . 5 x.+ & x.}   * x.x.o     5 ; , # . .   # , + #   . * x.s.#   1 6 .   x.$ . X + O . + #     . . . & # +   d x.%.$     . %.x.:   - t.x.^ + X # r q.E > %   . X X     . .   .   . %.t.q.;     .   . . = o .   . +.x.s.*   .   & x.x.d . .   . ; x.+.    S x.3 ",
"      .   ' s.>   } x., . 1.x.. ' s.- & x.t.  . 1 7.x.@ X   ' x.x.r   . < x.1.u       $ 6 x.s.u % u $       . = 6 J ' G V g - X . = r % X 6 s.x.c . $ t...  . . * 7.x.; . $ } t.S . .       X . & q.. X -.; + s.q.  $ x.x.= .   @ * < S       ^ , X .   . ; x.s.O   r 5   + +.  . o .             . . O O . . S x...+     . J %.&   5 x.q.m X   % u = . @ : u S U V c 1 & .   .         g x.x.;   . .   * x.J   .   $ t.x.7.    .   c s.1.$     . - x.}     S x.3 ",
"* , , .   U x.> . U s., . -.q.  ^ s.- & x.q.    < x.: o . : x.x.c   .   + q.s.x.S .   > x.x.: ; } %     * g t.t.x.t.q.x.x.h.s.s.^ : .       , t.s.g   . r J o   . # J x.u .   ; ^ ' #             $ :   S ; $ x.x.. # s.s.,         > x.*   = x.$         > x.s..   d 6   * -   .       .       . . . X . o J 7.S         ; , X   r x.x.r .         , 7.t.x.s.x.x.x.s.t.x.x.5 +   o       ; t.x.,   . ; x.x.t.@       ; x.q.J   .     %.x....     * x.^ .   S x.3 ",
"c x.q.    J x.u   } x.> . s.x.  ^ s.; * x.q.    d %.    # x.x.%.. .   X     E t.s.S - t.x.> m -.=   @ U s.x.q.' 5 , ; * - 1 U %.x.7.x.r . .   * 7.x.E     X $   .   . ; } J +       * o   .   . .       % , @ s.x.  # s.s.,       . $ t.+.. x.q.. .       1 x.t.    g 5   $ o . .   X .     .   .   . . + } %.*       . .       c s.x.;     . . r x.x.s.+.6 > - = - > g ^ -.t.x., . . .   . = x.x., < 7.x.s.-     .     u x.t.; .   . ; x.x.# .   & s.J     S x.3 ",
"g q.-.  . ' x.,   ' q.> . 1.7.. ^ s.; * x.7.    5 >     ^ x.s.%   X -.,     . 6 s.x.x.x.> c -.=   - 7.s.J > - : 1 d V c 1 - +   @ g +.x.t.% .   @ ..t.+.#         . .   . $ = .   .     . .         .     & o x.x.  + q.x., .   .     ' x.J x.U   X       d s.7.    c r .           .   . X     .     @ < = . . .     X     @ ' x.q.= . .   # %.x.+.: . . % ; 1 u d g 6 : ; r +.t.+.@   .   X @ 7.q.x.x.1.$     .   X .   } x.t.o .   . %.t.c .   % s.S     S x.3 ",
"< t.t.. . ' x.,   ^ x.<   7.s.  ^ x.; & s.7..   > X   = 7.t.5     ^ t.s.V .   . & ..s.: g q.,   < t.x.....7.q.x.x.x.x.x.x.x.q.+., . . , x.q.1 .   X g s.s.d o .       . .         .         . > #     .   O 1 x.t.  . q.x.d . . o .   % s.7.x.# .   .     } x.%.. . V V *             .     . .       . .     .   . .   . , x.x...@       ; x.%.$ X $ V x.s.t.x.s.x.x.x.s.1...^ } x.x.%         + %.7.%.X . .   * %     . & x.x.S . .   ; x.t.X . X t.1     m x.r ",
"s.x.1.    ' s.>   ^ x.<   7.s.  ' x.: $ x.%..       . +.x.q.  . > -.q.x.x...@     % * , 7.>   # ; o     . .       o # & > d ..x.x.q.6 .   S x.+.&     % V t.-.1.6 > * + .         o     ; ' x.;   .   & ..7.x.q.g .   +.t...  . @ $   . , x.- .   , #   . } x.J     & g ^ J 1 %     .   o @ X   .     . . . . . X + & r s.x.J > . X     , ' &   = } x.x.1.E < - $ + .           .   o = X .   .   X u .       - x.1.o   . . 6 x.s.;   .   7.t.1   . } <     V x.r ",
"x.x.7..   } x.1   ^ x.<   7.s.  } x.: O x.'   .   . - x.s.* . O t.x.& @ q.7.x.-       g g   X $ : > u g < , ; $ .   . .     X o g x.x.1.;   @ U x.S % .   . % - 6 ; # .   . .   X   < q.t.' $     * %.x.7.q.,     # . = x.x.=     5 ;   X - .   5 J     : s.s.#   #     = r S ' g %   . o @ = % O .     . .     % > r 6 : #           o # . + S x.t.J * .             X O $ & * - : : & # .     . . .       * x.x.U           q.x.}   .   > x.U     u ,     S x.0 ",
": > >     E x.,   ^ x.<   7.s.  } t.; . t.U   . . . ' x.'     +.x.g     $ 7.x.x.g     .   - 6 ..} %.-.-.q.x.s.q.1.m % . .         + S x.x.m @   O > g d - @ + .     .         . X J t.x.1 X   X J q.x.1.5     o 6 x.,   5 x.1.+   = J ;       V x.= . o t.7.5   , x.d o .   # u ' U , X   . O ; : & o     . .               .   . . X     , x.x.+.&     . . .     o # & = ; , 5 d g S ' E m > .       . . : x.x.m .   X     . , s.x.;   .   x.q.O   ; :     S x.0 ",
"        . ' x.,   ^ s.<   7.s.  ..t.;   ..E       = x.t.& . : x.x.o . .     J x.s.} +     o .         . . . @ = > d +.J & .           = 7.x.7.d       . o O O   .       .     . U x.S o .   % q.x.x.m . .   u x.q.t.x.&   ' x.}     d U >   d x.V     ' x.%.  = x.t.x.s.c $ .   % g } m %   .   # - %     % & .       . .     .   .   ; 1.x.x.1         . .   . + + + o .       .     . . X +     .     c x.q.c     . .   o     1.x.-..     V x.=   % =     S x.8 ",
"# = & * @ E x.,   ^ x.<   7.s.  +.s.:   r U .   . U 7.^ . . x.t.6   - 1.@   . : x.x.x.> . .   .       .   . X         . @ + .       .     V x.t.x.S ; % @ X         . .     o % >     . o < x.x.+.- .   < x.q.x.} +.x.1.&   ..x.U . . V E = x.q.X   S x.}   % x.t.V E t.x.x.d O   o > ' ' : .     X @ @ .   % r 1 ; O   . X . . % r s.q.x.E @ .   .                 . o O o .     X .   .       . . # +.x.x.g . . @ % .   .   X ; s.x.,   . % t.u   O $ .   S x.8 ",
"O * < U S x.x.>   ^ x.<   7.s.  ..x.>   & g .     x.x.&   d s.7.  + 1.x.7.: .   @ ' x.x.m @ X     O ; S +.7.q.-.%.' U u - % # + X @ @ #     % r +.7.t.%.6 # .       . .         .   . 5 q.x.7.x.,   X } s.x.E -   . E x.+.X @ +.x.d   + g ; t.O . c x.+.. @ %.s.g X   $ V x.x.q.@ . & } ' U E : .       . .     & 1 V m m U +.t.x.7...c -     o o     X . O = : m J } q.x.x.1.} u &   .   X       1 -.t.x.>       u t.. . .       } x.7.    . -...  . o     V x.5 ",
"-   . & u ^ ..,   ^ x.<   7.s.  ' s.:   X 1     = s.J   X q.s.1   +.x.1.s.x.V   .   : 1.x.q.>   6 7.x.q.x.x.t.x.x.x.x.x.x.x.s.s.t.-.-.r & o .     .         .     . .             > 7.t.x.7.-.x.;   < x.7.- .   #     U x.q.  + %.x.V   + % * . m s.t.@ X 1.x.1     $ .   @ %.x.d . $ ' m d %.%...- .         X $     . o # & # @ X     .   o O # = , V 7.x.t.t.x.s.t.q.q.t.x.x.s.s.J @ X   . = 7.x.x.%.$   .   X -.x.E   .   X   , x.7.= X   c t.    .     V x.5 ",
"7.E $       .     E x.,   1.x.  } s.,     @ .   m x.= . d s.7.$   ..x.7.# %.x.s.;     X d q.x.s.t.t.x.c : o   . o $ ; u ^ 7.x.x.q.x..., $ .   .   .     .   . . X O O .   . . - %.x.x.s.5 . J x.;   r x.J     > x.^ *   u x.} o @ s.x.V   .   m 7.x.#   %.x.> . ; q.x., . . g x.}   @ ' 5   * ' x.t.7.>   . .   @ V *   X   .     . .       o + * > m +.x.x.%.d , #   . .   O - ^ s.x.x.: ; } s.q.q.r           6 t.t.x.r           7.x.S     = s.+ . .     E x.r ",
"1.q.&   . .       E x.,   1.x.  } x.>     . .   -.q..   q.x.< ..* % x.x.g . ^ 7.7.' =   . # S s.x.>   $ : = O .   X X     .     X .         X + 6 : . .   + + o + X     .   X x.x.x.6 .     } x.-   S x.u   & s.x.7.x.+.% > x.E   $ t.x.c   m x.t.+   7.1.= ; q.t.t.x.x.*   S s.'   # ^ 5     X : 1.x.%.O     .   . d ..6 = .   . * =     . X .   . X o X     .         . o O O   O m x.q.x.x.x.d +     .   . ; %.7.x.7.m .     . . 6 x.7.o   + 7.=     X   J x.r ",
"%.x.; X   X . .   E x.,   1.x.  } x.>         X t.5   - x.7.% x.s.  < q.t..   : s.t.x.} :     *   - ' ..; # .     = c u : = $ o . O # & : V %.-.>       .     .       .     J q.7.% .   . & s.t.-   J t.m . , x.x.S t.s.x.^ ^ x.U . + 7.s.* x.q.# . 1.1.E %.x.7.s.g s.t.: . 1 x...X + ..-.: .     O 1.s.m   .   . .     # = +     . , 1.U > = @ O .   o # & : u 5 #     . . o $ & % . * -.U ; o   . . . . . ; , * ; s.x.-   . O   . + t.x.= . . ..<     X   V x.r ",
"^ s.q.7.q.x.q.<   E x.,   -.x.  } x., .   .   @ x.+   } s.g 1 t.q.  d x.> $ $   @ V -.x.x.+., X %.x.' @ .     & U 7.x.x.t.x.x.q.s.t.x.x.x.1.< o     X .   X .       X     , x.t.>     . - 7.x.7.X o q.x.; . , x.} . O ; J x.x.t.x.J . + s.; +.@   1.t.x.7.t.^ ;     x.s.6   - x.1.@   S x.x., X   . * x.x.% .           .     X .     # d s.x.x.t.x.x.x.x.s.s.x.x.%., o   . X   X @ $       .   X     .   , -     5 t.x.X X   E   .   } x.V     d r .       V x.t ",
"x.x.x.x.t.x.x.6   E x.,   -.s.  } x., O $   . = }   @ 7.t.$ ..x.u . %.x.  5 ^ *   . @ E x.t.x.s.7.< .       .   X   . $ : , u S E V d : O         .   o +           X   % 7.s.U .   o - x.x.1.o   ^ s.+.. . -.t.1     .   . 6 -.x.x.-.X . # O O 7.x.x.+.:       .   < x.-.    ..x.}     } t.x.,     . V x.x.o X O o         .     .   . . . + : r g m c c u ; # . . .       .   .   X   .         .   = U * .   . = x.u     = t.= . . 6 x.1.    = g         S x.t ",
"= = = = - g 1.6   E x.,   -.s.  } s.: % m   . : >   < x.1.. q.x.@ ; x.}   1.d J > + .   + g 7.1.* .   . & : V } J J V r : % + O     . .         X   * 1 .       . > O   %.s.x.o .   ; x.q.s.#   r x.s.#   g x.' .   q.} 6 + . . = E x.1.+ . % x.x.J &   . @ 6 t.g     t.x.d . $ s.q.d X   1.x.t.> . . . s.7.S   o = @ . .   . O o                 . . . . O & : 5 V E J g > #     .     .       . % J ' +       X . s.-.    c s.E   . % x.x.+ . O g   + X   J a.y ",
".     .   5 x.r   E x.,   -.s.  ^ s.> * x.&   & #   S s.> = x.%.  ..s.- = s.} * S r - + .   + .     < ..x.x.s.x.s.x.x.1.-.%.' c g , & O .       o < } O     . $ m &   ..t.x.= .   ; x.x.-.& . > x.7.,   : x.s.: . V t.x.x.q.' *     # V ' $ -.5 o . . ; ' q.s.x.x.,   - 1.x.& . : x.x.-   X -.x.x.-     % x.x.d   @ 5 &   o .   ; = X     .   . . o $ - , u S } +.t.x.t.t.x.x.q.1 .           & V x.u   .       . . J 7.;   & x.t.O   X %.x.> . . ; o , X   J g.y ",
"E E ^ U   , x.<   E x.,   -.s.  U x., % x.+.  o   o x.x.. m 1.r   s.x.X ; U +.V @ & c , : # .   - s.s.x.s.t.m u * @ .   . . . .       .     & E x.' .   .   - x.=   c t.t.u .   = s.x.x.=   & x.x.J   $ 1.x.<   * t.x.m x.s.1.x.x.< O . O O O . o d q.t.x.s...E s.x.@ . J t.q.o   U s.x.& . % 7.t.x.*     1 7.x.6   + V -         : ..c O . .                 . . . + * r %.s.s.s.-.*   . , ' x.1.$     .     . . . = x...X   7.x.=     c x.S   . O = 1.  . S x.y ",
"x.7.x.s.. 1 s.6   J x.,   7.t.  ' x.> * x.1.    . & s.V . t.1.@ > q.x.t.1.U 6 - &   . & : r d r x.s.q.m : - , - X     .   . = m ..U U } +.t.x.7.;       .   m x.#   ^ x.J     ; q.x.x.-   # x.s.'   . -.x...  O 7.x.d   o & r 1.x.x.x.m $ X % S x.t.x.1., @ .   +.x.%.  . 7.s.}     1.x.s.+   $ t.x.t.& .   d t.E X   V ;   .   .   # V x.x.%.S S J E S =             .   . o 6 7.7.x.1.q.x.-.:   . .     . o O & # @ q.x.;   5 t.S     5 -.1.    o 1.7.    U x.t ",
"d S x.t.  < x.r   J x.,   7.t.  ' x.> * x.1.      5 x.; $ s.7.  J -.-.q.x.x.s.s.x.V * .   # 1 1.x.u - c %.5 .       . . . .     O ; c V m 5 %   .   .       d x.=   c x.V   o x.x.7.,   o s.x.-.$   %.x.t.O   +.x.%.    , @     = V q.x.1.& x.s.-.J & . . + & . # x.x.g . * x.x.g   + -.x.7.X   ; 7.x.t.O X > x.V   X r ,     o         $ : u ..J 1 % .     . .     X X     .     d q.t.} ;   . .   X ; V E q.x.s.x.x.t.x.}   # x.1..   & t.1.    O q.q.    J x.t ",
". = 7.s.  1 x.1   J x.,   7.t.  ^ x.> * x.-.      J -.  u x.> .       . o $ : m 7.x.x..., + . % * d t.S *       X # +                   .           O o .   r q.6 . 1 x.V   X x.x.s.  . U t.x.*   g x.x.= . r s.x.;   > x.q.J -     # < +.* ^ : O   . & d x.x.X . < s.x.* . , 1.x.; o * x.x.m     ; t.s.&   , x.<   o m : .         . .     .     . .           . O X   .     X   . O $ .       $ S q.x.x.x.x.} V +.} } x.s.=   1.s.+   X x.x.O . @ x.q.    V x.r ",
"  = x.x.  1 x.1   J x.,   7.t.  ^ x.> * x.-.    . t.c . %.q.* : d 6 d 5 1 : @     * 7.x.x.t.6 % x.x.c X     < 1.x.x.x.7.r @   . . . . . .         * ,     . ..x.m   ; x.U . . t.x.7.&   ' x.V . # x.t.c   = x.q.m   % q.1.x.x.s.x.; X .       .   : 7.x.x.q.x.S     } x.1.X X S t.x.  . 5 q.E   X * ..t.$   5 x.>   @ S g     .   .   . .     . .   . .     % ^ 7.t.x.q.c + .   .   .       .   < s.x.+.u $ X   . .   .   * V . V t.-   . +.x.% . # x.7.    m x.r ",
". ; x.x.  6 x.1   J x.,   7.t.  ^ x.> * x.-.      x.+ ; x.x.x.s.x.x.x.t.t.x.x.t.'   . 5 s.x.x.x.x.- .   ; x.x.x.x.s.t.t.x.x.6 X           . .   , c o   . ' q.t.#   , x.%.  . s.x.x.d   - x.J . @ s.x.-   E s...    S x.7.g } x.s.x.7.V O X . X 1.x.x.s.} V x.t.> X o 7.x.d   : x.x..   U x.* . @ ; %.x.O . d x.=   o > ^ r .   . X .         .   .   . $ S x.t.x.x.s.s.x.s.d .   . .     . .   ; x...o       .   .     .   . X : x.V   . g t.*   # s.-.    m x.0 ",
"  * t.s.  6 x.<   J x.,   7.t.  ^ x.> * x.-.    o ..  S s.1.x.t.%.} ' E ^ ' +.x...    . O : +.+.% . o } x.1.t.g * + @ - m s.x.%., O   o .   - -.%.    . E t.q.O   : 1.s.7.    7.x.s.+.. o s.-.  . x.s.;   ..x.,   ; t.x.x.  . $ d t.x.x.+.    7.t.x.J ;   # x.x.1.O   J s.d . , t.7.    J 1.    & = 1.t.o . V x.$ . .   , t.c   . . + +             + d s.x.1.1 % O $ 6 +.7.s.1.%     X     X . > x...  .     .     .           @ x.1.    < s.=   # s.%.    V x.8 ",
"o ; x.x.  < x.6   J x.,   7.t.  ^ x.> * x.-.    & = o q.x.} ; O   . .     X > x.1.      .   .     * 1.x.q.d .     . X     O 1 q.x.x.-.U ..x.q.c       % x.-.X   > x.s.t.7.X . 7.x.+.x.o   V x.. X ..x.6   d x.6   o = V 7.  @ ..6 $ U x.+.. r q.} $ < '   X E E :     ' t.d   m x.s.  X E c . X , = 1.7.. . m t.+ O X .   g x.-   . . $ u S 5 6 c ' x.x.U = X   X   . .   - +.x.7.: .   . .     : x.7..     : V J U m ' U > # . o -.t.    - x.;   $ x.%.  . V x.8 ",
"  * s.x.. , t.<   J x.,   7.t.  ^ x.> * x.-.    @   ; ..* - 1 u d J g g g , m x.1.* - & = * $ @ u x.x.+.+   . & r J } } u $     * , m ' E ; o     .   $ x.c   > x.1., s.x.X   ..7.6 x., . : t.&   q.x.g   c s.E .   .       + x.x.@ ; x.%.  1.x.% + x.x.  .       . . ^ x.1   c x.}   % E =   # > # -.' .   J x.  + : $   g q.:           = V ' ..U > o   .   X o % # o .   . V s.x.d @ @ $ $ % 6 x.1.      E x.x.x.s.x.q.x.s.' # ..x.    # x.=   % x.-.  . V x.5 ",
"  = s.x.  1 x.6 . U s., . -.x.. J x., * x.^     X   > J q.x.t.x.x.x.x.x.x.x.s.s.q.x.x.s.t.x.x.x.s.x.c     * -.s.x.x.x.x.x.q.V > #     .   .       . . & x.+.  > x.U . +.t.r 1 -.1.5 7.' X   - %   ^ s.E   g x.x.t.^ 6 %     . x.x.+ ; x.-.. 1.x.* O x.x.      @ m ^ x.x.x.>   V x.5   o $   . ; 1   } ..#   S -.. O , %   m x.=   .                         . X % = : : - @     , q.x.q.x.x.x.s.t.x...  .   J s.^ ; ; - ; > V ' s.x.q.+ .   q.-   & x.%.    m h.3 ",
"  = s.x.  < x.6   U x.,   %.t.  ' x.> * x.+..   . ; 7.x.q.s.-.^ J U E ^ ' } } ..} -.7.7.7.t.t.1.+.=   . d x.t.x.} 5 = & % % & = % # O .         . O . O x.+.  , x.' X r x.x.x.x.x.: 5 x.6 O     .   & 6   = x.x.x.x.-.x...> . -.x.O ; x.-.. 1.x.& O x.x.  o , t.q.x.x.s.%.=   = O       .   # > % . E E , : S V   # r $ . V s.=         .       . .           .   X # = : < = .   - E %.%.1.1.+.%.7.J . .   ^ x.V       . .   . % m t.% . . s.* . * x.%.    m h.3 ",
"  = s.x.  1 x.6   E x.,   -.x.  E 7., - 1...  . . %.x.-., O   .                     . .           . % -.s.s.S $   . . .               . . . X   r #   . x.t.. * x.t.O > x.q.7.5 $   . : E x.^ -   .   . .   o - r ^ x.x.x...  x.x.+ ; x.-.. 1.x.* O x.x.  @ S x.x.+.r - # .   X . .     X + @ .     . @ * * J m . % 5 @   ^ x.$     . .       .       . . .     .       O - , - +   . X     . .   . .   .   V x.m     .     .     . - % .   ..%   % x.%.. . V g.3 ",
"  = s.x.  1 x.6   ^ x.>   7.x.. ^ x.1...x.+.    > %.* . .   . o % % $ $ $ # # # $ # # @ @ @ @ @ # : x.x.t.%   O ; : ; $ o .       X     O * c -.%     . q.s.O % s.x.* o g % .       . X   . % , , &     X c o . .     ; t.}   s.x.+ ; x.-.. 1.x.= + s.x.  # 1 - o X .       .     . .       .   X .         X @ . > , .   7.q.+         . X .   .                 .     . X $ , , $ @ $ # @ # # % @ + # $ # J x.V   . +   .         .   . . g @   & x.+.    V x.3 ",
"  = s.x.  < x.6   E s.>   7.x.  J s.x.x.s.E . . % X       . > } ..+.-.1.q.s.x.x.x.x.t.s.x.x.x.x.t.x.s.c   X u ^ J : # @ & ; , 6 m m ' 7.7.x.} @   .     -.x.%   t.%.+.X .   .   .       .   . .   X X   . % +.*     X * x.+.o 1.x.+ ; x.-.. 1.x.= @ x.x.  $ , o           . .   .   .                     .     O 5 > . # x.7..         o % - ; + o .     .       .           + > J x.x.t.x.x.x.x.t.x.x.t.s.x.s.< o   ^ u +               . >   . = x.%.    F x.3 ",
"  = g.x.  1 x.5   J s.< . %.7.  6 S ..+.E 6 .   .   .     $ 6 5 V S U ^ ..%.1.7.7.7.q.t.q.-.%.-.7.U * . - q.+.m < c +.q.q.7.s.x.x.t.t.t.m $       X     m x.J   5 x.t., .   o g m . . .     ; ; .     .     = -.>     + s.}   %.x.+ ; x.-.. 1.x.* @ g.t.  * 6 X         . .   .   :       .   . .   o % o   . + ; 6 %   5 x.J               + * r 5 r r 5 1 , > - - * @ X O + . . : } 1.1.-.%.-.7.%.-.-.+.x.1.1.,     q.x., . .       . o   o .   & x.-.    V x.5 ",
"  = s.x.  1 x.6   J x.1   } t.o .       . X   .     .   . X               . . . .           . .     O +.s.x.t.t.x.s.%.V r 1 > - % + .     X .   #       = x.x.o   -.x.q.= g 7.x.x.o       X 5 <   . .     .   . g = . . ..-.o -.x.O ; x.-.. 1.x.* O t.s.. = >   .             . # %..               ; r ; $ X ; 1 > . . x.x.$ o       . .         . + & - : : > > , 6 , ; : ; $ X X .         . . .   .       .   . % x...+       . . .     X   . * x.+.. . V a.5 ",
"  = s.x.  1 x.6 . J x.1   } x.& - = ; - ; - ; ; ; - - > - % . + = = = = = = = = % X   . $ - ; - u } q.t.x.^ > -       . . .   . . .     X     > = $ :     } x.d . & q.x.x.x.x.J $ .   . O             .   .   .     X   g q.  x.x.O ; x.-.. 1.x.* o s.x.. & ; .         .       .           X     . X = g r ; < < .   6 x.} .   . .       . .                       . o # $ & ; - & + o . .       % * - = = = = * * c x.^ * = : ; ; - - = - = = = < x.'   . J x.5 ",
"  = s.x.  1 x.5 . U s., . E x.x.s.x.x.x.x.x.x.x.x.t.x.s.x.g   = t.x.s.x.x.t.x.x.s..     ' x.-.x.s.+.u = .       & = ; > , > > : ; * & = ; m } ;   # q.. . - 7.x.#   , x.7.' & .   . O   g g * # . @ ; # . .     X     X % -.. t.x.# ; x.7.  1.x.= O x.x.  * +         . o     O .   .   # ; @   * .   . o = d > @ . $ s.t.- .   O X   . o % + . o @ & ; : : : : : : * + .       O $ = & % @     . +.s.s.s.q.x.x.s.x.x.x.x.x.t.x.x.x.x.x.x.s.t.t.s.q.x.+..   S x.3 ",
"  - s.x.  1 x.5 . U x., . E x.x.x.q.x.x.s.q.q.q.-.s.t.t.s.5   * x.x.q.t.x.7.s.x.1.      V x.S - O   . O > d %.s.x.x.x.x.x.x.x.x.x.x.s.x.x.c @     . ..'   . +.x.-.. . } , X     : -.} . o E x.t.x.q.V       .   ; d   .   E   q.x.# ; x.7.  1.x.= + x.x.  $ X   . .         . % d c g E ' : . $ q.} =     . O %     %.x.}   . . %   . . . = t.s.x.x.x.x.t.s.x.x.x.x.x.x.x.+.1 *       . @ # .     } t.s.x.7.7.q.s.x.q.%.t.x.q.-.q.q.q.7.1.t.x.q.x.q.x.'     S a.3 ",
"  = s.x.  1 x.5   U x.,   U x.x.- X             .   . m x.u   * x.1..       ^ x.q.  . . .       & S q.7.t.x.x.x.s.t.q.1.+.' J m u , 1 = .   .     X U 7.1   @ 1.s.1     X   # } t.x.x.5   . * E S & X     X .   . x.7.$ . +   -.x.# ; x.7.  1.x.= + s.s.  O     X o       X     @ : , ; @   # 1.x.s.x.1.+         < x.x.. .   % %         X   & 6 d V U E E E E ..-.8.7.t.x.x.x.q.U : O       .   } x.t.    X .   . .   .         . . . .     o   = 1.-..   S x.5 ",
"  = s.x.  1 x.5   U x.,   U x.x.; . .   X   . .       V x.<   - x.-.        U x.q..   . % , } q.q.x.x.x.+.V - & X .           .     .         . . . - s.x.@   5 x.x.& .   = t.x.x.g d ..6 : O     X     .   o + . U s.%.    . q.x.# ; x.7.  1.x.= + t.s.  .   X @ .   . .     . X .     $ d x.t.1.} 7.x.7.; X   $ s.x.:     O * X       .   .   . . .                 o % , J +.x.s.s.x.^ * .   . ' x.x.. . .     .     X         .   . .       . ; x.%.    V x.3 ",
"  = s.x.  < x.6   U x.<   J x.x.:     = 1.q.s.7.t.%   c x.d   * t.7.  . .   ^ x.s.> c -.x.s.s.x.q.m : o . + : 6 ^ ..7.x.t.+.J d > * O   .     & ,   . %.x.' .   } q.s.  1 x.x.1.=     % , U U S ; @ .   .   g :   * x.x.:     s.x.@ ; x.7.  1.x.= + t.x.      + $ . .   .   .     & m %.q.x.x.g + . * 1.x.s.6 . ..x.m   .   - - . . @ =       .                 X               + < +.7.x.x.%.V = ..x.x.    ; -.+.1.t.+.7.t.x.+.1.7.%.t.%.t.1.@ . - t.+.. . V r.5 ",
"  = s.x.  < x.6   U x.<   J x.x.,   . : x.x.-.s.s.+ X E x.5   - x.x.    .   ^ q.x.s.x.s.s.%., #   . * U q.s.x.x.V g < - # o .   .     . O , +.1.o     - x.s.6   @ x.x.1.s.q.} .       . . O $ * - > $     X %.u . X q.t.S . . 1.x.@ ; x.7.  1.x.* O t.x.    o $ @   . + = . .   @ u , > 1 *     .     . g s.x.} x.1.o .   ; ; @   . . , 7.g *   X .                 . X .     . . .   o - g 1.x.x.x.x.x.  . , s.x.q.x.x.x.t.x.x.x.x.s.x.s.x.7.@ . ; x.%.    m x.5 ",
"  = s.x.  < x.6   U x.<   S s.x.> . .       o -.x.$ . # $ +   = x.-..     X & ; - - = $ .   X = E s.x.s.V 5 #     .       . + $ - 5 ^ 7.x.x.5       X   g x.q.%   : x.x.q.J + # X . O ; V ' E U E U m J @ % s.'     E x.x.    x.x.# ; x.1.  1.x.= O t.x.  . + % @     r %.. o c ^ S ^ -.g S J > X     X . ; 1.x.t.;     $ > = .   .   o - -.x.s.J 6 * + .   . .                   .   . .       o @ $ o     > x.J X o + # O O + + + o o O + O . . = x.-.    u s.5 ",
"  = s.x.  < x.6   U x.<   S s.x.<   .         ..s.@   . .     = x.7..       .         + : ^ 7.x.x.E - X .       O & 1 J ..-.t.x.x.x.x.7., + X     .     o t.t.-..   d x., = > O O 6 7.x.q.x.x.x.t.-.} S @ * x.+.    1 x.t.    +.x.# ; x.1.  1.x.= o s.x.    @ $ X .   m x.O O +.%.%.q.t.x.x.x.x.7.u o   . . # -.< . . O 5 ; .       .     . , 7.x.x.s.t.-.U r > - $ o .       . . X X $ * $ O . .       . . , s.}       .     . .   .     .       * x.-.    d x.5 ",
"  = x.x.  6 s.5   J x.6   m x.x.,     d q.r   -.t.-.%.....+.} -.s.x.+.-...+.+.....7.-.x.x.s.q.< +         & S %.t.x.x.t.s.x.x.q.E g %     .     . ; # .   * x.t.u     : g V # = t.x.x.7.1.u ; % o .   .   & x...    & x.t.$   q.x.@ ; x.-.  q.x.* O s.x.    % $ .     E x.o       . o @ = 5 } x.x.s.1.- .   . X .   X > , $ .       .       . . = d %.s.x.x.s.x.x.t.%.1.V ; O         . + > u ..%.-...} S . > x.%.    .     g c c c 5 V d m g d r S x.-..   g x.3 ",
"  = x.x.  6 s.5   J x.6   m x.x.,     c x.d   %.x.s.x.s.s.x.s.x.t.s.1.x.x.x.q.x.s.q.q.x.^ = .   . . * U s.x.t.x.s.s.s.^ u : @   .   . .   . .   o > ^       c s.x.= . # ^ $ > 7.s.x.V & .       . .     . - x.+.  X + t.x.= . 7.x.@ ; x.-.  q.x.* O s.x.    % $       r t.@ . .         .     X , x.7.x.>   .   . . : u -       X o .   . .     . .     # > d V -.x.x.x.x.x.x.} < #     .   . ; +.x.x.x.U   ; q.1.        . %.t.t.x.x.x.s.q.x.q.x.q.x.' .   S x.3 ",
"  = x.x.  6 s.6   J x.6   m x.x.>   . V x.g   +.x.V 5 r 5 u 5 5 d u u r r r 6 x.x..., @       @ 1 7.x.q.q.x.7.V > $ .   . . o # o o         @ r   @ x.J     . %.x...O     - x.x.q.;   .   $ ; E g } } ' ' ..x.c   * o -.x.; . 7.x.@ ; x.-.  q.x.* O s.x.    & $   .   ; x.S U %.E ' J J , & .   . + 7.x.q.;       - m : . .   . @ o     . .   .   . .     .       X % - m ..x.s.x.x...= . . .   . $ g s.' . > x.7.        . 1.x.+.J ' E ..} +.^ ^ %.x.-..   V h.5 ",
"  = x.x.  6 s.5   J x.6   m x.x.,   . V x.c   +.q.%           .     .     . o 1.q.* . . . * ^ 7.x.x.t.+.6 #       * < J } U 6 @ .   .   . 5 %.= . X ..q.d   . o t.s.} . % 7.x.7.&   . = U x.x.%.x.x.q.7.x.x.q.:   m @ -.t.-   7.x.@ ; x.-.  q.x.* O s.x.  . & %       # x.x.x.7.s.s.x.t.x.q...: .   O q.7.q.*   % d 6 o       + # X   . o o .       . + - r m J c : $ .     & 5 E s.x.x.s.d @ .   . > x.+.  : x.%.          +.q.%         .     . - 7.-..   m x.5 ",
"  = x.x.  6 s.6   J x.6   m x.x.< .   m x.c   %.t.%   . . .   . .   X   .     s.x., . % -.q.x.x.q.u @ .   + r ..s.s...5 $     .     O y x.1.-   r @ + 1.q.< . . : q.x.d 1.x.7.=   X u x.t...x.t.J ^ ^ U E E m # . t.% %.7.-   1.x.@ ; x.-.  q.x.* O t.x.  . & % . X . X 6 S U U U S J 7.7.%.1.x.d . . @ q.x.x.% d m &   .   o # o     . . # & #   . . . .   . # ; d ..-.d = o   . $ m -.x.x.x.S     - x.%.  ; s...    . . . -.x.=   . .     .   . ; s.7..   m g.8 ",
"  = x.x.  6 s.5   J x.6   m x.x.<     c x.c   +.x.S d c c m g d J m V g m &   s.x.;   ; x.x.^ =     . > %.x.s.c ; .     . .   + > t.t.1.7.%   1 1.  . . r ^ @   . c x.t.x.t.% .   V x.%., x.s.> .           o   & x.% } s.: . 1.x.@ ; x.-.  q.x.* O t.x.  . * &   X X   .     . .     , U r ; %.x.E   . X %.1...J :   .   o o . .   . X   . & , , %     . X . .       $ > } E g # X . X < ' x.-.    : x.+.  : s.+.        . 1.x.& . S } %.^ S %   - q.+.    G x.0 ",
"  = x.x.  6 s.5   J s.6   m x.x.,     c x.m   } x.q.x.x.x.x.x.x.x.t.7.s.x.:   t.x.;   > x.^ . . % g x.x...> +     $ - X   = J x.x.7.t.1   . d x.&         .   .   . ' t.x.&     ^ x.+.& s.x.%.  . . . o @ O @ + V x.$ ^ x.; . 1.x.+ ; x.-.  q.x.= O t.x.  . * & . X . . o O X o .       c J > O +.x.E     X g m , .     o   .       X @ o   . $ r U V ; +     . + @ O .   X - S t.u &     > x.'   . ; 1.^   : x.-.          +.x.&   1.x.x.x.x.;   > x.1.    F x.0 ",
"  = x.x.  6 s.5   J x.6   m x.x.>     m x.m   ^ ..^ ' ' } ..E } ....^ %.x.=   x.x., . ; x.7.  6 s.x.+.* .   o r U : @ 1 q.t.x.1.t.5 +   & -.x.u   .       .   o     & x.s.; . ..s.+.  -.x.-.    $ U x.7.t.q.t.7.x.x.$ ^ x.=   1.x.+ ; x.-.  q.x.= O t.x.  . * & . $ > %.7.s.1.t.-.u +   o V J = . %.x.d   X 6 u X     .   .   .   .   X % $ .   o > ..1...5 $     O & & % o .   & } x.J o , q.%.. . ; x.q.. ; x...  . .   . -.x.*   1.s.d 1 1 O   ; s.%.    S r.0 ",
"  = x.s.  r x.1   ^ x.6   c x.x.,   . m x.d . . . .     .         .   r x.=   q.x.;   , x.... m 1.; . . + c s.+.% U 7.x.x.x.+.; .   X g x.t.g         > +   . + &   . > x.-.  1 x.X E x.q.o . u x.t.x.x.x.x.s.x.q...# E t.- . -.x.@ ; x.-.  7.x.* + s.x.    - * X & c t.x.x.x.q.q.x.x.: . + U S $ . g #   - r =     o +     .     X     # - > # . . + r 7.t.7.J @   . O * & = X   X ; E   , t.-.. . = s.-.  : x.%.  . .     1.x.*   7.s.-     . . - x.7.    g i.8 ",
"  = x.s.  r x.1   V q.6 . J x.t.u     m s.x.7.s.s.x.x.s.x.s.x.x.x.7.X g x.- . 7.x.>   , x.+.  - . .   d x.x.U U x.%.x.7.6 # .   o < t.x.-.*   X   # ..:     . . g *   . +.x.,   @ J x.x.; o } x.7.s...> > $ .     . . ..t.-   7.x.@ ; x.-.  7.x.* + s.x..   - *         . & > < 1.-.q.s.c   = U g X . . + 6 ,     X % .   .   . O         @ S x.5     . . 5 x.x.x.V $     O * - $     X   > x.}   . : x.%.  > x.}           1.s.=   1.x.7.^ ..%.} q.s.-.  . S x.3 ",
"  = x.s.  r x.1 . J 7.1 X V s.x.>   . c q.x.x.x.t.x.x.s.x.x.s.x.x.7.  V x.=   t.s.>   > x.-.      . . -.x.t.s.x.%.u &   . . + 1 +.x.x.d +   .   g x.,   . .   . - U %   * x.+.    5 x.' . ' t.x.: 1.* .       . X X   ' x.;   7.x.@ ; x.-.  7.x.* + s.x..   - =   X . .   .   . - 5 $ U S * o 6 V ;   . ; > # . X & #   .       X & $     . $ s.x.+.; X . . o > ..x.s.r O     + # . .   . , x.7.  . ; s.}   > x.+.    .     +.x.%   q.s.x.t.s.x.x.x.q.... . V x.1 ",
"  = x.s.  w x.1   U x.6   & : > # .   % ; - - = = : ; - - ; - , x.... S s.* . 7.x.,   > x.7..         x.x.' 5 %         % 5 x.x.x.' %       * q.x.,     .   X     ' -.  . ' x.-   % ' + , x.x.$ r t.  . * d %.1.s.x.& E s.=   x.x.@ ; x.-.  7.x.* + s.x..   - = $ t.-...^ ; . . O g = O - : . @ m $   + , * .   & =     .         @ : - . . . o V q.s.^ = .     . : 7.t.s.:   . .         , t.+.  . ; x.-.. : x.+.    .   . ' x.= . : = ; : - ; - - ; - X   S t.3 ",
"  = x.s.  r x.1   J s.<     . . . .     .   . .         .     * x.+.. d t.V , s.s., . , x...X     X   x.x.-   .   @ 6 7.x.7.u.S $   .   $ +.s.q.* .       =     . @ s...  O s.1.. X > . -.x.& $ t.%.  = x.x.x.x.x.s.% ^ x.;   1.x.@ ; x.-.  7.x.* + s.x.. . ; = * s.t.x.x.x.-.&   5 m X $ ; * . - . . ; > .   $ ; O       .         # 5 d * .   . $ ' x.x.%., X       c s.x.  . .         5 x...  . ; x.' . - t.^ X   .     1.q.=         X         .       J g.0 ",
"  = x.s.  r x.1 . U x.J - - ; - - = ; ; ; : -   .   . > ' , X - x.1.  U x.x.t.s.x., . > s.' .   & %   q.x.;   % } t.s.t.1.u # . .   & c s.x.d O       . u &   .   . , x.d   < x.=   o $ x...  S x.U   ; x.x.E } V > o U s.> . q.x.@ ; x.-.  7.x.* + s.x.. . ; -   1 c E 1.x.x.# . 6 g * . - :   o . o : *   O : @     .     o .     . . , ' E #       & ^ x.x.s.<     ; x.1.        X     1 x.^     ; x.} . - x.+.    7.V   ..x.= X @ , : : ; : - - ; ; - - ..x.t ",
"  = x.s.  r x.1   S x.x.s.x.x.t.x.t.s.x.s.x.1.. X     > x.V . = x.1.  6 J S ^ ^ ^ -   ; s...X . u & o x.x.; . > x.x.E > X       = J s.x.U & o   .   # 7.u   X . X . . %.s.% . x.^ .   @ t.7.. d x.+.  = q.x.&         } s.;   7.x.@ ; x.-.  7.x.* + s.x.. . ; - .     X : 7.q.    u E %   * > .     * -     = %       . .   o O . . .     @ c +.u +   .   # m q.^     : x.1.    . . X   . 5 x.' . . * E d o > x.^ . X x.m   1.q.=   * q.s.s.x.x.x.x.t.x.x.x.x.t.r ",
"  = x.s.  r x.1   c x.s.t.x.x.x.q.x.x.x.s.t.7.    . . > x.V   = x...    .   . .       > x...    x.% . 7.x.; . , x.7..   . . * ..q.t.^ * .     . . d x.U         > .   + x.}   < x.# .   7.s.. * t.7.  $ x.7.: . o % . ^ x.- . %.x.@ ; x.-.  7.x.* + s.x.. . : -   X .   6 x.%..   S } . . ; &   .   : + . @ & X     .     .   $ - #   . .     % g ' 5     X   7.}   . < x.7.      o O . . 6 t...            1 1.'   + x.u . %.s.=   ; x.x.q.q.q.1.7.t.1.7.t.7.t.5 ",
"  = s.q.  5 x.1 .                     . + x.x.  o @ . ; x.... - t.1.  $ ; = & = = = % c x.}   = x.*   x.x.-   > x.1.    = %.s.x.V $   .     o r q.x.r       . 6 - . .   g x.:   t.6   X ^ x.* # x.x.  . q.x.<   U x.& ^ t.-   -.x.# ; s.-.  7.x.* O t.x.X   : ;   , $   r x.%.    E ^   . : $     @ * X . = O           .       @ : > #           X : g $ . . %...    , x.7.    . X &     d x.%.& & & % $ * g t.}   # x.r . 7.x.=   : x.+.  .   .   . .           ",
"  * x.x.  6 q.< .                   .   + x.s.  } 7.: ; t.%.. = x.t.  m s.x.x.x.t.x.t.t.x.%.  c x.=   x.x.;   > q.s.    -.s.1 + X       # c x.x.x.;       . , ...   .   X %.7.  6 q.X   , s.> X x.s.X   +.7.6 X J x.# } s.: X q.x.# ; s.-.  7.x.* O t.x.X   > ;   : # . V q.}   + ' S   o : + . . $ # . @ % X       . . .     . . O - c 5 %         .   @ .   x...    , x.7.      o = X   d x.x.x.x.x.x.x.x.x.x.%.  @ s.1   ..x.-   : s.+.    X         .         ",
". - x.x.. 6 x.J ; ; : > : ; - - ; : *   X x.x.. E s., & x.-.  & x.t.  d q.s.x.x.x.q.1.t.1.J . ' x.;   x.x.;   > x.t.  . ' x.  .     - J x.x.1.r .         6 x.=   .     X 5 x.; o x.O   = x.-   } t.-   ' x.d   m s.# +.x.; . 1.x.# ; s.1.  7.x.* O t.x.X   > ; . ; $ . S x.m . $ %.V   X *     . & X . * O .         o O .       . X @ < E c , @       o     1...    , x.7.    . + ; + . 1 q.x.x.t.q.s.x.x.s.t.m X $ x.,   ..x.%   < s...    : m E ^ S } J U E J ",
". = t.q.  < x.x.s.s.x.x.x.x.x.x.x.t.u   . t.x.+ g t.< @ x.t.. = x.t.  m x.5 .     .   .   .   +.x.>   s.x.;   > x.s..   U 7.  O c 1.x.x.q.1 .     . . & q.x.> .       .     1.q.  J 6   $ >   @ 7.x.>   ^ t.^   5 q.* ..x.;   7.x.# ; s.1.  7.x.* O t.x.o   > : X : # . +.x.r   * s.' .   O .   o #   o & .   .   . .   X $ @   .   . X   & S ' J m = .     . %...    , x.7.      + > *   . .       . .       . X   & x.>   7.y.@   d x.}   . ^ q.s.t.x.x.t.x.x.x.",
"  * s.x.X < q.x.s.s.t.q.7.7.7.1.t.x.m . X %.s.& , x.d   %.q.X $ x.7.  u x.r   # O O + O @   . x.s.6   t.x.:   > x.1.  . E x.E x.x.x.+.; . .       = J x.x.>       .   .     5 x.& % U .   .   V x.x.@ o U q.E   u x.# } s.:   t.x.# ; x.1.. 7.x.* O t.x.o . , :   : #   -.7.U     %.x.m X       O X . # +     .   .     . @ & * @ .   . X   . $ 6 } ..E 5 O . 1...    , x.7.    . @ : =                             ; x.;   x.x.# . V t.E .   ' x.g > < > 1 < : > ",
". - x.x.  + # # $ # @ + + O o X 1 t.E     E x.- = x.^ . q.x.$ $ x.q.. g x.m . 7.t.q.x.t.x.:   %.s.g   q.x.:   > x.1.  X J x.1.q.d & .   o   o 1 -.x.x.E %   .   . =     .     x.V   r .     : x.x.:   = x.x.- . %.x.. +.q.:   7.x.# ; x.1.. 7.x.* O t.x.o . , :   : ;   - x.7.=   - 7.s.>     . o   X $ .     . .     .     O * : : & O .     . . O ; V ..O . -...    , x.7.    . # : ; . .   . . .       . . . . X : s.& . x.x.o   E q.r . . %.x.& .     .       ",
"  * x.x.  .     .       . .     * x.q..   d x.< $ x.%.  %.x.= + x.1.  r x.E   ' 1...+.q.t.<   ^ s.V   q.x.>   > 7.x.    U x.' @     .   * J q.t.s.t.>     .     c *   . . .   J q.X :   . + 1.x.U .   s.q.U   6 x.V   %.s.-   1.x.# ; x.1.. 7.x.* O t.x.o . , >   % 5 $   ^ x....   E x.t.  . . .   O +           . X       .   $ , r 5 6 * .   . . .   , #   ' ..    , x.7.      & > =           . .               : s.# # t.-.    %.q.:   O x.x.+     @ $ $ % $ ",
". * s.s.  . . o & = , g c , # . $ s.x.# . > t.S . x.t.  J x.;   x.x.O 6 x.U   , , .   -.x.> . J t.J   7.x.>   > x.q..   , 7..   . O 6 s.t.x.s.+.:       . . + %.J   .       X % x.*   .   } x.q.@   5 x.s.o # t.t.# . ..x.-   x.x.# ; x.1.. 7.x.* O t.x.o . , >   . , 6 . O x.x.6     q.7.S       . + . .           . o o       .   % 6 d V m > &   .   O .   1...    , x.7.      = , *   @ & * # $ $ # # % % $ # @ c x.. * q.1.. . q.t.- . # s.t..   o } t.x.x.x.",
"  * x.x.5 J +.x.x.t.x.x.s.U % . . s.x.;   $ x.^   -.x.$ , t.g   s.x.$ < x.}   > u .   ^ x.6 X S s...  7.x.: . : x.t..   = u     < s.x.x.t.' *   . .     . , t.-.  .       . .   t.>     6 x.x.>   % x.x.> . U x.c . . } x.;   J E # * U V   c S % O g V +   , >     = E >   5 x.t.%   = x.t.;     X X .         .     # % O         .   @ : d V E S # X     . ..+.    1 x.%.      = , #   - S ,   o o + . O . o o o + $   - s.V   . x.x.# . : x...    . -.x.%.q.7.",
"  * x.x.7.x.x.t.x.1...1 = < ;     ^ x.g   X x.q.. U t.= = x.^ . -.7.% : s.1.  : d O   V x.m   5 x.E   -.x., . - x.s.    @ @ . + 1.x.t.m # .   .   . o , %.x.+.+     . . . o   . u E   X 7.x.5     -.x.}   % x.t.O   . -.q.-           .   . .       . .     : 5 .   . g } @   } x.'     : s.r .   . X .           X X . $ : = O .   .   . .   * 5 V g       . -.+.    1 x.%.    . : 6 @ . ; S <   X       X               5 x.<   & t.q.. . d x.U X   $ s.7.. . X ",
". & q.t.x.q.^ , @     .   ; 6     , x.+.    -.x.$ 5 x.r O x...  J x.J U x.s.  - c $   g x.E   1 x.'   +.s., . - x.x.    .     > t.t.    .   . . $ S x.s.x.6       .     : *     & E . X q.q.X X S x...@ . 1.+.u O .   -.x.m r u 6 V 5 5 u   5 g 6 u u , < - : >   . . * } c   & x.s.1   o ..u     . . .         .       . @ ; , - $         .   @ V U #     . -...    6 x.+.      > 6 O . > V ;   : m d g d d c m c g c r ..x.*   < x.E     -.x.>     : x.%.  .   ",
"  & 1.m ;     . . + : U & % r + . $ x.7.+ . V t.: % x.'   s.t.o , x.x.x.x.1.X & m %   g x.E   < x.x.  ..s.>   ; x.x.      .   %.x.S X X   . - } x.x.x.^ #   .   .     6 V   . .   V . . t.x.X   7.1.-   u x.x.x.^ O   %.x.s.1.x.x.x.t.x.t.@ s.x.t.t.x.x.x.t.%.r X . O $ V %.&   E s.s.  o } u     . . .           .         . & < 6 d - o .       < m <       -...    6 s.+.    . 1 , X   r V %   m x.s.x.x.x.x.q.x.x.q.t.x.7.X   J x.u   . s.x.=     c x.g X   $ ",
". . X     . & 5 +.1.s.x.6 O g %   . q.s.; . - s.V   x.7.  ..x.& % < 5 5 5 5 + @ m *   6 x...  & ^ V . } x.,   = x.t.. .   X O x.x.>     $ ..x.t.q.5 @     . o   . . V x.o .       = o O q.x..   1.x.O X S S ..S } O . d U ' ' ' E S E ..V X E ' ' ^ E E ' } +.d   . @ # > c ,   * x.-.  o +.g .               . X     .     .   . % , g r = X . . $ E c .     7...  . 5 s...  . + : & .   V S @   E x.} u c u r u d d 6 r u 1 . . q.x.>   & t.t.o     1.7.* .   1 ",
".     # r -.x.x.x.x.x.x.^   5 ,     E x.V   O x.1.  ..s.@ 1 x.6   .       X     S >   - x.q.X   .   . E s.6 . = x.t.O . . . * x.s.  . ; x.s.x.5 O   X         X = +.x.& .     o $     O s.x.. . +.x.5 > : * % $ X . . % > = % % @ % # # X .       . .       .     # % - , ; < 6 g x.q.  o ' g .               . X o           X   .   % 6 u > .   . < E o   . -.}   . 5 s...  .   X     X J g o   %.x.6 .             .         # x.t.@   6 x.E X . # x.q..   . ..",
". = ' x.x.7.q.t.%.d c x.7.o = r o   : x.1.X   %.7.+ > x., & x.%.d d d d 1 r u u +.m   # x.x.@         J t.6 . - x.x.#   # + & x.V o ; -.x.%.X .       . . . = E t.x.&     .   J       + q.t.O . d ..%.x.s.7.x.t.7.u .   m t.x.t.s.x.q.x.x.  . . X o . . X . .     : m %.x.x.x.x.t.E m   O ..d           .     . . + $ O     .       .   . ; g , .   O J o   . +.}   . 5 s...  .   .     $ U r     -.x.;   o ; : ; : > = % & o   1 s.+.  X ^ x.,     : t.-..     O ",
"+.q.x.x.s.+.d % .   @ x.x.; $ 5 $ X + t.x.$ . g x.; & x.J . q.t.x.s.x.x.x.s.t.x.x.+.  o x.s.& @ ^ ' . S s.r   - s.x.$   : : O x.= . 7.s.m .           . - } 1.x.1.# .     * -.- .     o q.x.    . . .     . .     o %   . @ 6 r g 6 d } q.  . X       X     .   = X       .   .   X     X } r           .     .   . + & & O       .   .   . : m :     > .     q.}   . 5 s...  . ; ; $   = ' g   . -.x.=   $ -.x.s.t.x.%.5 : . . ^ q.g . o s.x.*     E x.:         ",
"s.x.s.r * .   . = 1 ..x.t.U . , : .   } x.g   - 7...  q.x.  u ..E ^ +.} E } m %.t.t.    q.x.> # q.x.  J 7.1 . : x.x.o X < m   } . u t.g .   . .   X > -.x.x.q.r   .     > x.+.  . .   O t.s.1.E u 6 : * & * : 6 ' s.x.m O       .   . . - . . .         X   . S x.7.E > $ + + @ & - , r c } u       .               . o $ = * # .   X         : S O   @ .     } +.. . r x.^   . g g % . > ^ : . o s.x.@   & ..g S U J > ; * . O s.s.% . ; x.1.      s.t.# .       ",
"7.> X .   & U 7.t.x.x.7.x.x.  > < O   > s.1..   t.t.X J x.: .     .     .   . : x.t.+   U t.6 O x.-.. S x.6   > x.t.    J +.  >   s.^       X   < 1.x.x.x.J O       & } %.q.o .   .   O s.x.t.x.x.x.x.x.x.x.s.x.t.x.U r O .   o   .   . .   .     O     .   # S +.x.x.x.s.7.x.x.x.t.-.+.E U < .             . .         . O % - ; &     .   .   ; <     o @ . ^ %.    d x.^ . . c m #   u E =   * x.7.. . > ' $           .   < x.t.    m t.E     - x.m   .       ",
"  . O < s.x.x.x.x.t.' m > ;   @ u &   @ 7.x.= . S t.* : x.E   O       O .   . $ x.x.- X g x.}   x.x.  ^ x.- . 6 x.s.  . 7.t.  o : +.    X   % %.x.x.t.c +       # c x.x.+.+     .       % % & , 5 r ^ 7.t.x.-.d :     * ,   : $     .       . . .     . @ . ; . X + > U s.x.} E d < = # X . .               . . .     .     . + - : 5 %     .   X 5 O   @ <   ; ..    c s.E . . u S o   J E $ . < x...    r V     .   .   .   U x.5   O 7.x.*     m t.* .     X   ",
"& m x.t.s.q.s.m - O     . $ , + , :     ' x.J   : x.d   s.x.o   . .   J x.g   X x.x.,   > x.x.  -.x.X ^ s.=   V x.-.  + x.x.    r @ X     < x.t.x.U & X . . @ g x.x.x.U     . . &     .             . .         % d q.+.@ : q..   X     . .     .   X   ; O > x.S *     .   . . .         . .   .           . . @ O X .       X   % : : : o   X   @ $ . O 1.  o V .   m s.S   X d V   O U ^ o   V x.S . . g d   X g J -     O x.x.@ X , s.t.. . . x.+.  . .       ",
"x.x.x.x..., o .   + 6 ^ 1.q.q.; * g @   - s.q.o   t.7.  S x.>     . . < x.-..   ..x.J   = x.1.X V x.+ } x.% . ' s.U . = x.x.. . X       J x.x.s.> . .   o d 7.x.t.7.=     .   V # . @ = $ * , u V J 5 , 1 , r s.s.x.U . - x.g     5 . X           % .   , r . > x.q.1., $ & & * - : : = $ @ O O . .           . o # & % + X         o : , 6 @   .   O     x.= . ; .   c x.V   O r r . & E S .   %.s.,   @ U 6   & 7.1.@ .   , x.} . . ..x.5     & 7.< .   . $ *   ",
"x.s.d +     . < -.t.q.x.x.t.x.} O ; $ . . -.x.6   ..x.* = x.U . X     $ x.x.&   d q.7.. @ x.x.+.x.x.+.q.s.#   7.x.<   r x.t..     .   ' x.t.1.$   .   > x.q.x.q.,     X     m E .   . ; } x.x.s.x.t.s.x.x.x.x.%.q.-   - t.7.;   $ x.<       X   # 1..   % c <   $ %.x.t.s.....7.} E S r < : $ O . .               o $ - : ; #   . . X . : 5 c #           %...  + .   c x.J   + ^ ^ , u E >   . s.x.*   & ^ :   , x.-.. . . -.x.*   & s.s.#   . . X   .     ^ x.q.",
"V O   . = m x.x.x.x.s.-.' -.x.-.@     .   g s.... - x.S . 7.t.@ % ..V . ' x.,   & s.x.#   ; : , : > , > : . % x.q.@   ' x.+.. .   . U s.x.} o . . # } x.x.x.6     .       ^ q.#   . . . .   + - < , m ' ^ 1.+.> . # J x.x.S     +.x.s.o .     . %.x.r   . ; g r @   ; %.^ c 1 = ; * % O                               X & : > ; #     .   > u V + .   . . r x.@       V x.E . X % * = * = @ . = x.t.O   : V #   J s.5 .   = x.+.  . U x.V .   .           . x.s.x.",
"    % E q.x.s.q.} ..'   . J t.x.1     .   $ t.x.=   7.x.. S x.< . s.x.o 1 x.E . . x.t.,     .   . .       . r x.7.. . q.x.m     . u x.x.q.O   . > x.s.x.d O   . X       J 7.V   .     . X   o     .     .   . % m x.s.t.S   . ^ x.x.x.c   .   < x.7.x.$ .   ; c 6 , #         . .         .   .             . .         . o * 1 < : X   . . , m d X . .   ; x.r       J x.E .     .       X   , x.+.  . u d X   x.x.$ .   E x.,   + t.x.;       . .     . @ s.x.J ",
"  m x.s.x.x.d % . , g .   , x.s.q.1.x.t.7.1.q.x.'   g x.> $ x.... d s.> + x.q.X . J x.-.g u d d g V r d d r } x.U   & x.x.$     * x.x.t.$   . u x.q.1.&   .   X   . . E x.} .       X & ' ^ < , 1 u d m ^ ..-.x.x.s.%.:     E s.x.s.J t.;   - c d x.x.-.X   . $ 1 c r 6 < - = = * * * * - - $ .                     . .     . @ , 5 ,   .     E ^ u . .     x.%.  X   J t.1.1 c 5 u d d d g V U x.g   O V >   & x.'   . $ x.1.. . S x.x.s.+.x.q.t.7.U O X 5 s.q.. ",
"t.x.t.s.m + .   $ % c *   X x.x.x.s.x.q.x.x.x.1.q.X % s.J . +.x.$ = x.-.  J x.- . > x.q.x.x.x.x.x.x.s.x.x.s.x.x.= . c s...      t.t.x.=     r x.x.S       X ,     + t.x.... X     .     @ U x.x.x.s.s.x.x.x.x.s.+.-     + 7.t.x.x.* +.x.-.  , g , 5 s.x.-.@       # , c c m J | } V c S r & .                   .       . .   . o u 5 m X     @ ^ 1.; .     } x.;     U x.t.s.s.q.s.s.s.t.t.x.x.x.=   = u *   S s.,     J t.,   & t.x.s.s.x.x.1.x.-., .   +.s.V   ",
"s.x.-.$     % +.V . 5 1     J s.x.} , r 1 > > -   X E s.x.% , q.S   -.s.O : x.^   % ' V ' } ' +.} ' ' ..^ ^ ' m X   q.s.>   . 6 7.x.g .   > x.x.u . . . $ 7.$   % x.x.-.+   .   . .         . ; , u U J r < = O X   o 5 q.x.x.x.* S x.x.- X @ r d & V x.s.-.;       . . O - ; & - - & + .                       O X     X +     . . u S S O     > s.1.O .   : x.E   . 5 ..U ..' ......} ' ' ' } ' O . 5 6 .   s.q.o   # s.t.    J x.6 ; , ; > > , ; O . + s.t.;   ",
"x.5 .   . 5 t.x.s.. > 6 + X & x.x...  .   .   X = 7.x.x...# + x.s.o , x.6 . 7.q.  . o .         .     .     . .   * x.x.O . @ x.x.7.    $ x.7.E   . X & q.,   o t.s.} % X     O % .     . . . .     .     . X   & r x.x.x.x.x.@ 1 x.s.} X     ; J 5 . m t.x.t.} - X     .     . .         . . .                 O + o   . $ # X       d t.r . . . +.x.c     X s.s.#     . .   . . . . .             + d >   > x.r     U x.> X & x.t.= . X . .         . , t.7.@   ",
"; .   + %.s.x.x.s.; & d & .   q.x.x.;     . + < x.x.x.g   . S x.x.: . x.1.  E s.5 > = * = - : ; = = = - - @   .   ..s.E     5 q.x.* .   -.x.' . .   - q...  . ..x.7.+     X   1 $     . .   * E V d 1 1 d V ' t.x.1.x.q.x.5 . u x.t.^           : c u   : x.-.s.x.s.J , - $ # # % & % + .     .                   + & .   o - $ .   . + %.t.>     : s.x.# .   U s.5 .     O @ $ O O o O O O o o + o & J %   ^ x.+ . % x.E     % 1.x.q.= $ % # . .     . ' x.J .   ",
"  . = -.x.x.S u s.} X r ,     : x.s.' . # - : 1.x.%.& . $ 7.x.x.; . X ' s.; * 7.x.t.x.q.x.x.7.s.x.x.x.x.x., .   # s.x.$   X x.x.1.    6 x.s.$     - x.t.  . m x.1.o     .   o 1.  X       . . & ^ s.x.x.x.q.q.x.x.x.-.r . @ ..s.7.^   o       .   * i u *   < s.7.x.q.x.x.V u g r - +     . .                     o $ & .   $ > # . .   > q.x.X   . } x.^ . . * x.7.X     $ c V m m m V S S V m V 6 d <   & x.r   . c x.x.&     $ t.x.1.& - : - * . . $ t.x.*     ",
"X = s.x.7.d o % s.s.O = u # . . 1.s.x.- @ : r ' >   . , t.x.s.= . X } x.x.1 . 1.x.t.^ } %.-.} -.+.} } } ^ ; . . S t.-.  . > x.x.&   # q.t.u   . * x.t.- . % x.-.+ .   X     : ..      .   .       # > m ^ ' U S > +   + J x.t.t.<               . X $ 6 g 1 @   % : d U J 5 : * + .   . .                         . X : #   . ; , O   . . +.s.g .   : x.q.$   o %.x.: X . $ , > , > > , , , , > ; 5 d -   g x.S   X O 1.x.x.=   . ; t.7...& > , $     g x.1..   * ",
"* x.x.t.,   .   ..s., @ 6 ;     , x.s...  = - X .   E q.s.-.+ . + %.t.t.V     r x.... .   .             .     o 7.x.6   . q.t.}   . u x.s.    . 1.x.g   . ^ t.%           . E U         X     * - X     .       O > ..x.x.-.r O   X   .   . . .     X   & r S < * .           .   X O X                             . @ - X   X 1 , .     = s.x.%   . ..x.u     c x.%.    .   . . .   . . .       d g O   6 s.x.d     o %.x.7.*     6 x.x.U   O     X x.t.c   . g ",
"t.s.t.:     V . 6 x.%.. : d . .   t.s.t.;     . # ' x.x.U   . - t.x.x.> .     O x.t.*     . X X   X . X . .   , q.x.    ; s.t.;   O x.s.:     V x.%.  . * x.g     . + o . X %.V   .     .       J 1.%.J J E +.x.x.t.x...1 .   X . .   o O     . .     .   . % V E S g , - - ; = , ; # .     .     .   .     . X     .   E #     - 6 ;       U x.V   . , x.s..   # x.t.= . .   X X   .   O     . + E 1   .   r x.x.U .   X +.s.x.$ .   d x.-.*     . > x.t.o       ",
"s.x.;     d ' @ o 7.t.$ & d *   . , x.x.%.  @ % , 7.x.,     6 x.x.q.=   . O   . ^ x.S       %.x.x.s.x.q.x.t.x.x.x.J     U s.q.    c q.+..   = x.t.: .   -.q.5 X     , O     q.m   . . +   . .     - -.x.q.x.x.%.' u % X .   . & J -.x.x.x.O > 6 > < - @   .     + - g J J E U d - +     . .                   - +       7.V . . . u d @   . # x.x.$ . o 7.x., .   J x.x.1.q.x.s.x.t.x.x.}   . . < ^ >     O . , x.%.V .   . -.x.7.$ .   m S ; O     -.7.^ .   .   ",
"x., .   1 5 ' ;   ^ x.J   < > O     } x.t.6 O - : u -   . c s.x.^ o . . 6 ' .   = t.x.%   . u x.t.x.7.x.x.s.x.s.t.@   @ t.x.> . . s.s.,   X ' x.}     ; x.x.S       %.@     s.m . . . ;   .   . .     O $ & % o     .   @ u -.x.x.x.q.' r   # = 1 6 6 6 - # .   . .     O $ O   . .           .     .   .     V %     @ t.q.*     - J >   .   +.x.c     V t.+.  . * t.x.x.s.x.x.q.x.q.1.= .   $ 1.} X . X } J . 1 x.x.u     . E x.... X   * % .   = x.x.-   .     ",
"J .   d x.& U d . * x.x.@ * d *   . * x.x.q.. * : X X   E x.x.J . .   % x.x.,   . J x.q..     %.x.%.$ # $ & # # O X   5 x.x.+   > q.q.X   : x.x.& . . q.x.x.,     $ s.$ . . q.V   . @ r .     X   . .   .           +   g q.x.1.q.c * .   .   . . # : 5 u 1 & .   . .         .   . .     . .       . .       ..: X   : q.x.S .   o c J O . . * x.s..   % s.x.- . . $ $ + $ @ % @ d -.g .   . -.t.: .   1 x.1.+ . > x.t.g X   o ^ x.J   .   o   X +.7.%.X     .   ",
"@   - s.x.> d S & X ^ t.m   > .       E x.t.U   .   & x.x.x.6 .       . c x.x.#   @ 7.1.V   . ; x.q.> X   . O O o @ O %.t.S   . -.x.u     ..s.-..   6 7.x.^       d s.@ . o t.V   . : u     $ .               . > t.1.  ..x.E = X   .   $ . X       . . % < ;   % & o     .   . .       . .         . O     + -.d     X 1.t.s.$ . . : ^ >   .   %.x.; .   %.7.E X o . X O   .   = ' g X   . g x...    # x.t.:     . : x.q.m     . ..t.> .     . : x.x.=       - O ",
"  $ 1.x.x.^ # U > . , 7.s.$   X   .   # %.s.x.:   ; x.-.x.* o   $ E   X   %.s.t..   < x.-.= .   ' x.s.@ . . > 7.x.q.x.x.7.; . % s.x.$   $ x.x.:   X 7.x.7.O .   X s.s.X   $ x.d     J 5     5     . .   $ ..m   %.x.d   s.x.:     # 6 +.x.X ; = # X     # , ;   @ : * . . X           .       X .   . @   . * x.-.      = x.x.E     @ E c . .   1 x....   ; x.t.s.x.x.q.V . . @ ' ' % . . : x.7.O X   1.x.S     .   . - x.q.,       u V * .     1.s....     + -.7.",
". m s.x.q.s.o 6 6 +   1.=   .   1.*     : x.7.q.d s.x.t.#     : s.x.S   . # x.q.c . . g x.q.$   O -.t.+.      ..x.x.' ' U . X 6 x....   d x.q.O   < x.t.,     . : x.%.    > x.< . X 1.;   X }         . - s.E   t.x.1 . 1.x.>   S x.x.x.S   * > ; > =   O < 1 . O > *   . X                         X %   . & x.t..       c x.x.O   . U ' $ .   & x.s.@   X 1.+.+.x.x.-.+     r ' , .   # x.x.; .   V s.} .   X %     . & x.x.& . . o , *   . , x.q.*   . . 5 x.x.",
"@ x.s.c t.s.g $ u ;         & ..s.x.+ .   g x.x.s.x.} o .   : x.x.x.x.r     ; x.x.<   . t.x.^ . . - x.x.r . . # 1.s.-         ..s.< . . t.x.U     -.x.%..     . -.s.S .   m x.:   % x.# . $ t.  . X   . > x.S . q.x.:   x.s.; . x.x.' * .     O - 5 < . X , 6   + : &   X O . . .         .         + * .   + q.s.- .     & t.x.<     , } -   .   } x.<     .   5 t.x.:   . : ' u .   . 1.7.V . . , x.x.*     ; x.& .   . # -.7.@   .   .   + x.x.^     . @ 7.s.x.",
"< x.7.  ^ q.x.X : > .     6 x.9.x.^ @       7.s.s.+.      c x.x.7.< x.s.>     c x.x.*   % s.s.m . . r s.s.> .   , s.t.    . $ x.x.O   * x.x.- . * s.x.* . .   1 s.x.# . . -.t.@   r x.    c 7.. .       6 t.c   q.x.:   q.x.;   t.s.. , +.. $ X   ; <   o > < . O - = . . + .   .           . X .   X = #     q.x.' .     . m x.q.    & +.5   .   ^ x.^ X   . = x.x.,   . $ U S o     } x...    % q.x.,     % x.x.x.*       . u 6 X .       S x.x.o       ' x...  ",
"c t.}   : x.x.1 X + X O } x.q.x.u   . . .   $ x.x.7.% o S 7.x...O X g s.x.* .   ..7.q.+   : x.x.,   . ' x.t.%   . U t.>     ; x.s.. . , x.s.o   c x....     O 7.s.E . . * x.x.  . ..-.  X } 1.      X   - x.J   1.x.: . s.t.>   s.x.% -.-.  * *   > <   O > : . O : &   X O                   X     . - =   . - x.x.+ .   . * x.x.@   + +.J .     < q.x.O .   ' x.^     @ U S = X . d x.1.o . . ..x.S   o X %.x.t.x.s.=     X   : =       & s.x.r .   . : x.q.-   ",
"E t.6   o 7.x.q.. . * x.7.q.s.- .   . : * .   > q.x.t.+ ' u.E .   . . +.x.t.+   O x.x.J     m x.7.;   + t.7.1.+     s.7.    U s.}     E x...  . t.s.:     . S x.x.# .   ' q.U   % x.^ . * x.E   .     .   x.+.  ' q.>   1.q.:   x.x.% ..x.o = &   : ,   O > =   O ; #   X o         .       . O .     ; :   .   7.s.c   .   X q.x.:     ^ +.O   X ; t.x.=   * x.'   X   g ' ,     > x.x.*   X J x.7.X .   %.x.' & s.x.x.*     . . @   .   ' 7.1.X .   X q.x.}     ",
"-.s.#     5 x.s.< d x.x.x.+.O     . r x.x.@ . . J x.x.1.O M .   ..'   o 7.x.%.. . = s.s.g . X ' x.-.+ . @ x.x.7.o   X q.* . 1 x.S .   7.x.d   % x.7.O .   & x.x.u   . % s.q.- . u s.u   J x.;     . .   X , q.O : x.g   } x.< . 7.x.= u x.X = # X ; :   O : *   @ * O   X .     .   .       . @ +   . * : %     > t.x.# .     E s.c     m %.$     % s.x.* X J 1.@     c E r   . ; x.t.> . . d x.x.#   . g s.1.@   $ x.x.x.: .           1 x.x.= .   . U x.t.X .   ",
"x.%.  .   # q.s.x.x.x.x.< .   . # +.q.x.x.1..     -.7.x.^   . , x.t.m   % x.x.U     , x.t.,   . s.x.%.. . & x.x.S   . $ : . % s.g . o t.x.: X 1 x.}   X   U 7.x.      ..x.t..   %.t.& + t.s.o     .   . .   q.>   q.+.  1 x.V . } t.1 = 7.o - o + - &   # ; @   # @ . . .       . .   . . .   @ &     + : , .   . +.s.^ .   . < s.E .   u -.=     * x.q.% . %.#     5 U c   . % q.x.g .   , 7.t.- . . > x.t.:   - X $ +.x.s.:         @ q.x.V .     : x.q.;       ",
"%.r .     . V ..} +.} #   .   - 1.q.x.q.%.x.E .   X s.q.x.c   X ' x.q., . : q.x.c .   g x.x.% . # x.q.^   . , t.x.'   . o   + 7.u   & t.s.%   J x.u     * x.s.: . . * x.x.>   : t.x.. < x.-.      .         & S   - 7.@ + x.7.  , x.S   E % %   @ - O   & & . . + .   X .   .   .       *     O = o     : 6 #     * x.x.*     & x.} . . r s.;     # s.s.  & =   . 6 ..r .   + t.x.c     - x.x.<   X = x.t.6 . - s.:   # %.x.x.&     . m t.1..     $ x.x.u .   .   ",
"            X   .   .   .   g x.x.s.c . 1 x.x.U     # x.1.s.> . @ s.s.s.% . u q.x.>     7.q.x.O   = x.x.V     < s.x.m .       E 6   = x.s.o   %.s.- . X ' x.-.      ' t.-.  . ' x.U   ..t.d .     X X   . .   $ + . 5 -   V s.% X 8.7.  * # o   # %   . % o   X X   . .         .   . . ^ o   . - &     $ < : X .   ^ 7.' .   O x.-.    6 x.:     $ x.E   o . X ; S c O   . -.x.'     $ 1.x.m   . $ s.x.U   # 7.s.J   + x.s.s.o   . $ s.x.=     . 1.x...          ",
".     .         . .   . & ..x.t.q.> . + . U t.t.m . . % x.q.x.-   % x.q.q.+   ' x.x.- . X 7.x.%.    > x.x.c .   g t.x.u . .   : <   * x.x.    x.s.& . % x.x.-     > x.s.; . ; x.t.= . %.7.=       c   .           .   * . . U J   , s.*   . .   $ o   + @     .   . .     .       .   % x.*     - : .     < u $ .   % x.x.+ .   t.q..   < x.: .   $ x.< .     - -.m       7.s.+.    + x.x.^ .   . -.x.^   o t.x.+.    %.s.x.$ . .   E s.5     . U s.t.# .   : S g ",
"E U ^ E J U J V ^ ' E } s.x.-.} O   J t.$   ..x.s.1 . . ; x.x.t.% . - t.x.%.o   ^ x.x.%   $ t.x.'     5 t.x.5 .   r x.x.6     X >   ; s.x.. O t.x.O   J x.' X   @ t.x.'     +.s.%..   7.x.&     . } X             o     .   . r $   J m . .   . .   . .       .   .                   d t.1     $ > @     # g ,   .   U x.r .   q.7.o   5 x., .   * q.#     = ^ u X X o %.s.+.X     %.t.q.    . 1.x.%.. . } x.%.o . m x.t.;     . $ x...      6 x.7.-     . J t.h.",
"x.t.x.x.x.x.x.s.s.t.x.x.x.t.1 . & +.x.s.} X O -.x.x.6     : s.s.q.@   > x.7.U . O ..x.+.O . = q.x.S     u 7.x.>   . r x.x.1 .   +   : x.s.  + t.s.o   } s.>     J t.t.#   m x.x.:     1.7.-     . x.& .   .   .   :     .     . @ X . g O . . o .   .     .     . X                   S s.6     o u ; .   . : 5 -     & t.t..   -.q.o   5 x.,     : q.. . X S c o   . ' x.q.@ . . ^ x.7.. .   ^ x.t.#   } x.+.$   5 x.x.6       % c q.X     ; q.s.J         ^ x.x.",
"g 5 r d u u g 5 d V r c u X   r x.x.7.x.x.V   + %.x.x.;   . , x.x.1.O   d x.x.S   $ %.x.%.+   > x.7.u   . S t.x., .   V x.x.r .     : 7.x.. X x.s..   q.x.*   & x.s.r   $ t.x.' X   . E x.:   . # x.,         . . , ,   .   .         . O   O   .   .     .     O O   .           .   +.s.1     . ^ 5 .     # < g +     s.x.#   } x.+ . u t., X   , 6     , c X   . ..x.t.O   . S x.1.#     %.x.-.&   5 t.x.*   6 x.x.S   .   @ , x.+     + x.x.E   .       J x.J ",
"O o o O X . o . .   . X o = ^ x.x.x.g ' 7.x.d . # 1.s.x.6     u x.-.%.O   r x.7.V   $ x.s...X   1 x.s.>   o E x.x.: .   d x.x.< X   * x.x.  @ x.x.o . t.x.; . * x.s.& . , 7.x.=     . U x.<     , x.<   .       . $ q.X .     .     .     .   .   . .     .     # +   .           .   q.x., .   . t.r .   . . , r $   X x.-.#   } s..   m s.>     6 X . o ;     . ..x.x.O .   } x.q.$ . . m t.x.* . 1 x.s.:   : x.x.U       O ; S = .   o x.q.} O .   ,   . g x.3 ",
"^ 7.t.x.s.7.s.7.q.t.s.s.t.t.x.x.7.=   O q.s.x.>   * t.x.x.>     < x.q.1.    J s.x.6   = x.1.+.. X 5 x.x.>     U x.x.; . . 6 x.s.5   = x.q.  O t.7.+ . ^ q.c   . s.x.1   & x.t.* .     c 1.c .   ' s.<   .   @   . + s.> . .     X                   .     .   X & +   . . X           1.x.- .   X x.V       . 1 < o . & x....   %.q..   ^ x.,   . * .   +   . + %.x.q.@ X   m x.x.= .   5 x.t.> X ; x.q.>   % x.x.^   . . X : > =   X   -.x.s.$     u %.  . U x.0 ",
"U x.x.x.x.x.x.x.x.s.s.x.s.x.q.J o .     - x.7.x.>   = q.7.x.:     1 x.x.^ X   } x.x.>   : s.x.S   . } s.x.-   . J x.x.;   . , x.x.6 , x.x.  . +.x.#   r x.%..   E x.-.    1.x.u   . . & t.V   O q.x.<     $ -     O x.'           o         .       .         + - O     X @           U x.#     $ s.J   .   @ 6 >     1 x.E     1...    } x.>   o     . X .   +.x.x.+ .   m -.x.:     1 x.7.6   % x.7.m . # s.s.%..     o : , %   .   } q.t.& .   = s....   V x.0 ",
"S x.c : , < < > > , r 6 , 5 -     .   @ q.x.s.7.t.-   & x.1.x., .   1 x.x.k X   } x.x.; . : 1.x.J     / x.x.% . . } x.s.>     6 s.x.x.t.x.+   s.s.%   - x.q.@   > x.-.O   c x...    . O 7.V   & x.x.:     u > .   . s.E         . ; #   . .   X     .   .     % ; X     O %           6 s..     < q.m   .   = 1 &     ..x.6 .   t.U . . ..s.: .         . o %.x.+.#     J t.x.*   . 1 t.x., . # x.x.S   O t.x.7.X   . . - - &   .   J x.q.=       > s.}     U q.y ",
"' s.=           .       .     .     O q.q.x.+.-.s.x.$   = x.s.s., . . 6 q.x.S   . ^ s.x.-   6 x.t.V   . +.x.q.&     U x.s.1     - > , : 1 o   > , +   + x.x.;   @ x.x.- . ; 1.x.o     - d U   ; x.x.&     t.:     O x.x.O   .     1.%     .         .   .   . = : .     + =     .     : s.    . V t.d .   . : 6 O   o x.1.: . . , >     : : +     .     @ -.x.-.#     J s.x.;   . , x.x.<   & 7.s.U .   } x.q.#       & : =   X   m x.x.<   .     < x.^ .   c x.0 ",
"V x.=     X     . .           o   @ %.x.s.V X + 7.x.-.+   $ x.x.s.5   . 6 %.x.c   O 7.x.t.% . 6 x.s.c   . +.x.%.% .   +.x.s.5   .     . .     .   .     -.x.V .   1.x.V   . x.x.-     U & S   5 s.x.o . # x.: .   + x.t.@       % x.%         X . .   .       : : o X   + > X .   .   * r       ^ x.,     o > >     ; x.7.  .         X .     .   .   * s.q.+.+     V x.q.;     > x.x.u   @ x.s.m X . } x.-.#     . * ; =       d t.x.<           , x.}     m x.0 ",
"..x.* X +.x.x.7.7.x.x.x.x.x.x.x.q.x.x.x.E X   c x.x.s.+.. . $ t.x.x.c .   5 x.t.r   + +.x.x.%   r x.7.6 . . +.x.q.$     J x.x.g - ; > , > : : > : , < : +.t.%.. . S x.-.X   ^ x.,   . J r *   > t.x.. . : x.-   . O x.t.@     X U x.O . . .     . X .   .   . : : O .   # : #     . . O #     . 1.s.> . . + , - .   V x.1.; * ; ; : - ; ; : ; > > ; 1 x.x.-.o     } x.x.- . X > x.x.r X X t.x....   +.q.x.$   .   % ; - . .   5 7.x.1 .     S     , x.}     m x.r ",
"V s.-   7.7.x.x.x.x.x.q.7.s.x.s.7.s.x.r   X E x.x.x.7.> X     # 1.q.x.S   . 6 x.t.g   @ x.x.q.%   u x.x.1   @ 7.x.t.+ X   U x.t.x.x.x.t.s.x.x.x.x.x.x.7.t.x.x.# . , x.x.#   1 x.m   . m t.$ . = q.x.. . V x.&     # x.x.# . . @ x.+..   .         O +   . .   m g @ .   # 1 %     #       .   O x.q.- . . % , $ . . -.x.x.x.7.x.s.x.x.x.x.q.-.x.x.x.t.s.' .   . ^ x.s.* .   : x.s.u   X s.x.^   . J x.x.+   .   * - -       d x.x.u .     ' s.    , x.}     m x.r ",
"J x.=   +.s.7.+.} ^ ^ ^ ' +.%.' } E ;   o J x.t.x.+.=       X   # 7.q.q.}   . 1 x.q.1   # q.x.+.% . r x.x.: . $ t.x.s.&     m 7.1.q.q.+.} ..-.1.-.1.} %.-.%.} :   % s.x.:   & s.^   . S x., . & x.x..   +.x.&     = s.x.# .   . 7.t.- .   . .   o $ +     . . q.t.=   . @ u %   . ,   .   . . = x.q.@ .   = > o   + ^ %.%.-.%.-.+.7.1.' ..t.1.%.+.%.%.V O   . U x.q.= X   , x.7.r . O -.x.S X . J t.t.$       = > % X   . V 7.s.5 . . . = x.x.    , x.}     m x.r ",
"V x.* . 1.x.1 . X .             .   . . $ , , 1 , = .         .   O %.x.s.^ .   6 q.x.= . % 7.x.-.@   V s.x.- . $ x.t.1.$ .           . . .           X . .       X %.x.J   . t.J .   +.x.c   # x.x.@   E t.- . . - x.x.,       ; x.x.*       . % &         > t.x.;   . $ 5 $     ^ # . .     d x.q..   . ; - .     . .     .       . .         . .       X ' x.s.=     , -.x.m   # 7.x.%.    E x.x.*     X ; ; * . .   g x.x.u X     X * x.%.    , x.}     m x.r ",
"J x.; . %.x.u     . .         .   .                 X   .       .     U x.q.' O . 6 x.x.;   $ 7.x.7.O   V 7.x.; . @ x.x.s.% .   .   . . . . . X .   . X   X . .     ^ x.%..   ^ J .   q.x.g   X -.x.; . 1 t.6 .   O -.t.%.. . .   m x.7.% .   $ = o   .   X 1.s.t.+ .   : U O     1.,         +.x.U     o : &     X       .     .     .     o .     .   O -.x.s.% .   , t.x.r   O 1.x....   d x.t.+ . . . - - *   .   E x.x.6 .   % .   % x.q.    , x.}     m x.r ",
"g q.-   -.x.g   . > J S E ^ J E V U ^ } J Y ..^ +.} } } +.q.} 1.r X   . s.x.x...# . , x.t.%   % -.s.t.  . ' t.q.+ . % s.x.x.:     O , 1.x.s.q.x.x.t.s.x.q.x.x.t.X   r x.7.$   > S . . t.x.r     ..t.r   % x.+.X . . 5 x.x.= .     + -.s.s.  % ; $   X .   , x.x.,   . . S U     # q.S       $ s.x.;     @ - @   & 1.x.x.x.x.t.x.t.x.x.q.s.x.%..     . $ t.x.x.O   . 1 x.t.5 . @ s.x.}     u t.-.# .   O : : = . .   . s.7.r o   * 7.  o % %.x..   , x.}     m x.t ",
"J x.-   %.x.5 . . V x.t.x.x.q.t.x.t.x.x.s.x.x.x.s.x.q.s.s.s.x.t.x.6 . $ x.q.t.x.-.@ . ' s.+.    $ 1.x.d X - x.x.> .   * x.x.s.<     o > %.t.7.7.-.s.7.q.7.1.t.x.%   = x.x.; . & u   # x.t.5     d s.7..   ' x.& .   @ x.t.%.      . : s.q.O - = .     . X 1.x.t.  .   % %.: .   > x.V   . . < x.s.O . . $ * X   & x.t.} ..-.+...1.%.} +.....'       : s.x.%.X     g x.x.}   . } q.%.X . : x.-.% .   & > - %   .   .   q.1.+   $ t.x.    = x.-.    , x.}     m x.r ",
"J x.=   1.x.g     m x.E 1 > 1 < : 1 < 1 , , 1 1 6 6 1 : , > > u x.x.o # s.1.* 1.x.-.  J x...      U x.J . - x.t.- .   . - q.t.1.> X       .           .   . t.x.:   . x.x.J   O ; . % x.x.5   . % x.s.&   < u.' .     m x.x.:         ' t.+ = O     .   u x.q.< .   . J +.+ .   U s.+ .     1.s.+.      # % .   : s.%.      .     . .       . .   ; x.x.} .   . V x.7.x...    -.x.1 .   S %.%     * > : @   .   . .   7.' #   : x.s.    * x.t..   , x.}     m x.r ",
"J x.=   1.x.g   . U q.:   + @ # # # # # @ @ # # + #   . $ #   & g.t.X @ x.-.  + x.-.  J x...      J s.V   = x.t., @ @ @ # r s.x.x.,   . $ $ $ % & % % $ X . 1.x.6     1.x.... . #   % q.x.S       ' x.V   . x.t.# .   + x.s.7.o   o     q.$ =   . .   = x.q.%.      : +.d   o $ 7.6       - x.t.- . .   % #     , x.}     .   .   .     . .       } t.J .   + ^ x.q.> q.S . . +.x.6 .   d E $   . , , % .   .       o +.+.#   ; s.s..   * s.1.    , x.}     m x.r ",
"J x.= . 1.x.g     S x.,   E q.x.x.x.x.t.x.x.x.x.x.' . $ q.t.+ = x.x.o O x.s.X O x.-.  J x...      E x.E   ; x.x.x.x.x.x.s.x.x.q.t.d   * x.x.x.s.x.x.x.x.  . -.x.m     S x.7.+   X     7.s.%.. .   - t.x.#   1 x.U       6 x.s.c .     . ; @ .   .   @ q.s.x.#     X %.1.@     J } +   .   ..7.s.X   .   % o   . , x.}     @ @ # + % # @ $ @ @ +   ,.x.& . # ' x.7.= . s.} .   %.t.,     m ^ % .   1 m 6 u u c c ^ V m 1.} +   ; s.s..   = x.q.    , x.}     m x.r ",
"J x.= . 1.x.g     J x.,   7.x.t.%...1.-.-.-.+.x.x.-.  @ x.x.X - t.x.O + s.s.o + x.-.  J x...      E x.S   = -.7.7.x.t.7.x.7.x.s.s.m   % s.7.x.s.s.t.s.x.    -.x.S     > x.t.*     o   r x.x.>   . . -.t.S   O 7.x.*   . X %.x.x.*   . .   .         ^ t.x.<   . . r x.,     * +., . . . * x.x.6 .   .   +       < x.+.. . m t.x.x.x.x.t.t.x.t.,   ' x.;   r x.7.#   . t.%.. . ..x.1     g m #   . : 6 5 S m V E J J U J m @ . : s.t.    = x.t..   , x.}     m x.r ",
"J x.= . 1.x.g     J x.,   } x.c .   . .   . . > s...  + x.x.O ; x.t.o @ x.s.. X x.-.  J x...      U x.J   . X         . .   5 t.s.m .   +   . O .   . .   . -.x.J     @ x.x., .     . O x.x.+.. X   ; s.q.O . , x.-..     & x.1.s.o   .         . E s.q.V . X   : 7.%.o     J c .     . ..7.7.  . . O . X       1 q...    ^ x.U ..' ..' } +.' = . S x.:   6 x.%.    @ q.%.  . -.x.<   . S m $ .   . . . .         . .   .     : x.t.    & t.7.    , x.}     m x.r ",
"J x.= . 1.x.g     E x.6 . U x.V .     $ = * . < q.} . O q.7.o * x.q.. + x.s.o + x.-.  J x...      m q.E % & * % $ & O       5 x.x.r .   . . .         .   . -.x.^       7.x.V   & +   . 6 x.x.u .     } x.S . X q.x.>   .   > x.x.} .       . . d x.x...  .   $ x.1.;     = S &     . r x.x.;     % # . .       d x.7.X   U 1.X     X   .         E s.:   d t.%..   o x.-.    t.x.6   . g c = & & % % % $ % & $ # & & & & & % 5 x.x..   * s.7.    , x.}     m x.r ",
"U x.= . 1.x.g     E x.1   S x.m     X m x.%.. : x.} . @ s.x.+ * x.7.o # t.1.. X x.-.  J x...    . V x.x.1.x.x.x.x.x.:   . X 6 t.t.q.+.} ^ J E } %.....%.  . -.s.'   .   J x...  - m X     } x.s.$   . & x.x.*   , s.x.$   . o d 7.x.c   X     E x.1.U .   .   -.x.U   .   m >   .   # x.s.E     o , +   . .     1 7.}   . E x.X .   $ @ % # $ $ # } x.;   1 t...  . o t.} .   +.x.5     u ^  .x.x.x.x.s.7.x.x.x.t.x.x.x.s.s.7.x.q.t.. . - x.q.    , x.}     m x.r ",
"U x.= . 1.x.c     E x.1   } x.m       d s.+.  , x.'   @ t.x.O = s.7.o # s.s.o O x.-.  J x...      < E J ' ' E ..x.s.,       u s.x.x.x.s.x.x.x.x.x.x.x.x.  . %.x.^   X . < s.-.  - x.&     * x.x.^ .     S x...    +.x.E .   .   r x.x.<   X 7.t.x.c         U s.7.+ .   % 1 . .   . E t.7.X .   * g .       .   < s.+.  . m x.o   + 7.x.s.s.x.x.x.x.x.> . , x....   o x.+.  . 1.s.r     > , , S V S E U V S S J S S J S J S J U U '     = x.1.    , x.}     m x.r ",
"S s.- . 1.q.c     S x.<   } x.S       g x.}   < s.+.  + x.x.o * x.x.O + x.q.X o x.q.  J x.+.      .   .   . . ; x.x., .     * J g g g g g g g g d %.x.x..   q.x.E .   o & x.s.. * 7.t.o   . c x.x.%       t.x.,   * x.x.6 X       s.x.g   & x.q.;     .   d x.q.*   . . ; X .     # x.x.&     + 6 u     X .     6 x.-.  . E g.O X O r u 1 5 r 5 6 6 > # . 6 x....   o s...  . %.x.< .         .       .       .   .       . .     .     & x.1.  . , x...    S s.0 ",
"' x.-   1.q.m .   S x.<   } x.S       g x...  < x.U . + x.x.o = x.x.O + x.q.X o x.7.  U x.}   @ + + + + + .   , x.q.;         .                 . 1 q.s.    -.x.J     : X q.x.  # x.7.^ . . X q.x.V   :   * 7.x.%   c x.q.% . . X x.x.g   & s.^       . u x.x.< .     + O   . .   6 t.5 . .   - 6 } .   o & .   6 x.} .   F x.o                   . X .   6 x...  . O x.'     ..x., . @ - - - = - - ; ; ; : : ; ; - - ; : : ; ; - = & - 1 x.7.    : q.'   . S s.0 ",
"J s.= . t.s.g .   S x.1   } x.S       g x...  < x.E X O s.t.+ - x.s.O + x.q.X o x.-.  E x.'   > 7.s.x.7.q.; . , x.x.,       .                   . r u.t.    -.x.g   . +.  ' x.  @ t.x.x.1     ; x.x.  d 5   V q.%.. O 7.x.r     O x.x.g . & 1.g     . = x.s.u   . .   . & . .   + J } . .   $ - J %..   - : .   , x.}     ' x.O   . .   .     .         . 6 t.%..   O s...  . t.x., . ; 7.x.x.q.x.x.x.s.x.s.x.x.t.x.x.x.s.s.s.t.x.x.x.x.q.x.t.. . , x.}     J x.r ",
"J x.-   q.x.d     S x.1   } x.S       g x...  < x.... + x.-.X $ x.s.O + x.q.X o x.%.  J x.}   m x.x.x.x.x.*   , x.x.; . = E s.q.t.t.t.t.t.t.t.t.%.x.x.x..   } s.1 . O x.  < x.  O q.x.} t.%   . E q.- g x.. o t.x.m   } q.g   . o x.s.d . * -.d   .   , x.}           & ^ .     & ' *     o & & q.^     ' : . . 1 x.+..   E x.x.t.x.s.q.s.s.x.t.s.q.x.x.1.x.x.^     + t.7.    -.x.1   ; x.t.| +.^ 7.q.} 7.x.x.7.1.1.-.%.-.1.%...%...' %.+.q.J .   : s.+.    V x.r ",
"m q.-   1.x.g     S x.1   } x.S       g x...  < x.+.  + x.x.o = x.s.O O x.q.X o x.-.. V x.+.  m x.< @ -.x.=   , s.x.= . 1 x.x.x.x.x.x.x.x.x.x.x.x.t.s.s..   +.x.> . & s.$ $ x.  . 7.x.5 ..%..   @ x.u V x.V   % q.x.. S x.u .   X x.x.g . & -.d     X 1 1.' . .     . J 7.o     * d .   . @ X = x.U     x., .   1 x....   E x.t.y.7.q.t.q.s.s.s.x.x.x.s.7.q.q.}     o 7.+.    +.s.1 . ; x.u . .       . r s.6                 .     X X         X > t.... . V s.r ",
"q.x.>   %.x.g     S x.1   } x.S       g x...  < x.' . + t.x.  * x.s.O O x.q.X o x.-.  V x.+.  d s.> X x.x.= . < x.x.: . $ = * = = = = = = = = = * 1 7.x.  . 7.x.:   > t.> . t.  . 1.x.1 - x.,   . r g U x.m   @ x.s.. S x.g .   X x.x.g   % %.g   X   > x.%.    X .   J t.@ . . = @ .   X o   ; x.J   + x.1     , x.'     } s.X .     .       .     .           . . . x.+..   -.x.6 . = x.g     . .     d t.r       .           .         .   .   : s.%.    m x.r ",
"t.-.- . %.x.c .   S x.<   } x.S       g x...  < s.E . # 7.-.o % s.s.O O x.q.X o x.-.  S x.' . d x.,   q.s.;   > x.t.;   .                         > x.x.    ..x.*   r s.r   S   o s.t.d . ' x.$   . u g x.^   @ x.s.. ^ q.r   . o x.x.g . & -.g       r t.+.    X . . J x.+   . $     .   .   - x.S   * x.6   . 5 x.' .   J x.    X       .         .   .   .       . q.+..   q.q.< . ; x.u .     .     c s.u .       . .           .     .       ; t.%..   c x.r ",
"X o     t.x.c     S x.<   } x.S       g x...  < x...  $ x.x.' q.s.s.O O x.7.X o x.-.  U x.E . c x.:   q.x.;   , x.x.s.%.q.1.s.t.t.t.t.t.t.t.t.t.  , x.t.    ..x.#   c t.m   :   @ 7.x.> . - x.^ .     S x.J   # s.x.  m x.g     o x.s.d . * 7.m . .   < x.^   + & .   } x.@ .     .   .       ; x.J . ; t.r . . 5 s.+.  . ^ 7.  * q.x.x.x.x.x.q.7.s.x.q.x.x.x.s.x.x...x.%.  X ..x.1   ; x.7.} 1.-.+.: . 5 x.V     . & , * . @ u V r r S m d V m g ..x.^   . S x.r ",
"X O O @ %.s.J     m x.6   ..x.c     . c x...  < x.+.  # x.x.t.x.x.7.+ o x.7.o O x.-.  S x...  d q.,   s.x.* . r s.s.x.x.x.x.t.x.x.t.s.x.x.x.x.7.  : x.x.    %.x.o   E q.V . X   & x.x.>   . 1.x.<   . U 7.E . @ q.x.  ^ x.m .   O x.t.g . % %.S       > x.S . # % . . U x.O .         X .   . = s.%.  ; x.S .   < x.+.    E x.  % x.x.q.x.7.x.t.x.x.q.x.q.t.x.x.x.s.x.x...  . -.x.< . ; x.x.x.x.q.x.,   c x.g       S s.r   % x.x.x.t.x.x.x.x.x.x.x.s....   c x.r ",
"t.x.x.-.s.x.J     U x.<   ' x.^       c x...  # - % . X * = * : x.7.@ o x.7.o O x.-.  S x...  d t.,   x.x.=   # > : : : : : - - : ; > > > : > >   : x.x.    %.x..   } s.c . .   - x.x.&     < x...+   ^ x.U   @ t.x.  V t.S .   o s.x.d   & 1.c       , x.^ . $ * X . S x.@         .         = x.7.. : x.U .   < x.+.    E x.  % x.7.* = = = = & = * = - - = - & = = * &     ..t.r   O - - - & ' x.,   c x.d       S s.r   % x.x.6 > , > > : : > : : - .   J x.t ",
"x.x.t.x.s.x.u . X ^ x., X -.t.m       g x.}         . .       # x.q.@ o x.7.o O x.-.  S x...  d s.<   x.s.-                 .                     > x.x.    +.x..   -.x.u       r x.x.o     + s.x.,   J x.E   @ x.x.  U s.V     O s.x.d   * 1.g .     > s.} . % = X   J x.#   +       . o     % x.x.+ > x.} .   < x.+.    E x.  & x.1.    .   .   .           .   X .         s.s.r           o g s.< . g s.u       S s.r   % x.q.o         . . .   .       S s.r ",
"  X . X   .   .   c s.1 . ..t.V       c s.E O     .       .   $ x.t.@ X x.7.o o x.-.  S x.}   d x.,   x.7.= . $ ; - ; = = = ; - ; ; ; - ; ; %     , x.x.    ..x.    7.x.5     . %.x.q.  . .   +.s.... V 7.J . @ x.s.. E x.m . . O x.x.d   % 1.S     . < s.... # * .   ' x.+ . 6 .     = -     o s.x.* > x.+.    < x.+.    E x.  & s.q.  .     .       .   .   .       . . . X +.x.,     . X     u s.1 . g s.u       S s.r   % x.x.X   .   .         .   . . m q.f ",
"o O o + @ @ o # # S t.6   ^ x.E .     m x.x.} } -.q...1.%.^ @ # x.s.# X x.7.o o x.-.  S x...  d x.> . x.s.= . r q.q.x.x.s.s.s.x.t.x.x.x.s.x.6 .   , x.x.    } x..   7.x.6 .   + x.x.'         J q.+.  U t.c   $ q.q.. , u -     . x.x.u   % 1.V   . . = 5 <   $ * .   ' x.+ O 1.@     ' r     . q.x.< ; x....   < x.+.    E x.  = t.7.      # +   X - -.1.s.1.-.t.7.7.7.1.1.+.x.x.q.%.....E X   c x.1   d x.d       S s.r   % x.t.O   .   = = ; - : : ; ; ; ' s.t ",
"U 7.x.s.s.x.x.x.q.x.x.r . } x.S     o S x.t.t.x.x.q.x.s.x.x.O + x.s.# X x.q.o X x.-.  S x...  d x.>   s.x.=   S x.x.t.x.x.x.s.x.t.x.s.t.x.x.6     < x.x..   ' x..   7.s.1 .   ; x.s.5 . .     V t.U   U x.m   # x.q.  .   . . . X x.s.u . * 7.m         . X   $ = X   J t.@ $ x.= . # x.c .   . -.x.U ; t.} . . < x.+.    E x.  * t.1.. . * 7.E     = x.x.-.x.x.x.s.x.t.t.s.x.7.q.q.x.x.x.-.    F x.1   d x.g       S s.r   % x.s.#       ^ x.x.7.x.s.x.x.t.x.x.c ",
"U x.q.+.1.-.+.E ^ } S :   E s.U .     @ $ # % * # # $ & 1.s.o @ x.x.# X x.q.o X x.-.  S x...  d x.< . t.x.=   d s.x.; : ; - = = > ; ; ; 7.7.,     1 x.s..   ^ x.  . 7.q.<     V x.x.* . # X   U x.V   U x.J   + x.x.6 < , 6 6 , : x.x.c   * 7.U # $ $ # @ @ @ % = X   S x.+ * x., . % x.} .   . E x.7., s.-.. . < x.+.    E x.  = x.1.    - x.} . . - x.%.@ O o O o o X .   o X o . . ; t.7.    m x.1   d x.g       S s.r   % x.q.@       %.x.V 6 5 1 r d 5 5 > - ",
"U q.&   .     .       .   %.s.S     . $ = * = * * = .   x.q.X + x.x.# X s.q.o X x.-.  S x...  d x.d X q.q.= . 5 x.s.. .     .   .     o x.t., .   1 x.s..   ^ x.  . q.q.,     7.x.x.O   ; @   ' x.c X ' x.S   @ x.s.s.x.x.x.q.s.x.x.x.S   & -.%.E ^ ' E ^ U U 6 *     U x.o = x.r . @ t.x.  .   d x.x.g x.x.    < x.+.    E x.  & x.1.    : x.^ .   = 7.7.            . . . .     X   - s.q.    i x.6   d x.g       S s.r   % x.x.O . . . %.x.= .       .   X     ",
"^ x.* .   @ @ @ $ % & % # %.t.S . .   J t.x.s.x.t.x.$   q.t.o @ x.x.# . x.q.X o t.%.  V x...  c x.x.7.t.x.; . r x.x.    # * % & % * + + q.t., . . 5 x.x.  . ; r   X 5 u $   - x.t.} .   E @   -.x.S   , c > X X r r r r r r u u d , 5 ; . + > , ; ; ; ; ; ; ; ; $ .   ; > o & x.c   @ x.t.@ .   - m g m V : . X % u , .   ; : X & s.t.    : x.'     - x.-.    ; ..%.} } ' } } %...1 . = x.1..   V s.u   c x.g       S s.u   % x.q.+       -.x.;   $ > : : : > : > ",
"U s.* . X V t.s.x.s.x.x.q.x.x.^   . . c q.7.,.7.t.x.$   q.t.o + x.x.# . x.q.X o x.q.  J s.%.. 5 x.q.x.x.s.&   u 7.x..   6 x.x.x.x.x.> o t.x.5     d x.x.              . . . U x.x.c   # s.#   7.q.J       .   .                     . .     .                     .         ; x.g X # s.x.-       .     . .                 . . * x.} .   = x.-.    - x.-.    ; x.x.x.t.s.x.q.x.x.S   = x.+..   , m ; . r t.u       S s.u   % x.q.+       -.x.;   r x.x.x.x.t.x.x.",
"U x.*   . ..x.s.q.x.x.x.x.x.t.g         .     o q.x.$   q.t.o + s.x.@ . x.q.X o t.1.  S s.1.      . .     . . c x.q.    6 x.x.s.x.x.:   x.1.,     r t.7.# + O + O $ + + @ $ 7.s.s.= . : x.$   7.x.V + o o # O o + + + + + + + + + @ + + + + + O O O O O O O O O O O X O + O ; q.m   X x.x.1 X + X o o + O + O O . X o O O o X X = x.7..   ; x.U     - x.-.    ; x.& . o o .   5 x.g   - x.1..     .     r x.d       S s.u   % x.q.+       -.x.; . d t.s.%.x.1.t.8.",
"J s.=     ^ x.g o O X           . . . X o + + X q.x.$   t.s.o + s.x.@ . x.q.X o x.-.  S t.1.% @ @ # # % # O   6 x.s.. . 5 q.6   d -.>   t.x.1 . . 5 x.x.x.x.x.q.x.x.x.x.x.1.x.x.-.O . u q.*   s.x.t.s.x.s.1.q.x.x.x.x.x.x.x.x.x.q.x.x.s.s.t.t.x.x.x.x.x.x.x.s.s.x.x.s.x.x.1.7.x.m . O s.x.x.s.x.x.s.x.x.s.x.x.s.x.x.x.s.s.s.t.t.t.x.q.  . - s.-.    - x.-.    ; x.*     . .   < x.d . ; 7.%.  .   .   . g x.c .     S x.u   % x.q.+       -.x.;   5 q.S .   .     ",
"U t.*     ' x.d   , g S U J E ' ' U %.7.7.7.< X q.x.$   t.s.o + x.x.# . x.q.X o x.... ^ s.7.-.x.x.q.x.x.x.* . c s.x.    g x.d   U x.: . E -.:   . > ..^ %.%.+.-.-.E +...%.1.%.-.V     q.x.=   ' t.%.1.-.7.1.7.%.%.-.-.-.-.-.-.1.-.%.%.-.-.%.%.+.-.-.-.-.%.%.%.%...1.1.%.1.7.-.1.> . + -.1.E } -.1.-.%...%.%.-.1.1.%.+.+.+.+.%.1.-.+.%.    : x.S     - x.-.    ; x.$ . d U %   r x.c . = ' J .     . .   d q.u .     S s.u   % x.q.+     . -.x.; . u s.E           ",
"E s.=     ^ s.r   7.x.s.x.q.x.t.x.s.x.x.x.x.1   7.x.$   t.s.o + x.x.# . x.q.X o x.%.  c x.x.s.x.x.x.s.x.q.= . r x.x.    g %., . V x.>   . .   .   X .     X     . . .       .         t.s.>                 . .             . . o           .                   .             . . .     .   .     . .   .         . .     . .       X     = x.%.    - x.-.    ; t.& . +.s.*   , s.J     .     .   .     V x.g       S s.u   % x.q.+       -.x.;   m x.^ .     .   ",
"J x.- . . ..x.u   q.x.E %.^ +...S S V g x.x.5   7.x.$   s.s.o + x.x.# . x.q.X o s.t.X S x.'     X X X s.-.;   5 x.q.@ . r x.u . m s.6 o X + O O o O O o . O X O X O X o O O + X O o # x.x.> . .     . . .       . . . . . . X X X . X O O o O + O O O O O O O O o X O o O @ O O o + o O @ O o @ O O + o + O + + @ O O @ + o X O o + X X o ; t.'     - x.-.    ; x.* . +.x.= . 5 x.J X X o X O o O o . o r t.u       S s.u   % x.q.+     . -.x.; . r s.S .     .   ",
"J x.-     ' x.u   q.x.    .           . %.s.u   7.x.$   s.s.o O x.x.# . x.q.X o s.1.  S x.}   , r #   x.q.-   u x.x.t.7.t.x.5   V x.x.7.s.s.x.x.x.q.x.x.x.x.x.x.x.x.x.t.s.x.s.x.x.x.x.x.q.s.} 7.-.s.7.-.q.1.t.t.q.q.t.t.t.t.t.t.x.s.q.s.x.s.t.x.x.x.x.x.x.x.x.x.x.q.x.x.x.x.t.x.x.t.x.x.t.x.q.x.x.t.x.t.x.t.x.s.x.x.x.s.s.x.x.x.x.s.x.s.x.x.x.}     - x.-.    ; x.&   %.x.*   6 x.s.s.x.x.s.t.x.x.x.s.t.t.x.r       S s.u   % x.q.+     . -.x.;   < x.'   . , U T ",
"S x.=     ..s.<   7.t.. .   .   .     . 1.x.5 . q.x.%   t.x.X @ x.s.@ . x.q.o o s.7.  J s.' . 1.x.* . x.s.- . r x.x.t.7.x.x.1 . } 1.x.x.x.s.s.x.x.x.x.x.x.x.x.x.x.x.x.x.x.x.x.x.x.x.x.x.x.x.x.x.x.x.x.x.x.x.x.x.x.x.x.x.x.x.x.x.x.x.x.x.x.x.x.x.x.x.x.x.x.x.x.x.x.x.x.x.x.x.x.x.s.s.s.x.x.x.x.x.x.x.x.x.x.x.x.x.x.x.x.x.x.x.x.x.x.x.x.x.x.s.q.1..   ; s.} . . $ S # . +.s.*   < x.x.x.x.x.x.x.x.x.x.x.q.x.x.1 .     E s.6   % x.t.@       %.x.; . r x.E     S x.x.",
"J x.=     } x.r   %.x.      . .       . q.x.5   q.x.%   t.x.X @ x.s.@ . x.q.o o s.... V 7.'   E t.&   7.x.-   O % % $ # $ & @   + # % & % $ % % $ $ $ $ $ $ $ $ $ $ $ $ $ $ $ $ % % % % $ $ % % % % % % % % $ $ $ $ $ $ $ $ $ $ $ $ $ $ $ $ $ $ $ $ $ $ $ $ $ $ $ $ $ $ $ $ $ $ $ $ $ $ $ $ $ $ $ $ $ $ $ $ $ $ $ $ $ $ $ $ $ $ # # $ $ $ $ # #     ; x.-..   + - o . %.x.&   + + + + + + + + + O @ # + @ @ O       U x.r   * x.t.@       %.x.; . r x.E     S x...",
"J x.=     ..x.d   7.q.. . . X   . + . . 7.x.r . q.x.%   t.x.X @ x.s.@ . x.q.o o x.%.. V x.}   %.t.&   x.x.&                   .                                                                                 . .     .   . .                                                 . . . . . .                                           . . . .     X : t.7.    O ; o   } x.$ .   . . . . . . . .   . . .       .   . U x.6   & t.t.@       %.x.; . r x.E     S x.1 ",
"U x.= . . ..x.r . q.t.-.t.%.%.q.7.1.@   +.x.<   q.x.%   t.x.X @ x.s.@ . x.q.o o x.q.  S s.E . ..x.=   t.x.s.7.%.-.+.%.1.-...} +.-.%.+.+.%.-.%.+.-.-.-.-.-.-.-.-.-.-.-.-.-.-.-.-.%.%.%.%.%.+.+.%.%.%.%.+.%.+.+.+.+.+.+.+.+.+.+.+.+.+.+.+.+.+.+.+.+.+.+.+.+.+.+.+.+.+.+.+.+.+.+.+.' ' ' ^ E E U U c g c c c c g g c c c c m m m m J U E ' ' ' ' ' ..^ %.x.+.    + ; X   x.x.% . $ ................+.' ' +.%.} ^ ' -.U q.s.u . = s.t.@       %.x.; . r x.E     S x.8 ",
"E s.* . . ..t.<   7.x.t.t.x.x.7.x.x.$   -.x., . q.x.%   t.x.X @ x.x.@ . x.q.o o x.%.  E 1.%.X } x.$   x.x.x.t.x.x.x.x.x.x.x.x.x.x.x.t.s.x.x.x.s.x.x.x.x.x.x.x.x.x.x.x.x.x.x.x.x.x.x.x.x.x.x.x.x.x.x.x.x.x.x.x.x.x.x.x.x.x.x.x.x.x.x.x.x.x.x.x.x.x.x.x.x.x.x.x.x.x.x.x.x.x.x.x.x.x.x.x.x.x.s.s.s.s.s.s.s.s.s.s.s.x.x.x.x.x.x.x.x.x.x.x.x.x.x.x.x.x.x.x.x.+.X . o > o   ' s.* X & x.x.x.x.x.x.x.x.x.x.x.x.x.x.x.x.7.x.x.x.g . & x.t.@       %.x.; . r x.E     S x.3 ",
"E s.* . . } t.6 . % = * * % $ - # & X   t.x.6   q.x.%   t.x.X @ x.x.@ . x.q.o o x.+.  S x.-.  +.x.%   # $ % & % % & & % % & & & & % % % & & & % % % % % % % % % % % % % % % % % & & & & & & & & & & & & & & & & * * * * * * * * * * * * * * * * * * * * * * * * * * * * * * * * & & & & & & % & % % % % % % % % % % % % % % % % & & & & & % % % & % % % $   . o - O . $ ; + . O & & & & & & & & * * * % % & & % $ & # @ @   * x.t.@       %.x.; . r x.E     S x.t ",
"U s.= .   E x.V     .   . .     .     . ..x.d   q.x.%   t.x.X @ x.x.@ . x.q.o o x.-.  d x.E   } x.*     X         . . .                 . . .                                                   .   . .                                                                                         . . . . . . . .                                 .   . .     . .     X   .     .                         . X .     . .       = q.t.@       %.x.; . r x.E     S x.y ",
"S s.= .   U x...} 1.+.7.} -.7.+.-.+.+.-.7.x.5 . q.x.%   t.x.X @ x.x.@ . x.q.o o s.+.. V x.q.' x.s.-.' ..%.%.-.} ........} } +.%.} } ..+.+.+.....................+.+.+.+.+.+.+.+.} } } } } } } } } } } } } } } } ................................................................} } } ..........+.+.+.+.+.+.+.+.+.+.+.%.%.%.%.%.+.+.+.......+.+.+.} ..} U -.-.} -.....-.' -.7.^ +.+.+.+.+.+.+.+.....} } } ' } +...^ +.7.7.} %.x.t.@       %.x.; . r x.E     S x.y ",
"^ s.*     } x.x.x.x.x.x.x.x.x.x.x.x.x.x.x.x.g   q.x.*   q.s.O + s.x.$   x.t.O o x.1.  V x.x.x.x.x.x.x.x.x.x.x.x.x.x.x.x.x.x.x.x.x.x.x.x.x.x.x.x.x.x.x.x.x.x.x.x.x.x.x.x.x.x.x.x.x.x.x.x.x.x.x.x.x.x.x.x.x.x.x.x.x.x.x.x.x.x.x.x.x.x.x.x.x.x.x.x.x.x.x.x.x.x.x.x.x.x.x.x.x.x.x.x.x.x.x.x.x.x.x.x.x.x.x.x.x.x.x.x.x.x.x.x.x.x.x.x.x.x.x.x.x.x.x.x.x.x.x.x.x.x.x.x.x.x.x.x.x.x.x.x.x.x.x.x.x.x.x.x.x.x.x.x.x.x.x.x.x.x.x.x.x.x.x.x.x.+   .   7.x.:   u x.}   . V x.f "
};
