/* XPM */
static char *_a78e77fe7254b6af550aa5e4f4d57f9eeByYdsxGGaMs6pV[] = {
/* columns rows colors chars-per-pixel */
"128 128 256 2 ",
"   c black",
".  c #010101",
"X  c #020202",
"o  c gray1",
"O  c #040404",
"+  c gray2",
"@  c #060606",
"#  c #070707",
"$  c gray3",
"%  c #090909",
"&  c gray4",
"*  c #0B0B0B",
"=  c #0C0C0C",
"-  c gray5",
";  c #0E0E0E",
":  c gray6",
">  c #101010",
",  c #111111",
"<  c gray7",
"1  c #131313",
"2  c gray8",
"3  c #151515",
"4  c #161616",
"5  c gray9",
"6  c #181818",
"7  c #191919",
"8  c gray10",
"9  c #1B1B1B",
"0  c gray11",
"q  c #1D1D1D",
"w  c #1E1E1E",
"e  c gray12",
"r  c #202020",
"t  c gray13",
"y  c #222222",
"u  c #232323",
"i  c gray14",
"p  c #252525",
"a  c gray15",
"s  c #272727",
"d  c #282828",
"f  c gray16",
"g  c #2A2A2A",
"h  c gray17",
"j  c #2C2C2C",
"k  c #2D2D2D",
"l  c gray18",
"z  c #2F2F2F",
"x  c gray19",
"c  c #313131",
"v  c #323232",
"b  c gray20",
"n  c #343434",
"m  c #353535",
"M  c gray21",
"N  c #373737",
"B  c gray22",
"V  c #393939",
"C  c #3A3A3A",
"Z  c gray23",
"A  c #3C3C3C",
"S  c gray24",
"D  c #3E3E3E",
"F  c #3F3F3F",
"G  c gray25",
"H  c #414141",
"J  c gray26",
"K  c #434343",
"L  c #444444",
"P  c gray27",
"I  c #464646",
"U  c gray28",
"Y  c #484848",
"T  c #494949",
"R  c gray29",
"E  c #4B4B4B",
"W  c #4C4C4C",
"Q  c gray30",
"!  c #4E4E4E",
"~  c gray31",
"^  c #505050",
"/  c #515151",
"(  c gray32",
")  c #535353",
"_  c gray33",
"`  c #555555",
"'  c #565656",
"]  c gray34",
"[  c #585858",
"{  c gray35",
"}  c #5A5A5A",
"|  c #5B5B5B",
" . c gray36",
".. c #5D5D5D",
"X. c gray37",
"o. c #5F5F5F",
"O. c #606060",
"+. c gray38",
"@. c #626262",
"#. c gray39",
"$. c #646464",
"%. c #656565",
"&. c gray40",
"*. c #676767",
"=. c #686868",
"-. c DimGray",
";. c #6A6A6A",
":. c gray42",
">. c #6C6C6C",
",. c #6D6D6D",
"<. c gray43",
"1. c #6F6F6F",
"2. c gray44",
"3. c #717171",
"4. c #727272",
"5. c gray45",
"6. c #747474",
"7. c gray46",
"8. c #767676",
"9. c #777777",
"0. c gray47",
"q. c #797979",
"w. c gray48",
"e. c #7B7B7B",
"r. c #7C7C7C",
"t. c gray49",
"y. c #7E7E7E",
"u. c gray50",
"i. c #808080",
"p. c #818181",
"a. c gray51",
"s. c #838383",
"d. c #848484",
"f. c gray52",
"g. c #868686",
"h. c gray53",
"j. c #888888",
"k. c #898989",
"l. c gray54",
"z. c #8B8B8B",
"x. c gray55",
"c. c #8D8D8D",
"v. c #8E8E8E",
"b. c gray56",
"n. c #909090",
"m. c gray57",
"M. c #929292",
"N. c #939393",
"B. c gray58",
"V. c #959595",
"C. c gray59",
"Z. c #979797",
"A. c #989898",
"S. c gray60",
"D. c #9A9A9A",
"F. c #9B9B9B",
"G. c gray61",
"H. c #9D9D9D",
"J. c gray62",
"K. c #9F9F9F",
"L. c #A0A0A0",
"P. c gray63",
"I. c #A2A2A2",
"U. c gray64",
"Y. c #A4A4A4",
"T. c #A5A5A5",
"R. c gray65",
"E. c #A7A7A7",
"W. c gray66",
"Q. c #A9A9A9",
"!. c #AAAAAA",
"~. c gray67",
"^. c #ACACAC",
"/. c gray68",
"(. c #AEAEAE",
"). c #AFAFAF",
"_. c gray69",
"`. c #B1B1B1",
"'. c #B2B2B2",
"]. c gray70",
"[. c #B4B4B4",
"{. c gray71",
"}. c #B6B6B6",
"|. c #B7B7B7",
" X c gray72",
".X c #B9B9B9",
"XX c gray73",
"oX c #BBBBBB",
"OX c #BCBCBC",
"+X c gray74",
"@X c gray",
"#X c gray75",
"$X c #C0C0C0",
"%X c #C1C1C1",
"&X c gray76",
"*X c #C3C3C3",
"=X c gray77",
"-X c #C5C5C5",
";X c #C6C6C6",
":X c gray78",
">X c #C8C8C8",
",X c gray79",
"<X c #CACACA",
"1X c #CBCBCB",
"2X c gray80",
"3X c #CDCDCD",
"4X c #CECECE",
"5X c gray81",
"6X c #D0D0D0",
"7X c gray82",
"8X c #D2D2D2",
"9X c LightGray",
"0X c gray83",
"qX c #D5D5D5",
"wX c gray84",
"eX c #D7D7D7",
"rX c #D8D8D8",
"tX c gray85",
"yX c #DADADA",
"uX c gray86",
"iX c gainsboro",
"pX c #DDDDDD",
"aX c gray87",
"sX c #DFDFDF",
"dX c gray88",
"fX c #E1E1E1",
"gX c #E2E2E2",
"hX c gray89",
"jX c #E4E4E4",
"kX c gray90",
"lX c #E6E6E6",
"zX c #E7E7E7",
"xX c gray91",
"cX c #E9E9E9",
"vX c #EAEAEA",
"bX c gray92",
"nX c #ECECEC",
"mX c gray93",
"MX c #EEEEEE",
"NX c #EFEFEF",
"BX c gray94",
"VX c #F1F1F1",
"CX c gray95",
"ZX c #F3F3F3",
"AX c #F4F4F4",
"SX c gray96",
"DX c #F6F6F6",
"FX c gray97",
"GX c #F8F8F8",
"HX c #F9F9F9",
"JX c gray98",
"KX c #FBFBFB",
"LX c gray99",
"PX c #FDFDFD",
"IX c #FEFEFE",
"UX c white",
/* pixels */
"< C w i t t w 9 w w w w w w w w w w w w w w w w w w w w w w w w w w w w w w w w t t t w w w w w 9 i w i d t d i 9 c t w w t w w w w w w w w w w w w w w w w w w i w 9 w w 9 9 w t w 9 9 w w w w i 4 9 t 4 i w 4 w w i t l w 9 l w 4 d 4 d w t 9 w w w l t w d w ",
"K.ZXDXLXDXDXJXLXLXLXLXLXLXLXLXLXLXLXLXLXLXLXLXLXLXLXLXLXLXLXLXLXLXLXLXLXLXLXLXLXLXLXLXLXLXLXLXLXLXLXLXJXZXDXJXLXLXLXDXLXLXLXJXJXLXLXLXLXLXLXLXLXLXLXLXLXLXLXLXLXJXJXLXLXLXLXLXLXJXLXLXLXLXLXLXLXJXJXLXLXLXLXLXLXJXLXLXZXLXJXJXJXLXJXJXLXLXZXDXLXLXLXDXLXLXLXnXDX",
"'.M.C c C J C c M M M M M M M M C C C C C C C C M M M M M M M M M M M M M M M M M M M M M M M M U i c c T T J c ! A c C d c C J M M M M M M M M C C C C C C C C c C A C M M M M c c M M M c c c C J C i M d c A C c M M M C ) A l J U l ! M U d l C C M i C M W.",
"[.| J y.w.9.w.p.y.y.y.y.y.y.y.y.p.p.p.p.p.p.p.p.y.y.y.y.y.y.y.y.y.y.y.y.y.y.y.y.y.y.y.y.p.p.p.p.g.w.z.y.:.9 X.b.9 A y.M.z.g.y.w.p.p.p.p.p.p.p.p.p.p.p.p.p.p.p.p.y.p.p.w.w.y.y.y.g.g.g.p.y.y.p.g.:.p.g.9.b.p.z.p.g.y.g.p.M U 1.  3.$.$ z.y.b.1.z.g.y.y.z.g.M.w w.",
"[.! R.LXLXLXLXJXLXLXLXLXLXLXLXLXLXLXLXLXLXLXLXLXLXLXLXLXLXLXLXLXLXLXLXLXLXLXLXLXLXLXLXLXLXLXLXLXDXLXLXLXLX! $XLXT I.LXDXLXLXLXLXLXLXLXLXLXLXLXLXLXLXLXLXLXLXLXLXLXLXLXLXLXLXLXLXLXLXLXLXLXLXLXLXLXLXZXLXLXJXLXDXJXJXLXLX1.(.LXd ZXgX| LXJXLXnXLXJXLXLXLXxXLXX.p.",
"[.) [.K.  4 w t 9 9 9 9 9 9 9 9 9 9 9 9 9 9 9 9 9 9 9 9 9 9 9 9 9 9 9 9 9 9 9 9 9 9 9 9 9 w w w t d = J ZXJ 4XDX! z.K.< l 4 4 w 9 9 9 9 9 9 9 9 9 9 9 9 9 9 9 9 w 9 9 w t 9 4 4 9 9 w t i i w 9 + t p.LX@.9 t t t t U DX:.D.LX+ lX<X< t i 4 d < t w 4 t w 4X$.1.",
"[.U (.g.! pXwX4XrXrXrXrXrXrXrXrXwXwXwXwXwXwXwXwXrXrXrXrXrXrXrXrXwXwXwXwXwXwXwXwXwXwXwXwXrXrXrXrXwXgXb.J LXC ;XDXU b.W.c <XwX6XwXrXrXrXrXrXrXrXrXwXwXwXwXwXwXwXwXpXwXwXpXrX4XwXgXwX4X<X4X6X6X4X<XgX3.@.ZXT z.wX6X6Xg.l LX1.g.LXt wXgXC pXpXpXwXlXrXwXpX4XM  X3.y.",
"[.) [.w.X.LX$X'.'.'.'.[.'.'.'.'.[.'.'.'.'.'.'.'.[.[.[.[.[.[.[.[.'.'.'.'.'.'.'.'.(.'.'.'.'.'.[.[.(.ZX$XM LXC $XLX) M.W.M LXLX<X'.[.[.[.[.[.[.[.[.'.'.'.'.'.'.'.'.[.(.(.[.'.(.;XxXxXrX4X;X<X4X4X4XLXg.:.LXC (.LX<XLX;Xi LX3.D.LX< rXrX4 D.K.D.K.D.I.b.;XLX`  X1.9.",
" X) W.g.| LXi A X.J T ! J J U J U U U U U U U U U U U U U U U U J J U U J J J J U J C T T T U T 9 w.6XC LXJ '.LX` B.D.A JXJXt l ) J U A ! J T T J J J J J J J J J ! ! C ! J + 4X;X  A c l C i d LXM.X.LXU W.JX  wX+Xc LX1.M.LX9 6XpXX.T U ! C J ) c l LX!  X@.w.",
"'.| [.z.T JXU [.JXJXDXLXLXLXLXLXLXLXLXLXLXLXLXLXLXLXLXLXLXLXLXLXLXLXLXLXLXLXLXLXLXLXDXLXLXLXDXLX) b.4Xl JXU ;XLXJ W.I.C LXZXd $XJXLXLXZXLXLXxXLXLXLXLXLXLXLXLXLXLXLXDXZXLXLXX.pX<X  JXZXLXDX<Xc LXM.X.LXU W.JX  xX6XM DX@.K.LXw lXLXxXLXLXLXLXLXLXW.A DX! ;X1.9.",
"'.` '.z.` JXT gX'.) J C C A A C U U U U U U U U U U U U U U U U U U U U U U U U J T T U C U p.LX| g.4XC LXJ [.nXT z.K.A ZXDXM [.gXC C c A M l J C C C C C C C C C M M J 1.ZXT [. X= LXZX[.LX6XA LXM.X.LXU W.JX  4X;XM LX$.I.nX9 t c d c d i M c nX[.M JX| $X:.1.",
"[.` R.g.@.LXM 6Xw.w D.z.w.M.p.b.y.y.y.p.y.y.y.y.p.p.p.p.p.p.p.p.p.p.p.p.p.p.y.y.y.w.p.p.g.J U nX| w.;XC LXU ;XLX) I.W.M DXZXt 6X+X= B.g.b.w.K.g.z.z.z.z.z.z.z.z.g.z.g.` l JX| 4X6X  DXJXw rXrXM LXM.X.LXU W.JX  lX4Xl LXX.K.LXB.p.y.z.z.g.g.y.< <X Xc LX) (.$.w.",
"'.| '.y.` LXM gXM.y.LXxXLXLXDXLXLXLXLXLXLXLXLXLXLXLXLXLXLXLXLXLXLXLXLXLXLXLXLXLXLXLXLXJXLXw.J LX| y.<XA JXA $XLXT 9.p.C LXLXd  XwXM ZXDXLXJXLXDXLXLXLXLXLXLXLXLXLXLXLXrXA JX) 6X+X4 DXxXJ wX<Xc LXM.@.LXU W.LX  gX$Xd LX3.M.LXLXLXJXLXLXJXLXLXc wX<Xl LX| [.:.w.",
"(.| [.y.` LXM pX9.g.M.z.lXi 4 $ = = = = = = = = = = = = = = = = $ = = = = = $ $ =   = d JXB.M ZX! p.6XA LXJ +XLX9.< 4 U LXxXt +X;Xl LXLX! = 4 w 4 4 4 4 4 4 4 4 w $ w.wXJ LX! ;X+Xd ZXZXC wXDXU LXM.@.LXT W.LX  rX$Xl LX:.l ! ) ) ) ` ` J K.JXw ;X+Xl LX| $X$.3.",
"[.! '.g.X.LXl 6Xw.b.9.z.LXt R.4XwXwX6X6X6X6XwXwX6X6X6X6X6X6X6X6X6X6X6X6X6X6X6X6X<X6XR.l JXb.C LX) g.;Xl LX! $XLXgXLXR.C JXLXl ;X;Xl LXLXd p.nX<XrXrXrXrXrXrXrXrXrX| b.xXA LX$.$XLXrXLXJXU pX+Xd LXM.@.LXT (.LX  pX4XM LX'.g.g.z.p.g.g.b.M 9.LXd rX;XM LXU  X$.y.",
"+XT [.z.` LXc lXg.y.z.p.ZXU LXxX[.[.[.[.[.[.[.[.[.[.[.[.[.[.[.[.[.[.[.[.[.[.[.[.[.LXxXd JXz.c LXT b.4XM LXc 1.b.M.B.) A LXDXi ;X;XM LXJXc ` [.R.W.W.W.W.W.W.W.W.LX$.g.lXM JXJ X.K.b.b.z.w xXgXc LXM.@.LXT (.LX  wX4Xc LXLXLXLXJXJXLXJXLXw.y.LXd wX[.l LXT <X:.9.",
" X! '.g.` LXC rXy.z.g.z.DXM LXw.9 ! J U U U T ! T T T T T T T T T T T J A ! T U w b.gXC LXp.T LX) p.wXl LXp.) | ` T T p.DXJXi $X;Xl LXlXy.T T U T ` U U ! T !   pXw.y.nXC JXz.U J U ) ) 9 gXgXl DXD.X.LXJ [.LX+ rX4X+ X.) ` ! ` ! ) :.DXp.w.DXc wX Xc LX`  X:.w.",
" X! '.g.` LXC rXy.z.g.z.DXM LXw.1.LXLXLXLXLXJXJXLXLXLXLXLXLXLXLXJXLXLXLXLXLXLXLXJ R.nXM LXy.U LX) y.6XC LXZXDXLXJXLXLXJXLXLXc <X;Xc LXLXLXDXLXLXJXJXLXLXLXLXnXA xXp.y.lXC LXLXLXLXLXLXpXc 4XwXU LXb.@.LX! (.DX+ pXnXw.p.p.w.g.y.g.) = JXB.w.ZXl wX Xc LX`  X:.w.",
" X! '.g.` LXC rXy.z.g.g.DXM LXw.$.LXB.3.9.w.9.g.y.y.y.y.y.y.y.y.w.w.w.9.w.9.(.LXT R.nXc JXp.U LX` p.<Xi M.b.D.M.b.b.M.B.y.b.$ ;X$Xt p.b.M.p.b.g.M.b.D.p.g.$XDX+ rXw.y.pXi g.b.K.p.M.ZXnXM pXpXd LXg.@.LXT W.DX$ ;XLXLXZXLXLXLXJXLXrXt LXy.1.JXi wX+Xc LX`  X:.w.",
" X! '.g.` LXC rXy.g.g.g.DXM LXw.:.LXc A w.3.X.@.:.:.:.:.:.:.:.:.3.1.:.1.1.l 9.LXA D.xXl LXz.U LX) w.rX! ! C U J ! U A ` ! :.A 4X;XU ` ! ) J ) U J J ) ) l $.LXw nXp.p.ZXX.) U J T < rXDXl rXgXc LXb.1.LXJ W.xXw A C C U A C i C 6XrXw LX3.9.LXt wX Xc LX`  X:.w.",
" X! '.g.` LXC pXy.g.g.g.DXM LX9.$.LXi R.LXJXLXLXLXLXLXLXLXLXLXLXLXLXDXLXLX:.3.ZXT K.ZXc LXb.A DX) 9.LXDXLXLXLXLXJXLXLXZXJXLXLXLXLXxXDXDXLXDXLXJXLXLXJXLXK.| LX9 pX1.1.LXJXJXLXLXJXM DXLXl 4XpXC LXM.:.LXU '.LX<X;X4X;X6X<XgXpX<XLXrXi LXb.3.JXi wX Xc LX`  X:.w.",
" X! '.g.` LXC rXw.g.g.g.DXM LX9.@.LXl $XrXU T C U U U U U U U U U ! U p.LX3.9.LX! K.ZXl JXb.J LX@.U I.K.I.I.b.b.b.I.D.M.K.M.D.g.b.B.K.D.M.z.M.z.M.B.b.R.@.| LX9 ZXp.J D.I.K.K.I.B.< lXnXd pXgXi LXb.@.LXJ @.W.+X+X<X$XLXxXW.6X$XJX<X9 nXg.:.JXC wX Xc LX`  X:.w.",
" X! '.g.` LXC pXw.g.g.g.DXM LX9.:.LXt +X+XM W.[.'.'.'.'.'.'.'.'.[.'.X.X.LX:.$.DXT B.ZXd DXb.J LXT 9 ! l l A M U C d c C A c c J d M M M l c C C l C C A M b.DXw 6XK.J C c M c A c ! JXDXd rXgXc LXz.:.LXy.U C A M i $ DXlXC M   wXpXc LXz.3.JXt wX Xc LX`  X:.w.",
" X! '.g.` LXC pXw.g.g.g.DXM LX9.1.LXi ;X;X) LXJXrXrXrXrXrXrXrXrXpXnXy.| LX9.1.LXT D.JXc JXb.A LX| y.JXLXLXLXZXLXLXDXLXLXJXLXZXLXLXLXLXLXLXLXLXLXLXZXLXLXnXLXZX4 <XLXJXJXLXLXJXLXLXJXnXxXM 6X4XM LXb.:.JXJXJXLXLXJXZXd xXJXLXZXl 6XgX4 JXp.3.LXd wX Xc LX`  X:.w.",
" X! '.g.` LXC pXw.g.p.g.DXM LX9.:.LXl +X;XT LX1.= 9 i t 4 d w 9 t t w 3.LXy.X.LXJ B.ZXA JXy.J LXX.w d M i l l l d l c c d d l c c c d l l i l J l l d M d M i < c c c c c c c c d c l c < rXpXl LXK.$ A c l T i  XpX4 A c $XLXt wXrXt JXp.1.JXd wX+Xc LX) +X:.9.",
" X! '.g.` LXC pXw.g.p.g.DXM LX9.:.LXl +X;XT LX1.:.LXDXLXLXDXLXLXDXJXJXLXLX9.:.JXC K.DXd gXD.T LXLXwXgXxXgXlXlXlXgXpXpXgXnXnXgXwXgXrXpXrXJ y.nX;XlXgXrXgXlXlXgXZXpXpXpXpXpXpXpXpXZXpXrXlXrXLXwXM LXp.@.nXrXlXW.! B.LXD.K.b.lXDXt wXrXt JXp.1.LXd 6X+Xc LX) +X:.9.",
" X! '.g.` LXC pXw.g.p.g.DXM LX9.:.LXl +X;XT LX1.w.DX'.y.$.b.w.y.b.y.g.g.9.i 3.LX` M.nXc JXz.  9.3.:.9.w.w.p.9.w.w.w.9.3.3.9.w.p.w.w.K.LXl D.LXb.w.g.y.w.g.w.1.9.y.y.y.y.y.y.y.y.9.3.g.9.w.3.$.M ZXD.i y.M.+XZX| y.LXnXDXLXLX6Xl wXrXt JXp.1.JXd 6X+Xc LX) +X:.9.",
"+X! '.g.` LXC pXy.g.p.g.DXM LX9.:.LXl +X;XT LX1.w.LXl C :.:.@.:.3.:.3.3.g.9.'.LXU D.LXc DXwXb.I.z.K.K.b.b.b.z.B.g.M.D.D.M.b.b.M.D.3.U LXJ R.rXt w.B.B.p.M.B.D.K.M.M.M.M.M.M.M.M.M.b.B.p.I.B.9.M LX6Xp.z.A c LX` 9 J J C J c C   wXrXt JXp.1.LXd 6X+Xc LX) +X:.9.",
"+X! '.g.` LXC pXy.g.p.g.DXM LX9.:.LXl +X;XT LX1.:.JXJ W.JXLXLXnXpXJXJXpXZXnXpX6Xc 3.(.M  XpXxXwX6XlXrXrXDXDXpX6XrX6X<X<XwXrXwX6XlXK.J nXA W.pXJ LXxXpXrXwXwXwXwXwXwXwXwXwXwXwXwXgXwXrX4XpXpXR.A +XpXrXJXK.M LXnXlXrXgXpXpXwX;Xl 6XrXt JXp.3.LXd 6X+Xc LX` +X:.9.",
" X! '.g.| LXC pXy.g.p.g.DXM LX9.:.LXl +X;XT LX1.y.LXM M.LXp.  c | ) i   $ + w T A T U i $   = 4 ! @.U w     M 1.1.$.X.` ) ! T T ) ` 1.LXU (.gXA LX3.t T A U T ! U U U U U U U U A A T U c U ! d J A i JXD.A LXI.y.y.g.y.y.gXLXt 6XrXw JXp.3.LXl 6X+Xc LX` +X:.9.",
" X! '.g.| LXC pXy.g.p.g.DXM LX9.:.LXl +X;XT LX1.1.JXC B.z.w g.LX<X$.t ) W.6X6X4XwXwXwXlXgXlXb.c d y.;XlX'.| T | B.(.6XlXnXZXZXDXJXZXnXZXc I.rXA LX$.$.LXJXLXLXDXLXLXLXLXLXLXLXLXLXLXLXLXLXLXLXLXLXpXw LXI.J JXJ C p.b.y.w g.DXl 6XrXw JXp.3.LXl 6X+Xc LX` +X:.9.",
" X! '.g.` LXC pXy.g.p.g.DXM LX9.:.LXl +X;XT LX1.3.LXT + A xXLXX.t w.gXxXM.X.) U < 4 U c A $.R.xX4X3.t $.wXLXZX$Xp.9.@.` ) ) ) ) T U ! ! < [.rXU LX1.9.nX$.J U ! U U U U U U U U C U ! C ! A J U T c $ LXB.U LXJ ;XLXZXLX9.K.DXM 6XwXw JXp.3.LXl 6X+Xc LX) +X:.9.",
"[.) '.g.| LXM pXy.g.p.g.DXM LX9.1.JXl  X<XJ LX1.3.LXJ l LXZX< A xX4X@.t U + + 9.R.d = z.3.  4 t | DXrXc $ J @.g.$X4X;XR.(.K.D.(.R.+X[.<X6XLXrX) LX@.3.LXt p.+XrX;X6XwX6X6XrXrX4X4X6XwXwX6X4X4X6XwXpX4XJX[.A JX! +X6Xl LX1.B.JXi 6XpXw LXg.1.LXd wX+Xc LX`  X:.w.",
"[.) '.g.| LXM pXy.g.p.g.DXM LX9.1.JXl  X<XU LX:.9.nXd gXxX< 9.LXw.    ) (.6X[.c ) lXw.i xX$.! 4XC   c ! 3.M.X.$.i 4   ! X.! X.` T J T U T 1.` l JXb.9.ZX) rXDXg.B.g.y.g.z.y.y.g.z.z.p.p.g.b.b.z.w.y.b.z.A C LXU  X4Xl LX1.B.LXl 6XpXw LXg.1.LXd wX+Xc LX`  X:.w.",
"[.) '.g.| LXM pXy.g.p.g.DXM LX9.1.DXl  X4XU LX:.M.9.p.LXw 1.gXT c ;X Xb.T A 3.LX@.9 LX3.T LXt M.c ! 6X6XI.M.[.(.DX Xi T ZXLXLXJXJXxXZXlX6X[.K.W.LXw.$ p.9 D.LXI.z.z.b.M.M.b.z.z.z.b.g.y.p.z.z.p.D.p.z.b.g.+XLXJ +X4Xl LX1.B.LXl 6XpXw LXg.1.LXd wX+Xc LX)  X:.w.",
"[.) '.g.| LXM pXy.g.p.g.DXM LX9.:.JXl  X<XU LX9.J T LXp.d JX|   ) J | K.rXpX! i LX9.d gX9 [.b.  b.LX! c ) $.X.M < y.ZX` $ J C A A J U :.y.g.+XwXxXZX6XK.) X.U @.I.;XwX;X+X4XwX4X<X6XwX6X<X<X<X4X<X<X;X6X6X$X+XJ $X6Xl LX1.M.JXd 6XpXw LXg.1.LXd wX+Xc LX`  X:.w.",
"[.) '.g.| LXM pXy.g.p.p.ZXM LX9.:.JXc  X<XU LXy.  W.gX= pXb.$ ;X+X+X(.$.< @.LX:.C lXc 4X3.M 9 '.rX4 X.rXwX(.$XZXrXc ) ZXX.  [.'. XR.g.z.b.y.X.i M A $.K.rXgXgX'.$.M w C U c i c i t t d d t i l l M 9 t t 9 M   $X4Xl LX1.M.JXl 6XpXw LXg.1.LXd wX+Xc LX)  X:.w.",
"[.) '.g.| LXM pXw.g.p.p.DXM LX9.:.JXc +X<XU LXy.  ZXw.| gX+ d w.` @.b.6XnX1.  4X4 4XX.w.+X  D.wX  M.JXU d ! l   g.xXM @.nXi 6X<X) z.g.p.p.I.R.+X$X Xz.X.T w 3.'.nXLXLXDXDXLXLXJXLXLXDXJXLXLXLXLXnXDXJXLXLXLXDX) $X<Xd LX1.M.LXc 6XpXw LXg.1.LXd wX+Xc LX)  X:.w.",
"[.) '.g.| LXM pXw.g.p.p.ZXM LX9.1.JXc  X4XU LX3.U ZXi [.3.U W.[.;X$X$.t C xXW.  9.;X$ lX| ` xX= [.;X$ p.<XD.y.;XZXDXI.< 4X@.@.$X< p.9 ) B.p.X.| | M b.W.+XlXw.U t ! W.LXLX+Xb.b.M.B.B.b.b.B.M.z.M.b.K.b.g.B.R.d $X<Xd LX1.M.LXc 6XpXw LXg.1.LXd wX+Xc LX`  X:.w.",
"[.) '.g.| LXM pXw.g.p.p.ZXM JX9.3.JXl  X6XT JX@.w.4Xl lXt 1.g.T ` p.+XDXB.+ ;X(.< i R.R.t lXc w.pX9 (.(.1.6XLXD.c M T $ z.'.) <Xd LXU [.LXK.[.<X6X[.$ c C A p.4X4Xz.l i M.xXI.4 + c ! A c A J M C l C d U C C = ;X4Xd LX1.M.JXl 6XpXw LXg.1.LXd wX+Xc LX`  X:.w.",
" X! '.g.` LXC pXw.z.y.g.DXc LX3.$.LXd  X6XJ LX$.R.D.A ;X  ` D.'.[.w.C M ;X;X  <X9.c ZXb.4 U T JX= M w.w.DXb.< A I.rXxXy.@.6XM 4XC pX@.B.lX  ) + X.JXi wXM.9 z.+ T z.lX(.M A '.LXw.c 4XJXLXLXLXLXJXLXLXLXZXLXDX! $X4Xl LX1.B.JXl 6XpX9 LXg.1.LXi wX+Xc LX`  X:.w.",
" X! '.g.` LXC pXw.z.y.g.DXc LX3.$.LXl  X4XU LX@.<X| K.1.1.rXD.1.g. XJXM.+ (.4X4 pXi U LXR.$ p.| U @.M.DXt T <XZXM.$.9 = ) wXt wXA wX:.p.LXc 4XD.C JXc 6X(.X.nXC p.w.w y.rXM.t ! xX(.< 3.xXgX1.A ! ` U | ! I.LXA $X4Xl LX1.B.JXl 6XpX9 LXg.1.LXi wX+Xc LX`  X:.w.",
" X! '.g.` LXC pX9.g.y.g.DXc LX3.:.LXl +X<XT LX| wXA I.X.` w ) D.9.T 9 4XpX+ 4X:.1.LXA 4 lX$X+ i LXb.K.t w.ZXg.w l b.lXD.C gX) 6XA wXw.1.LXi gXW.M LXM +XR.! LX4 pXLXwXD.i M.ZX@.<  XZXt ! gX4XK.[.W.I.R.C p.JXJ $X4Xd LX1.B.JXl 6XpX9 LXg.1.LXi wX+Xc LX`  X:.w.",
" X! '.g.` LXC pX9.g.y.g.DXc LX3.:.LXc +X;X) LX) 4Xw 4XJ   6XpXB.W.4X[.< <XI.T lX$ 1.LX3.$ LXD.4 nX9.  g.gXT l 4XLX X9.< J ZXw gXc wXp.1.LXt wXM.C LXc  X(.M LX4 <XD.C $XDX) J 4X[.+ w.LX) d gXLX$XJXLXLX:.b.LXA $X4Xd LX1.B.JXl 6XpX9 LXg.1.LXi wX+Xc LX`  X:.w.",
" X! '.g.` LXC pXw.z.y.g.DXc LX3.:.LXl +X$X` JX` rXd $X< +XI.t @.| w g.M.J gXd 4X! + C LXw.4 LXU | lX< ZX9.M gXp.= t 3.M.wXLXi 6XC pXy.3.LXl gXK.c JXc +X+Xc LXc ;X+X    9.DXK.9 W.DX$ ) LX| 9 LXpXU rXJX$.g.LXJ $X4Xd LX1.B.JXl 6XpX9 LXg.1.LXd wX+Xc LX`  X:.w.",
" X! '.g.` LXC pXw.z.y.g.DXc LX3.:.LXl +X;X` nX@.wXi = y.4X+ +X1.U 9   R.t nXc  X:.! c ) DXd B.pX9 nX:.| 4Xt l A $XLXxX(.p.:.d xXJ pX3.1.DXd wXD.d LXA '.[.d LXd +X X) '.  ;XLX;Xd :.LXC c LXX.l nX$Xd LX@.y.LXJ $X4Xd LX1.B.JXl 6XpX9 LXg.1.LXd wX+Xc LX`  X:.w.",
" X! '.g.` LXC pXw.z.y.g.DXc LX3.$.LXd  X<X` pX1.wX+ M.LXw B.3.t 3.3.l R.T 6XM ;XX.< T   $XI.l ZXw B.$Xd lX4 3.JXK.c $ ) J J i wXM wX3.9.LXl pXI.i LXJ (.+XC LXA ;X'.l LXM +X(.9.LXM ! JXi ! nX! | LXp.M 1.z.LXT $X4Xd LX1.B.JXl 6XpX9 LXg.1.LXi wX+Xc LX`  X:.w.",
" X! '.g.` LXC pXw.z.y.g.DXc LX3.$.LXi  X4X` wX9.$Xl b.t $ <X< C J c y.B.C nXw wX! :.$XM A wX9 nXX.3.wXd nXC <X+X< K.xXZXDXDXd pXA wXw.1.LXt rXK.d LXM (.;XM nXU [.4Xl JXt ;X[.$ U LXM ) LX4 p.ZX< p.LXX.  D.LXJ $X4Xd LX1.B.JXl 6XpX9 LXg.1.LXi wX+Xc LX`  X:.w.",
"[.) '.p.` LXM pXw.g.p.g.DXM LXw.:.LXl +X;X@. Xy.[.l w.I.C [.i M | D.9.9 gX9.U nXt = U W.t 6X9 6XM.T ZXc wXX.B.JXZX4X@.w $.pXM wXC 4Xp.1.LXi 6XW.M DXJ I.;XC JXA  X;Xl DXC '.+XM d | LXi w.ZX+ ;X6X$ 6XLX$ b.LXc ;X<Xd LX1.M.LXd 6XpX9 LXg.1.LXi wX+Xc LX`  X:.w.",
"[.) '.p.` LXM pXw.g.g.g.DXM LX9.:.LXl +X+X$.'.z.W.< z.:.= [.= R.;XA ` pXM.$ JX` X.LXT c A z.J [.W.) pXi 6X| I.4XM + $.c 1.6Xt lXd pX| @.LX9 pXD.t LXJ (.+Xw LXT '.rXt LXt +X<XM xXw b.nX9 <XD.  lX9.C LXK.I.LX` ;X<Xd LX1.M.LXd 6XpX9 LXg.1.LXi wX+Xc LX`  X:.w.",
"[.) '.p.` LXM pXy.z.g.g.DXM LX9.1.LXl +X X1.I.K.g.  B.M.X.t = (.w.(.<XT i lXK.9 4 (.LXd   3.4 rXw.$.pXA ZX` + 9 g.LX<X  6XM.J xX< 4 t D.LXc wXD.c LXA R.<Xl LXU [.+Xl LXl b.rXM DXJ d LXB.w LX) | LXw R.LXgX(.l ;X<Xd LX1.B.LXl 6XpX9 LXg.1.LXi wX+Xc LX`  X:.w.",
"[.) '.p.| LXM pXy.z.g.g.DXM LX9.1.JXc $X[.3.B.[.:.A D.1.4X4X  $XlXU l g.DXz.  $X'.  K.[.  A M xX) 3.gXw <Xw U gXnXJ < D.ZX< W.R.9 nXLXLXwXd lXD.c ZX! R.+Xl ZX! [.pXt gX| K.rXi LXM W.xX9.4 p.pX  <Xp.l LXwXX.+ ;X<Xd LX1.M.LXl 6XpX9 LXg.1.LXi wX+Xc LX`  X:.w.",
"[.) [.p.| LXM pXy.g.g.g.DXM LX9.1.LXM $X X1.z.<XA i D.z.i J U z.= M.xXLXy.< pXD.6XR.   X!   1.LXt (.R.= l g.JXp.  ! nXDXw @.LXl d z.A M A = 4XR.M JXJ (.4Xc LXT +X4X< LXM z.pXM LXC D.'.$ M.nXLX@.) LXt R.JXLX) ;X<Xd LX:.M.LXd 6XpX9 LXg.1.LXi wX+Xc LX`  X:.w.",
" X) [.g.| LXC pXy.g.g.g.DXM LX9.1.LXM +X$XX.p.6XU z.b.R.lXb.=   $X6X$ ) 4XC p.= c $XC b.|   xXW.4 LX1.  D.xXi w rXLX@.  y.LX) + 9 ! < w.$XwXLXK.l LXc (.4Xw LXJ (.$Xl LXU B.ZXd DXA M.+XA LX$XU   + wX@.T LXLXl ;X<Xd LX:.M.LXd 6XpX9 LXg.1.LXi wX+Xc LX`  X:.w.",
" X) [.g.| LXC pXw.g.g.g.DXM LX9.:.LXc  X;XT y.wX  i :.c i I.w I.B.  ) M nXM + 9.w I.A :.B.l nXM b.wX4 b.JX9 $.JXR.+ T lXnXC w ! J LX4 $XLX1.:.4 C JXU W.+Xt DX! '.ZX  9   M.lXi LX! 3.lXd DXT   b.M ` JX< I.gXJ <X<Xd LX:.M.LXl 6XpX9 LXg.1.LXi wX+Xc LX`  X:.w.",
" X` [.g.| LXC pXw.g.p.g.DXM LX9.$.LXc [.<XA y.wX4 wX$XZX$X9 t | i DXLXM lXT i <Xw (.U p.$.) z.= xX$.M DXw ` JXX.$ '.JXy.= $ R.'.C LXt 4XW.< :.B.[.LX) K.LXR.LXU [.<X9 $Xc I.gXd JX:.y.gXC nXU M.LX4X+ pX1.w l 9 <X4Xd LX:.M.LXl 6XpX9 LXg.1.LXi wX+Xc LX`  X:.w.",
"+XU [.g.X.JXA lXg.M.M.g.LXc LX1.X.LXw  X6X  [.'.4 l w < (.'.+ | LXB.M   gX1.M R.9 [.c z.C 1.) 1.gX9 gX3.9 LX) t ZX<Xd $ w.'.LX(.C JXc $X'.C LXnXpX;XT y.lXrXpXl [.rXt LX) z.gXl JX@.9.JXi xXX.z.nXwXJ :.LXnXZXlXLX<Xt LX3.b.LXi 4XrXw LXg.1.LXd wX+Xc LX`  X:.w.",
"+X` (.z.` LXC U t ! ! y.LXC JXg.w.nXA +X4X+ $XM.w 4XJX+Xc l c gX@.l g.z.DX9.i (.$  Xt p.l b.  nX@.| ZX= pXB.= wX1.w   $XDXwXg.i J xXi +X;Xl JXD.  w   + = + = = [.R.t ZX) M.xX9 JX$.9.JXi nXX.y.'.9.B.4 9.@.3.:.gX<Xi LX3.b.LXd 4XrXw LXg.1.LXd wX+Xc LX`  X:.w.",
" X) (.M.| DXA @.y.:.T w @.A nX9.@.DXJ W.gXw $Xp.U y.) z.xXw K.W.t <XI.<XLX@.T p.A +X+   $.$.T lXw $X:.! xXw 6XlXp.4X9 +X;X$ 9 z. XLX+XLX'.t LXz.M LXA g.LXpXrXnXLXnXW.LXT g.DXd JX1.w.LXi nX$.1.<XC lX  $.w.w.4 ;X<Xl JX3.b.LXc 6XpXw LXg.1.LXd wX+Xc LX`  X:.w.",
"[.T +Xg.X.LXA wXLXrXZXxXX.c LX1.1.LXl ;XLXl 4XI.$ M D.U 9 < wXi A t t   9.c z.) X.9.  $.(.$ b.$X9 JX= $X[.  [.6X6X+Xi 4XW.w LXgXI.B.D.(.| t W.T C LXU B.ZXI.I.K.z.b.b.D.w g.DXt ZX3.9.LXi nX1.@.pXt xX$ b.LXLXX.[.<Xc DX3.b.LXc 4XpXw LXg.1.LXd wX+Xc LX`  X:.w.",
"[.` $X9.` LXC W.4 w C D.LXLXZXw.9.LXc ! J 9 rXg.` LX$XZX$X< W.9 d [.'.z.= l K.9 b.+X(.z.d   4X9.9. Xl ZX$.< w 4 9 =   4X$Xl DXy.J T U A ` ) J A g.JXT R.nXX.T C ` ) ) J T ;XnXw nX3.1.LXt xX9.| xXc lX  d lX;X`  X4Xl DX3.b.LXc 4XrXw LXg.1.LXd wX+Xc LX`  X:.w.",
"+X` (.z.` LX! 1.! 4XD.4 t D.ZXy.$.DX1.! z.ZXLX| $ M   9 :.$ :.w +XwX4X[.< M p.  M i l $ < + ZXl M.D.A LXlXLXnXDXLXlX4 4X;Xc DXnXgXLXJXJXLXLXlXLXnXLXU p.LXxXJXLXZXJXLXZXDXLX$Xd nX9.:.LXt gXy.` lXl lX< $ gXD.T ;X<Xl DX3.b.LXl 4XrXw LXg.1.LXd wX+Xc LX`  X:.w.",
"+XT W.B.` ZX) K.9 JXLXJXR.+ ) M y.LXLXZXgXK.c + w [.LX6X$.T $ A ZXW.nXC c +X  @.p.;X6XLX+X= lXM <X1.4 w.| X.c @.z.LX  4X X  i d d t 4 d 9 t l t l = d 9 $ l w t w t i w w t i w DXw.:.LXt rXp.` xXl wX9 = [.b.  4X;Xl LX1.b.LXl 4XrXw LXg.1.LXd wX+Xc LX`  X:.w.",
"[.! +Xy.| LXA 4XC p.JXW.gXJX3.4 = c w 9 t M g. Xi D.J 3.'.K.4 (.lXR.pXt :.< 3.JX+X+XR.<XwX= xXc  Xw.4 ` g.b.W.U J LX= $XLXnXnXDXDXZXDXDXxXlXlXDXnXJXgXLXDXnXZXDXJXnXxXDXDXnXgXnXLXp.:.LXt wXg.| gXJ wXt 9 p.<X+ 4X+Xl LX1.z.LXd 4XrXw LXg.1.LXd wX+Xc LX`  X:.w.",
"[.` '.z.X.LXC pXM.   XLXg.(.xXZX<XW.W.$XwXJXnX(.4 = 3.$.M   U LXM.LX3.  w R.lXp.` c 4 J 6Xd rXC 4X@.3.LXrX<XwXy.X.LX  $XlXy.1.:.:.w.X.1.D.LXK.1.9.@.:.1.1.@.z.X.y.y.@.:.3.9.3.:.9.$ 1.LXw rXg.| gXC wXl :.J xX  <X<Xi LX:.z.LXl 6XpXw LXg.1.LXd wX+Xl LX! +X$.w.",
"[.` '.z.| LXC gXy.< + b.JX4XK.M.R.<X4X[.I.b.z.K.4 '.6X(.M.w rX4XR.DX  M <XLXlXnXwXLXW.J 4Xt <Xl wXX.g.gXd   w   | DX$ lXD.9 :.3.p.` p.M i LXt J $.g.:.9.$.!   9.  A 9.9.1.X.$.3.@.:.[.LXl xXw.` rXM pX4 3.A lX  ;X4Xi LX:.z.LXl 6XpXw LXg.1.LXd wX+Xl LX! +X$.w.",
"[.` '.z.X.LXC pXg.g. X  $.4XxXxX;XM.D. X[.wXZXpXM i t i < '.lXb.LXA l pX$ = 4 $ ` nXI.U wXw DX4XJXgXZXLXZXLXLX1.1.LX  rXb.! LXDXLXJXDXW.C LXA ;XLXxXxXlXLX4Xd LXU z.DXDXDXJXLXLXDXLXJXLX4 pXp.@.wXd lX9 '.U gXd +X4Xi LX:.b.LXl 6XpXw LXg.1.LXd wX+Xl LX! +X$.w.",
"[.` '.z.X.LXC pXw.y.LXwXU < C b.(.gXxX4X;X X3.i   d ;X= 1.LXz.gX(.= | ;Xw lXDX XM LX'.! rX< D.D.9.y.| C ` ! ZX) y.rXi LXX.1.DXi + $ W. Xw JXA [.+X$ d < (.+Xd xXA + 9 i w   + < = 4 3.LX4 4Xz.U pXl lX$ 4Xd $X! [.4Xd LX1.b.LXl 6XpXw LXg.1.LXd wX+Xl LX! +X$.w.",
"[.` (.z.X.LXA gXy.1.LXLXJXgXR.J t l C C i < ) +Xg.9 w D.LXz.;XlX= $ X.pXT DX[.:.4 D.! A rX  d A ` X.g.b.g.3.LXi W.[.i DXt R.4X< 4X'.DXK.i LXT [.R.i xXgXJX$Xd LXpXW.A U '.;X$X[.<X! T LXd rXz.= 4 < DX  4XJ 6X$.W.4Xd LX1.b.LXl 6XpXw LXg.1.LXd wX+Xl LX! +X$.w.",
"[.` (.z.X.LXA gXw.b.$X(.) @.'.LXnXgXlXnXnXJXpXK.M w +XLXw.lXnX4 :.T ` ;XM LX` J 3.X.! M.4Xt lXLXJXxXlXgXwXxX;Xd lX1.! DXw rXy.A DX+XLXD.M xXM $X+XA DXp.rX[.4 T $XLX3.3.LXxXZXnXJXK.$.LX4 +XM.A wXM.gX  pXM R.3.I.4Xd LX1.M.LXl 6XpXw LXg.1.LXd wX+Xl LX! +X$.w.",
"[.` (.z.X.LXA gXw.$.+X  U @.d   c :.:.| @.A 9 M I.LXrXp.rXgXd | K.= J pXM LX) z.LXnXLXLX4X= nXT   d w l i l   T DX< [.[.l lX` 9.pX$ nX+Xc LXc  XW.U ZX$ B.ZX$X$.= U i M.gX  4   4XK.X.LXw 6XD.d <XnXLX< ;XU R.w.D.6Xl JX1.M.LXl 6XpXw LXg.1.LXd wX+Xl LX! +X$.w.",
"[.` (.z.X.LXA gXw.D.z.  LXJXnXrXI.b.9.9.b.'.pXLXgXI.D.LX6Xd ) 1.i 9 @.<XM LX$.w l M w | <X9 JXl g.DXDXDXDXJX$XlXg.t LX< b.nX  wX+X  A d d LXA $X'.J LX:.w i g.pXLXw.  ) [.< '.d ;XD.X.LX< 4XB.  l w c   lXT g.z.B.6Xl JX1.M.LXl 6XpXw LXg.1.LXd wX+Xl LX! +X$.w.",
" X! [.g.` LXC pXy.y.B.+ D.LXwXI.;XwXZXlXlXrXD.B.R.xXLXX.+ + d c p.w ! rXC LXLXxXxXLXW.A ;Xi DXl <XW.l c i @.LX;X  4XI.< LX) 9 JXT ) '.p.B.DXC ;X[.= w.4XrX+X) < | pXZXA   d LXT  XB.` LX4 wXp.` JX6X[.t ;XX.g.g.g.rXi LX1.B.LXl 4XpXw LXg.1.LXi wX+Xc LX`  X:.w.",
" X! [.g.` LXC pX3.z.M.9 l 1.JXLX<X'.K.K.'.;XrXLXJXK.< $ | b.D.D.A + X.<X$ 9.@.3.g.w.| T 6X9 lXd ;X9.t W.M.$XnX  z.gX+ <XK.  p.xX  T '.W.wXxXM +X(.d 9.d 9 z.wXgX@.+ w.JXz.  M.) K.4XU DXl [.g.+ w.'. Xl  X1.D.z.p.wXi LX1.B.LXl 4XpXw LXg.1.LXd wX+Xc LX`  X:.w.",
" X! [.g.` LXC pXg.g.y.D. X9 t 1.[.wXxXnXpX+XM.$.<   U t $.1.A t X.t T wXi $.9.@.| $.U A ;XC nXl rX| g.LX4X;X4 9.LX= b.4X=   DXnXp.9.| C C 9   ;X(.$ (.JX;XU t | gXpXc i LXI.w 4 D.[.A LXw 4X(.= | U M    X3.p.g.w.6Xd LX1.B.LXl 4XpXw LXg.1.LXi wX+Xc LX`  X:.w.",
" X! [.g.` LXC pXw.g.z.y.LXLX'.A c d t i A ) l   $ | LXC t | 9.I.X.  X.pXJ JXZXLXJXLXR.) R.T pXc gXX.B.6X  = T LXt ! DXd w < A w.D. X;X4XwX4XrXLXnX9.| i y.xXrX$.$ b.JX$.+ DX(.  9.pXt LXi '.b.) LXZXZXJ W.p.g.M.w.wXd LX:.B.LXl 4XpXw LXg.1.LXi wX+Xc LX`  X:.w.",
" X! [.g.` LXC pXp.9.y.y.ZX'.4XLXnXwX4X XD.1.C M R.JXrX! T pXD.t ` l ! +XM LXg.t C c i T z.1.wXi lXt $XD.` R.p.;X$ LXw.+ M.(.b.y.X.U M ` | A ) U 1.z.M.9.t   ` wX$Xc l LXp.= JXK.= '.  LXU R.+X  i J DX) M.b.w.g.9.wXl LX:.M.LXc 4XpXw LXg.1.LXi wX+Xc LX`  X:.w.",
" X! [.g.` LXC pX9.B.w.M.LX$ 9 9 M ` ! c J 3.[.DXlXX.T M.$ w J K.3.4 X.wX! DXJ D.LXxXLXLX1.$.;XC rXd ZX$.3.DXLX@.1.6X    t l U J X.g.g.w.p.b.b.9.1.p.| $.` i + 4 @.4X3.t DXy.< ZX:.  ` JXC [.K.A '.t 4X$.b.B.:.B.1.wXl LX$.M.LXc 4XpXw LXg.1.LXi wX+Xc LX`  X:.w.",
" X! [.g.` LXC pXw.b.p.p.gXC LX1.$.nXnXnXLXJX6X3.d M $.'.J pX(.U U t ` $XA JX@.M z.:.y.z.9 M.'.t rX  J 4 J :.y.  ;X1.  g.| t |   ) 9 i C i 4 $ C U ! ) X.3.b.g.z.J i I.1.U LX! A ZXLXDX+Xi M. XU LXU 6Xy.@.I.1.y.@.4Xl LX:.M.LXl 4XpXw LXg.1.LXi wX+Xc LX`  X:.w.",
" X! [.g.` LXC pXp.y.p.g.LXi LX9.9.ZXz.` ! t J   p.JX$.$X  A d y.D.+ ` rXM LX[.g.p.z.p.w.4 K.M.` LX+X[.K.M.:.M y.wXw t ) (.l '.t xX@.I.JXZXLX4X4X+Xg.B.X.U ! C l < $   J < ) LXi U c w U J ;X6XA ZXc  XM.J W.y.y.` ;Xd LX:.B.LXl 4XpXw LXg.1.LXi wX+Xc LX`  X:.w.",
"[.` (.g.| LXC pXw.g.g.g.ZXc JX9.:.LX4 3.9.M LX:.y.LX) ;Xt (.pXB.l C A gXd (.pXwXwXpXgXpXA +X9.C b.B.R.D.$XLXZXLXg.9 K.i W.t (.c y.<XT LXp.! :.M.K.R.<X4XlXZXxXZXwXR.1.=   + p.gX| K.gXZX6X X1.4 xXC W.z.J +X$.p.| 4Xw ZXy.M.JXc 4XpXw LXg.1.LXi wX+Xc LX`  X:.w.",
"[.` (.g.| LXC pXw.g.g.g.DXM LX9.$.LXM 4X6X` JX@.p.xXX.;Xi A c C +Xc A pXt i < w w 4 $ t   DX@.i |   J c i 6XC rX4 + '.d K.! @.M.l ZX! wXA :.@.t :.X.) M M c J @.y.$XlXgX(.w   '.LX$X1.c c d ) w.LXT D.$XT (.T W.c 6X! JX9.B.LXd 4XpXw LXg.1.LXi wX+Xc LX`  X:.w.",
"[.` (.g.| LXC pXw.g.g.g.DXM LXw.3.JXd ;X4XU ZX1.3.LXM (.` X.lX4X) w T xXDXxXLXJXZXLXDX;Xd DXt W.LXt ZXM K.I.) $X9 l 9.1.) D.t '.t 4Xg.z.U rXrXU LXLXLXJXLXJXwX Xp.A $ ! y.y.4 < rXb.  b.gXnXDXLX(.d 3.;XU $X9 l 9 <X1.LX3.M.LXd 4XpXw LXg.1.LXi wX+Xc LX)  X:.w.",
"[.` (.g.| LXC pXw.g.g.g.DXM LXw.:.LXl +X$XT JX@.w.DXJ (.y.+ ! < 9.z.d DXLX3.T c M M A d i ZX$ gX(.C xXi rXJ W.1.C y.l [.$ 4XT D.X.| JX) l $XwXA LX(.| ` | | 3.9.LXp.@.;X:.J 9   w LX| ) LXC z.DXU M W.rXl ;Xi l w [.:.JX3.b.JXl 4XpXw LXg.1.LXd wX+Xc LX`  X:.w.",
"[.` (.g.| LXC pXw.g.g.g.DXM LXw.$.LXC $X<X` LXX.3.DXX.:. X= '.6X+Xt w t ZXJ X.6X;X$XgXU g.6Xt LX$.9.;XJ gX9 wXd + <X9 M.U c K.$.4X< lX:.$ $X<XJ LX:.i K.I.b.9.d gXB.3.LXLXJX<X$.< ` DX= K.+X+ 6XLXwX4XLXi '.c 3.d '.$.LX3.b.LXc 4XpXw LXg.1.LXd wX+Xc LX)  X:.w.",
"[.` (.g.| LXC pXw.g.g.g.DXM LXw.1.LXd  X$XT JX$.3.LX3.i xX< ! | 4 B.rX< +XJ R.xXK.W.'.l b.D.d LXA p.K.) $XM 4Xd 9 9.9.l 6X< I.<XnXM p.wX+ rX<XJ LXw.| LXlXLXnXd LXw.+ | d U @.`     [.<X  JXw.  d M i nXc R.) p.C $X@.LX3.b.LXl 4XpXw LXg.1.LXi wX+Xc LX)  X:.w.",
"[.` (.g.| LXC pXw.g.g.g.DXM LX9.$.LXc <X6X) JX$.b.JXnX$.;X9.$ W.pX;Xt A xX9 gXJ A | ` 4 R.g.) ZXC <XX.I.w.y.b.w I.$ $X< p.y.  w.` w w LXC W.<XT DXy.:.xXM (.LXc lXy.| R.M +X4Xg.3.d   nX:.A ZXb.[.$Xd pX| z.@.  1.4XA LX3.z.LXl 4XpXw LXg.1.LXi wX+Xc LX`  X:.w.",
"[.` (.g.| LXC pXw.g.g.g.ZXc JX9.:.LXc  X+X! LX$.C  X'.@.$.lX  C J d 1.LXU ! lXc ZXLXDXd 6X| B.gX< ZXw 4X) B.w.  K.A :.M.9 DX!   I.|   4XB.b.rXA LX:.@.LXd I.LXi JXw.y.gXM $X6XnXLX(.4 ` pXw [.4X'.ZXJ <Xy.:. X  I.<X= LXw.g.JXl 4XpXw LXg.1.LXi wX+Xc LX`  X:.w.",
" X) '.g.| LXM pXw.z.y.g.DXc LX3.@.LXd  X<X` DXz.i C d J 9 $XW.  ` K.<XM 9 JX@.9.LX X<Xl rXt $X XM <XA <XU <XA $ T R.  <XJ ) JX9 K.LX$ T LX) [.A LX9.X.LXl (.LXd ZXw.9.gXi c M   <XlX    pXg.  l   rX` w. Xi DX< R.;Xl ZXw.p.LXc 4XpXw LXg.1.LXi wX+Xc LX`  X:.w.",
" X) '.g.| LXM pXw.z.y.g.DXc LX3.3.LXM 4X XJ LXJXLXLXLXLXwXl DX;XC i $ 3.JX[.C LXrXz.K.w lX9 xX9.w.W.X.;X9 6XJ M.  I.9.< +X  D.gX  4X X$ gXB.U ` JX3.$.LXc R.JXc ZXg.w.6XC JXLXt nXLXt t U wXw xXJ [.y.X.wXw lX` p.rXd LX9.p.LXl 4XpXw LXg.1.LXi wX+Xc LX`  X:.w.",
" X) '.g.| LXM pXw.z.y.g.DXc LX9.@.LXw (.xXw | @.) ` | J :.c   W.gXpXLXlX3.+ p.JXB.p.I.@.rXd LXJ B.w.1.W.` B.` LXt +  XM 3.pX+ rXB.< LXM :.pX4 U LX3.` JXl W.JXc nXw.w.xXt D.R.  @.R.= z.i wX! R.M.) <XJ lXd $XLXLXxXi DX$.B.LXi 4XpXw LXg.1.LXi wX+Xc LX`  X:.w.",
" X) '.g.| LXM pXw.z.y.g.DXc LX9.1.LXC [.<Xd w.3.p.y.w.M.:.9.w.| z.rXDXy.:.| [.LX@.K.:.z.z.` JXl +X$.B.:.K.y.) JXK.w J  X  +XM.w LXt B. Xw JXl J JX9.$.LXc '.JXi JXy.3.JX| A J ) | ! J '.l I.z.)  Xc DX4 6XX.A w.b.) C LX3.B.LXt 4XpXw LXg.1.LXi wX+Xc LX`  X:.w.",
" X) '.g.| LXM pXw.z.y.g.JXc LX9.1.ZXC [.<XX.nXLXnXJXLXZXJXJXLXJXnXpXnXpXLXnXpXrXc rXJ <X| 3.nXl wXJ 4XA B.y.< @.T   $ 9.B.l LXU 1.6X< ZXl  XB.4 g.A @.LXd (.LXd lXg.1.ZXZXLXLXJXJXZXDXLXz.U ;XJ wXA 4XA $XM.  A c i M JX1.M.JXC 4XpXw LXg.1.LXd wX+Xc LX`  X:.w.",
" X) '.g.| LXM pXw.z.y.g.JXc LX9.:.DXl [.6X< C d C M w M M A w J l C C A C l C c M wX= 4XT M.xXM rX9 pXJ '.! 3.D.'.3.  + '.J $.pXw pXc D.g.T LXy.g.M | LXi (.LXd LXp.d T C U ! i M U c C $X9 rXd 6XA R.g.p.6X4 LXLXLX@.ZX3.K.DXl 4XpXw LXg.1.LXd wX+Xc LX`  X:.w.",
" X) '.g.| LXM pXw.z.y.g.JXM LX9.g.nXd ;X4XT lXnXnXpXDXnXZXlXlXnXZXxXpXxXlXxXZXgXZXlXM 4XJ <XR.d wXM 4XA lXc 6XLXZXZXw M ) pX+ rX` 9.+XC pXd  XDXLXy.1.LXc (.DXw pXw.:.rX6X;XwXgXrX<XpXc  XJ g.y.g.p.9.W.d JXi $X X+XC nX9.D.JXl 4XpXw LXg.1.LXi wX+Xc LX`  X:.w.",
" X) '.g.| LXM pXw.z.y.g.JXM LX9.X.LXc [.6X< @.:.$.:.@.1.:.$.y.X.$.@.9.$.1.3.) 1.3.c U wXt ZX9.w.W.` <Xd rXi < i A lX` $.d  Xw.` <Xw lXc <X` 9 t LX3.X.LXd R.DXM DXp.d y.p.y.:.p.3.g.y.i w.b.$.I.C pXt xXt rX! @.rXw.T LX9.z.LXd 4XpXw LXg.1.LXi wX+Xc LX`  X:.w.",
"[.) '.g.| LXM pXw.z.p.p.ZXc JXy.3.DXd <XDX(.I.K.R.I.R.D.R.R.R.D.I.K.B.W.W.K.R.I.(.A | 4X= LXU (.9.g. XM LXrXpXI.w JXD.A M.U 4Xi pX4 rXM z.LX<Xd LXy.X.JXC W.LXl DX4XI.M.B.K.M.g.K.p.R.:.| <Xi 6XA 4Xc 4X) z.[.i DXT w JX9.z.JXd 6XpX9 LXg.1.LXd wX Xc LX`  X:.w.",
"[.) '.g.| LXM pX9.g.p.g.JXC LXy.:.LXd :.$X$X X$X X[. X<X X X+X$X'.$X$X(.<X'.+X'.6XT z.(.) LX9 ;X$.9.M.i nX$.gXnXM gXrX`  Xw gXC $X@.W.M.t i y.w gXb.@.JXl K.LXw (. X;X<X$X$X<X6X X<X<X'.d ;Xi 4XC [.p.:. XU lX= ;Xg.  LXp.p.LXc 6XpX9 LXg.1.LXd wX Xc LX`  X:.w.",
"[.) '.g.| LXM pXw.g.y.p.JXM JXw.:.LX1.A J J A U U U J ) = d ! A J A J C c T A ) U   ;X@.:.JXw gXc  XD.d DX  R.xXt xXnXt <X! 4Xi [.` U rXgX6XA   gXz.| LXM K.LX) l M A J C M M C C C M J + ;X$.p.z.3.'.c lXl wX:.3.xXw JX9.M.LXi 6XpX9 LXg.1.LXd wX+Xc LX`  X:.w.",
"[.) '.g.| LXM pXp.g.y.p.DXc JXy.w.DXLXLXLXLXLXJXLXLXJXLX:.R.LXDXDXLXDXLXLXZXLXDXrX= gXM R.;Xd pXi c 4 C DX$  XpXA rX1.X.pX  wXC I.W.T i i $Xg.< 4Xb.X.LXl W.LXnXLXLXDXDXLXLXLXDXLXJXJXLXz.b.b.` wX9 DX< B.w z.[.  ZX1.xX3.b.LXl 6XpX9 LXg.1.LXd wX+Xc LX`  X:.w.",
"[.) '.g.| LXM pXw.g.y.g.LXC LXg.  i i 9 < w w 9 9 t $.ZX! | R.M.D.D.M.b.z.R.g.xX4Xd xXl rXB.) DXlX[.y.J xXi  XxXl 4XU 4XX.9.pX= +XJX$XLXB.  J < p.(.3.JXi @.D.W.z.M.B.D.D.D.D.D.b.I.b.R.! U ;XJ 6XM xXg.w ` w.LXl (.I.B.z.b.JXM 6XpX9 LXg.1.LXd wX Xc LX`  X:.w.",
"[.! '.g.| LXM pXw.g.p.b.LXc ZXw.@.$X4X+X4X;X X<X4X1.T LXw.C T A A C ! U U < d LX! ! <Xt pXX.  M C B.wX4 JXU M.xXc gXT ;Xd K.+ :.pXc M ` t w.LXc M.'.X.LX:.C A l A U U U A C C A U U M J ! d xX= nXA z.LXxX6X4X<XT U wX$.z.b.LXl 6XpX9 LXg.1.LXd wX Xc LX`  X:.w.",
"[.) '.g.| LXM pXy.g.g.z.JXd ZXy.T $X+X'.[.(.[.$XLX'.T LXLXJXLXLXJXLXLXJXLXi lX[.  p.gXK.LXR.y.'.$.U rXi pX) D.ZXM (.@.wXl c z.LXC $.JX| 4 gXK.= nXg.| LXLXnXLXLXLXLXLXJXLXLXLXLXLXxXLXLXrXl rXd $X@.= T w < 9 d w   lXK.! g.LXc 6XpXw LXg.1.LXd wX Xc LX`  X:.w.",
"[.) '.g.| LXM pXy.g.p.g.JXM LXI.C @.C T ! ! ! $ +X$X$ A A J C C A c l ` 9 9.JX= + ;XZX;XlXLXpXD.| C rXl <X$.g.xXC +XU rX<   U !   ` ` d   l $ D.pX= 4 U ! J C M A J J J J J J J U T A T A T rX9 +XxXR.+ T gXDXwXwXd D. X4 K.JXc 6XpX9 LXg.1.LXd wX Xc LX`  X:.w.",
" X! '.g.` LXC rX9.p.z.z.DXA wXZXgXDXJXDXLXJXLXU R.LX X;X+X+X<X X$X+X4X[.d ZXX.  R.JXl w.ZX! $ U ! @.lXt pX:.g.nXi wXA nX<XW.R.I.R.K.D.D.W.;XlXJXwX4X$X+X$X$X$X+X;X$X;X[.;X+X$X[.+X+X[.B.< $XT @.xX! i ! LXB.w A M $ A JX$ M.JXC 4XrXw LXg.1.LXd wX+Xc LX`  X:.w.",
" X! '.g.` LXC pXz.z.9.y.LX$ T l A M t rX<Xw.LX) I.LX'.'.[.'.[. X(.;X;Xy.) rX9 wXwXw w JXd C gXLX6XlXLX= R.z.$.nXc 4Xd D.[.;X$X[. X+X+X X[.(.(.(. X[.'.'.[. X X[.[.R.$X X(. X;X;X$X4XLXK.U $Xw 6Xt U 4XZXX.= +X6XxXb.< 6XC b.LXi 4XrXw LXg.1.LXd wX+Xc LX`  X:.w.",
" X! '.g.` LXM rX3.b.p.g.LXc +XpXnXgXM rXW.! LXT (.gX` c U U A U ! J M M '.I.C $X+ z.+X1.J DXZXU i t [.l  Xw.b.DXM wX) A M c C J A J U T U U J J J A A J U U U J ! M J J A d + U   y.JX:.:.p.p.X.` LX(.= A 9 1.J l R.) 6X1.b.LXl 6XpXw LXg.1.LXd wX+Xc LX`  X:.w.",
" X! '.g.` LXC pXy.b.y.p.JXc gXrXI.B.4 <X+X@.ZX) (.LXZXLXLXLXZXJXDXLXLXJXLX@.$.$.9.DX;X= (.LXg.c ZXB.= = 6Xw.w.nXc gXLXLXLXJXLXLXLXJXJXJXJXLXLXLXLXLXLXLXLXLXLXLXDXLXJXLXLX[.` DXB.3.ZX1.R.:.U i rXnXA b.LXI.= B.W.9 $ gXw.y.ZXl 4XpXw LXg.1.LXd wX+Xc LX`  X:.w.",
" X! '.g.` LXM rXy.y.y.b.LXJ ZXz.= ! ! xX(.X.nXT = C J T M M J U c J C C U =     d C d   t U 4 + J C   t LX` b.ZX4 M A c J C U M U U U U U J A C U U J A A J J J J T C M ! l i LXg.! LX9.  i + + T A   M M c   A T   ) ZX@.B.LXi 4XrXw LXg.1.LXd wX+Xc LX`  X:.w.",
" X! '.g.` LXM rXp.y.g.z.gXd LX9.@.LXxXLX'.$.LX<X$X[.[.+X[.$X$XR.$X X<X X;X;X$X6X[.;X X<X$X;X+XrX;X;X[.<XZX1.b.LXwX'.+X+X+X X;X X[.[.[. X+X+X+X X X X[.[.[.[. X X X(.+X X[.[.'.LXw.K.DXlX4X6X[.4X[.+X6XW.<X<XpXW. X4XZXLX3.b.LXd 4XrXw LXg.1.LXd wX+Xc LX`  X:.w.",
" X! '.z.` LXM rXp.y.w.z.JXC LX3.:.LXD.b.$.9 y.I.B.M.I.D.b.B.D.I.D.p.B.b.K.g.I.p.D.B.B.B.D.b.b.z.z.M.I.w.D.l l B.b.g.K.K.b.z.M.B.K.D.M.M.M.B.B.B.B.B.B.B.B.B.D.D.R.z.D.M.b.D.D.b.M C g.z.M.z.M.B.B.g.B.R.b.y.M.M.B.b.b.z.t z.LXw 4XrXw LXg.1.LXd wX+Xc LX`  X:.w.",
" X! '.z.` LXM rXw.z.p.z.JXt JXy.w.ZXp.| ! :.1.) X.| X.` $.$.) | ` @.@.| ` $.) $.X.) X.:.) @.@.X.:.) @.1.) :.1.| $.$.| ` ` $.| | | | | | X.X.| ` | X.@.@.@.X.| | ` | $.` @.| @.X.@.9.| $.` X.:.` @.` 1.U $.$.` @.| X.@.X.) <XDXC 4XrXw LXg.1.LXd wX+Xc LX`  X:.w.",
"+X! '.z.` LXM pXg.y.w.w.LXA xXp.:.gXxXlXZXxXZXnXnXnXnXnXnXnXZXZXnXnXnXnXnXnXnXnXnXnXnXnXnXnXZXZXnXnXnXnXnXnXnXnXnXnXnXnXnXnXnXnXnXnXnXnXnXnXnXnXnXnXnXnXnXnXnXnXZXZXZXnXnXnXnXnXnXnXnXnXnXnXnXnXnXnXnXnXnXnXnXnXxXxXxXZXxXZX+Xd 4XgX4 ZXb.1.LXd 6X XM JX) $X$.9.",
" X! [.z.` LXC pXw.g.z.b.xXc JXb.$ U M c J M C c M M M M M M M C M M M M M M M M M M M M M M M M M M M M C C M C M M M M M M M M M M M M M M M M M M C C C C C C M M M M M M M M M M M M C M M M M M M M M M M M C A J J d M J = wXlXd LXw.3.LXi wX+XC JX) +X$.w.",
" X! [.z.` LXC pXy.z.9.M.JXC LXDXDXLXnXDXLXZXJXDXDXDXDXDXDXDXDXDXDXDXDXDXDXDXDXDXDXDXDXDXDXDXDXDXDXDXDXDXDXDXDXDXDXDXDXDXJXDXDXDXDXDXDXDXJXJXDXDXDXDXDXDXDXDXDXDXDXDXDXJXJXJXJXJXDXDXDXDXDXDXDXDXDXDXDXDXJXDXJXJXZXnXxXDXxXxXLXLXLX<Xw LX3.:.LXi rX+XC JX! +X$.w.",
" X) [.z.` LXC pX9.B.1.y.DX4 ) 3.X.@.X.:.$.| :.$.$.$.$.$.$.$.$.$.$.$.$.$.:.$.$.$.$.$.$.$.$.$.$.$.$.$.$.$.$.$.$.$.$.$.$.$.$.$.$.$.$.$.$.$.$.$.$.$.@.@.@.@.@.@.$.$.$.$.$.:.:.:.:.:.$.$.$.$.$.$.$.$.$.$.$.$.$.$.$.$.3.$.X.1.9.:.X.@.3.! = LXy.w.LXi wX XC LX)  X$.y.",
"[.) [.z.` LXC rXw.D.M.z.LXR.b.B.D.K.I.R.D.D.R.D.K.K.K.K.K.K.K.K.I.I.I.I.I.I.I.I.K.K.K.K.K.K.K.K.I.I.I.I.I.I.I.I.K.K.K.K.K.K.K.K.D.D.D.D.K.K.D.D.K.K.K.K.K.K.K.K.K.K.K.K.K.K.I.I.K.K.I.I.K.K.K.K.K.K.K.K.K.K.K.K.D.K.K.D.K.B.b.K.b.I.R.LXp.p.LXd 6X[.M LX) +X$.y.",
"[.)  Xg.` LXC rXz.! X.X.$X;X4XwX<X<X<X;X$X4X4X+X<X<X<X<X<X<X<X<X;X;X;X;X;X;X;X;X;X;X;X;X;X;X;X;X<X<X<X<X<X<X<X<X;X;X;X;X;X;X;X;X;X;X;X;X<X<X;X;X<X<X<X<X<X<X<X<X;X;X;X<X<X<X<X<X;X;X<X<X;X;X;X;X;X;X;X;X;X;X;X;X<X4XwX;X<X6X4XwX4X4X<X$XX.` (.l rX[.M LX` +X$.y.",
"[.)  Xg.` LXC rXg.t d t l 9 4 4 w 9 9 4 9 t w 9 9 9 9 9 9 9 9 9 9 9 9 9 9 9 9 9 w w w w w w w w 9 9 9 9 9 9 9 9 w w w w w w w w w w w w w w w w w w w w w w w w w w w w w w w w 9 9 9 9 9 9 9 9 w w w w w w w w 4 < 9 = 4 t < = 4 + 4 d t w M w lX+Xc JX` +X$.y.",
"[.)  Xg.` LXC wXLXZXLXJXLXLXLXLXLXLXLXLXLXLXDXLXLXLXLXLXLXLXLXLXLXLXLXLXLXLXLXLXLXLXLXLXLXLXLXLXLXLXLXLXLXLXLXLXLXLXLXLXLXLXLXLXLXLXLXLXLXLXLXLXLXLXLXLXLXLXLXLXLXLXLXLXLXLXLXLXLXLXLXLXLXLXLXLXLXLXLXLXLXLXLXLXLXJXLXLXDXLXJXLXLXLXLXJXLXLXxXLXZX$Xc JX` +X$.y.",
"[.| [.g.` DXM M ` ` ` ` ` ` ` ` ) ) ) ` ` ` ` ` ` ` ` ` ` ` ` ` ` ` ` ` ` ` ` ` ` ` ` ` ` ` ` ` ` ) ) ) ` ` ` ` ` ` ` ` ` ` ` ` ` ` ` ` ` ` ` ` ` ` ` ` ` ` ` ` ` ` ` ` ` ` ` ` ` ` ` ` ` ` ` ` ` ` ` ` ` ` ` ` ` ` ` ` ` ` ` ` ) ) ) ) ) ) ) ) X.l J xX@.$X| w.",
"[.) W.p.X.LXW.(.R.R.R.R.R.R.R.R.R.R.R.R.R.W.W.W.R.R.R.R.R.R.R.R.R.R.R.R.R.R.R.R.R.R.R.R.R.R.R.R.R.R.R.R.R.R.R.R.R.R.R.R.R.R.R.R.R.R.R.R.R.R.R.R.R.R.R.R.R.R.R.R.R.R.R.R.R.R.R.R.R.R.R.R.R.R.R.R.R.R.R.R.R.R.R.R.I.I.I.I.I.I.I.I.R.R.R.R.R.R.R.R.I.K. XLX)  X@.w.",
"(.|  XD.T wX6XlXgXgXgXgXgXgXgXgXlXlXlXlXlXxXxXxXxXxXxXxXxXxXxXxXxXxXxXxXxXxXxXxXlXlXlXlXlXlXlXlXlXlXlXlXlXlXlXlXlXlXlXlXlXlXlXlXlXlXlXlXlXlXlXlXlXlXlXlXlXlXlXlXlXlXlXlXlXlXlXlXlXlXlXlXlXlXlXlXlXlXlXlXlXlXlXlXlXlXlXlXlXlXlXlXlXlXlXlXlXlXlXlXgXlXxXpXA ;X3.9.",
"[.` I.M.  < = + $ $ $ $ $ $ $ $ $ $ $ $ $ $ = = = = = = = = = = = = = = = = = = = = = = = = = = $ $ $ $ $ $ $ $ $ $ $ $ $ $ $ $ = = = = = = = = = = = = = = = = $ $ $ = = $ $ $ $ $ $ $ $ $ $ $ $ $ $ $ $ $ $ $ = = = = = = = = $ $ $ $ $ $ $ $ $ $   =   [.1.g.",
"+X| R.LXxXLXLXJXLXLXLXLXLXLXLXLXLXLXLXLXLXLXLXLXLXLXLXLXLXLXLXLXLXLXLXLXLXLXLXLXLXLXLXLXLXLXLXLXLXLXLXLXLXLXLXLXLXLXLXLXLXLXLXLXJXJXJXJXJXJXJXJXLXLXLXLXLXLXLXLXLXLXLXLXLXLXLXLXLXLXLXLXLXLXLXLXLXLXLXLXLXLXLXLXLXLXLXLXLXJXLXLXLXLXLXLXLXLXLXLXDXLXJXLXDXLXX.:.",
"[.! A p.3.3.w.:.9.9.9.9.9.9.9.9.9.9.9.9.9.9.w.w.9.9.9.9.3.3.9.9.9.9.9.9.3.3.9.9.9.9.9.9.9.9.9.9.9.9.9.9.9.9.9.9.9.9.9.9.9.9.9.9.3.3.3.3.3.3.3.3.9.9.9.9.9.9.9.9.9.9.9.w.w.9.9.9.9.9.9.9.9.9.9.9.9.9.9.9.9.9.9.9.9.9.9.9.3.3.9.9.9.9.9.9.9.9.9.9.3.y.w.9.w.3.w w.",
"+XW.9.p.1.9.9.y.3.3.3.3.3.3.3.3.3.3.3.3.9.9.9.9.9.9.9.9.3.3.3.9.9.9.9.9.3.3.3.9.9.9.9.9.9.9.9.9.3.3.3.3.3.3.3.3.3.3.3.3.3.3.3.3.9.9.9.9.3.9.9.9.9.9.9.9.9.9.9.9.3.3.3.9.9.3.3.3.3.3.3.3.3.3.3.3.3.3.3.3.3.3.3.3.9.9.9.9.3.3.9.9.3.3.3.3.3.3.3.3.1.3.9.9.9.w.9.;X",
"z.rX<X4X4XpX<X<X<X<X<X<X<X<X<X<X<X<X<X<X<X4X4X4X4X4X4X4X<X<X4X4X4X4X4X4X<X<X4X4X<X<X<X<X<X<X<X<X<X<X<X4X<X<X<X<X4X4X4X4X4X4X4X4X4X4X4X4X<X<X4X4X<X<X<X<X<X<X<X<X<X<X4X4X4X4X<X<X<X<X<X4X<X<X<X<X<X<X<X4X<X<X<X<X<X<X<X<X<X<X<X<X4X4X4X4X4X4X4X4XwX;X4X4X<X4X<X$X"
};
